<?xml version="1.0" encoding="UTF-8"?>
<map version="1.10" tiledversion="1.12.1" orientation="orthogonal" renderorder="right-down" width="30" height="20" tilewidth="16" tileheight="16" infinite="1" nextlayerid="22" nextobjectid="1737">
 <tileset firstgid="1" source="bossmatrix.tsx"/>
 <layer id="1" name="background0" width="30" height="20">
  <data encoding="csv"/>
 </layer>
 <layer id="3" name="background1" width="30" height="20">
  <data encoding="csv"/>
 </layer>
 <layer id="5" name="walls" width="30" height="20">
  <data encoding="csv">
   <chunk x="-64" y="-48" width="16" height="16">
0,0,0,0,0,0,0,0,0,0,0,0,0,0,0,0,
0,0,0,0,0,0,0,0,0,0,0,0,0,0,0,0,
0,0,0,0,0,0,0,0,0,0,0,0,0,0,0,0,
0,0,0,0,0,0,0,0,0,0,0,0,0,0,0,0,
0,0,0,0,0,0,0,0,0,0,0,0,0,0,0,0,
0,0,0,0,0,0,0,0,0,0,0,0,0,0,0,0,
0,0,0,0,0,0,0,0,0,0,0,0,0,0,0,0,
0,0,0,0,0,0,0,0,0,0,0,0,0,0,0,0,
0,0,0,0,0,0,0,0,0,0,0,0,0,0,0,0,
0,0,0,0,0,0,0,0,0,0,0,0,0,0,0,0,
0,0,0,0,0,0,0,0,0,0,0,0,0,0,0,0,
0,0,0,0,0,0,0,0,0,0,0,0,0,0,0,0,
0,0,0,0,0,0,0,0,0,0,0,0,0,0,0,0,
0,0,0,0,0,0,0,0,0,0,0,0,0,0,0,0,
0,0,0,0,0,0,0,0,0,0,0,0,0,0,38,38,
0,0,0,0,0,0,0,0,0,0,0,38,38,38,39,0
</chunk>
   <chunk x="-48" y="-48" width="16" height="16">
0,0,0,0,0,0,0,0,0,0,0,0,0,0,0,0,
0,0,0,0,0,0,0,0,0,0,0,0,0,0,0,0,
0,0,0,0,0,0,0,0,0,0,0,0,0,0,0,0,
0,0,0,0,0,0,0,0,0,0,0,0,0,0,0,0,
0,0,0,0,0,0,0,0,0,0,0,0,0,0,0,0,
0,0,0,0,0,0,0,0,0,0,0,0,0,0,0,0,
0,0,0,0,0,0,0,0,0,0,0,0,0,0,0,0,
0,0,0,0,0,0,0,0,0,0,0,0,0,0,0,0,
0,0,0,0,0,0,0,0,0,0,0,0,0,0,0,0,
0,0,0,0,0,0,0,0,0,0,0,0,0,0,0,0,
0,0,0,0,0,0,0,0,0,0,0,0,0,0,0,0,
0,0,0,0,0,0,0,0,0,0,0,0,0,0,0,0,
0,0,0,38,38,38,38,38,0,0,0,0,0,0,0,0,
0,38,38,39,0,0,0,37,4,4,4,4,38,0,0,0,
38,39,0,0,0,0,0,0,38,38,38,38,4,4,38,0,
0,0,0,0,0,0,0,0,0,0,0,0,38,38,11,0
</chunk>
   <chunk x="32" y="-48" width="16" height="16">
0,0,0,0,0,0,0,0,0,0,0,0,0,0,0,0,
0,0,0,0,0,0,0,0,0,0,0,0,0,0,0,0,
0,0,0,0,0,0,0,0,0,0,0,0,0,0,0,0,
0,0,0,0,0,0,0,0,0,0,0,0,0,0,0,0,
0,0,0,0,0,0,0,0,0,0,0,0,0,0,0,0,
0,0,0,0,0,0,0,0,0,0,0,0,0,0,0,0,
0,0,0,0,0,0,0,0,0,0,0,0,0,0,0,0,
0,0,0,0,0,0,0,0,0,0,0,0,0,0,0,0,
0,0,0,0,0,0,0,0,0,0,0,0,0,0,0,0,
0,0,0,0,0,0,0,0,0,0,0,0,0,0,0,0,
0,0,0,0,0,0,0,0,0,0,0,0,0,0,205,38,
0,0,0,0,0,0,0,0,0,0,0,0,0,0,0,0,
0,0,0,0,0,0,0,0,0,0,0,0,0,0,0,0,
0,0,0,0,0,0,0,0,0,0,0,0,0,0,0,205,
0,0,0,0,0,0,0,0,0,0,0,0,0,0,0,0,
0,0,0,0,0,0,0,0,0,0,0,0,0,0,0,0
</chunk>
   <chunk x="48" y="-48" width="16" height="16">
0,0,0,0,0,0,0,0,0,0,0,0,0,0,0,0,
0,0,0,0,0,0,0,0,0,0,0,0,0,0,0,0,
0,0,0,0,0,0,0,0,0,0,0,0,0,0,0,0,
0,0,0,0,0,0,0,0,0,0,0,0,0,0,0,0,
0,0,0,0,0,0,0,0,0,0,0,0,0,0,0,0,
0,0,0,0,0,0,0,0,0,0,0,0,0,0,0,0,
0,0,0,0,0,0,0,0,0,0,0,0,0,0,0,0,
0,0,0,0,0,0,0,0,0,0,0,0,0,0,0,0,
0,0,0,0,0,0,0,0,0,0,0,0,0,0,0,0,
0,0,0,0,0,0,0,0,0,0,0,0,0,0,0,0,
0,0,0,0,0,0,0,0,0,0,0,0,0,0,0,0,
0,0,0,0,0,0,0,0,0,0,0,0,0,0,0,0,
0,0,0,0,0,0,0,0,0,0,0,0,0,0,0,0,
38,0,0,0,0,0,0,0,0,0,0,0,0,0,0,0,
0,0,0,0,0,0,0,0,0,0,0,0,0,0,0,0,
0,0,0,0,0,0,0,0,0,0,0,0,0,0,0,0
</chunk>
   <chunk x="80" y="-48" width="16" height="16">
0,0,0,0,0,0,0,0,0,0,0,0,0,0,0,0,
0,0,0,0,0,0,0,0,0,0,0,0,0,0,0,0,
0,0,0,0,0,0,0,0,0,0,0,0,0,0,0,0,
0,0,0,0,0,0,0,0,0,0,0,0,0,0,0,0,
0,0,0,0,0,0,0,0,0,0,0,0,0,0,0,0,
0,0,0,0,0,0,0,0,0,0,0,0,0,0,0,0,
0,0,0,0,0,0,0,0,0,0,0,0,0,0,0,0,
0,0,0,0,0,0,0,0,0,0,0,0,0,0,0,0,
0,0,0,0,0,0,0,0,0,0,0,0,0,0,0,0,
0,0,0,0,0,0,0,0,0,0,0,0,0,0,0,0,
0,0,0,0,0,0,0,0,0,0,0,0,0,0,0,0,
0,0,0,0,0,0,0,0,0,0,0,0,0,164,165,165,
0,0,0,0,0,0,0,0,0,0,0,0,0,0,0,0,
0,0,0,0,0,0,0,0,0,0,0,0,0,0,0,0,
0,0,0,0,0,0,0,0,0,0,0,0,0,0,0,0,
0,0,0,0,0,0,0,0,0,0,0,0,0,0,0,0
</chunk>
   <chunk x="96" y="-48" width="16" height="16">
0,0,0,0,0,0,0,0,0,0,0,0,0,0,0,0,
0,0,0,0,0,0,0,0,0,0,0,0,0,0,0,0,
0,0,0,0,0,0,0,0,0,0,0,0,0,0,0,0,
0,0,0,0,0,0,0,0,0,0,0,0,0,0,0,0,
0,0,0,0,0,0,0,0,0,0,0,0,0,0,0,0,
0,0,0,0,0,0,0,0,0,0,0,0,0,0,0,0,
0,0,0,0,0,0,0,0,0,0,0,0,0,0,0,0,
0,0,0,0,0,0,0,0,0,0,0,0,0,128,0,0,
0,0,0,0,0,0,0,0,0,0,0,0,0,0,0,0,
0,0,0,0,0,0,0,0,0,0,0,0,0,0,0,0,
0,0,0,0,0,0,0,0,0,0,0,0,0,152,0,0,
165,165,165,165,165,0,0,0,0,0,0,0,0,164,165,165,
0,0,0,0,0,0,0,0,0,0,0,0,0,0,0,0,
0,0,0,0,0,0,0,0,0,0,0,0,0,0,0,0,
0,0,0,0,0,0,0,0,0,0,0,0,0,0,0,0,
0,0,0,0,0,0,0,0,0,0,0,0,0,0,0,0
</chunk>
   <chunk x="112" y="-48" width="16" height="16">
0,0,0,0,0,0,0,0,0,0,0,0,0,0,0,0,
0,0,0,0,0,0,0,0,0,0,0,0,0,0,0,0,
0,0,0,0,0,0,0,0,0,0,0,0,0,0,0,0,
0,0,0,0,0,0,0,0,0,0,0,0,0,0,0,0,
0,0,0,0,0,0,0,0,0,0,0,0,0,0,0,0,
0,0,0,0,0,0,0,0,0,0,0,0,0,0,0,0,
0,0,0,0,0,0,0,0,0,0,0,0,0,0,0,0,
0,0,0,0,0,0,0,0,0,0,0,0,0,0,0,0,
0,0,0,0,0,0,0,0,0,0,0,0,0,0,0,0,
0,0,0,0,0,0,0,0,0,0,0,0,0,0,0,0,
0,0,0,0,0,0,0,0,0,0,0,0,0,0,0,0,
165,165,165,165,165,165,165,165,165,165,165,165,165,0,0,0,
0,0,0,0,0,0,0,0,0,0,0,0,0,0,0,0,
0,0,0,0,0,0,0,0,0,0,0,0,0,0,0,0,
0,0,0,0,0,0,0,0,0,0,0,0,0,0,0,0,
0,0,0,0,0,0,0,0,0,0,0,0,0,0,0,0
</chunk>
   <chunk x="128" y="-48" width="16" height="16">
0,0,0,0,0,0,0,0,0,0,0,0,0,0,0,0,
0,0,0,0,0,0,0,0,0,0,0,0,0,0,0,0,
0,0,0,0,0,0,0,0,0,0,0,0,0,0,0,0,
0,0,0,0,0,0,0,0,0,0,0,0,0,0,0,0,
0,0,0,0,0,0,0,0,0,0,0,0,0,0,0,0,
0,0,0,0,0,0,0,0,0,0,0,0,0,0,0,0,
0,0,0,0,0,0,0,0,0,0,0,0,0,0,0,0,
130,0,0,0,0,0,0,0,0,0,0,0,0,0,0,0,
0,0,0,0,0,0,0,0,0,0,0,0,0,0,0,0,
0,0,0,0,0,0,0,0,0,0,0,0,0,0,0,0,
0,0,0,0,0,0,0,0,0,0,0,0,0,0,0,0,
0,0,0,0,0,0,0,0,0,0,0,0,0,164,165,165,
0,0,0,0,0,0,0,0,0,0,0,0,0,0,0,0,
0,0,0,0,0,0,0,0,0,0,0,0,0,0,0,0,
0,0,0,0,0,0,0,0,0,0,0,0,0,0,0,0,
0,0,0,0,0,0,0,0,0,0,0,0,0,0,0,0
</chunk>
   <chunk x="144" y="-48" width="16" height="16">
0,0,0,0,0,0,0,0,0,0,0,0,0,0,0,0,
0,0,0,0,0,0,0,0,0,0,0,0,0,0,0,0,
0,0,0,0,0,0,0,0,0,0,0,0,0,0,0,0,
0,0,0,0,0,0,0,0,0,0,0,0,0,0,0,0,
0,0,0,0,0,0,0,0,0,0,0,0,0,0,0,0,
0,0,0,0,0,0,0,0,0,0,0,0,0,0,0,0,
0,0,0,0,0,0,0,0,0,0,0,0,0,0,0,0,
0,0,0,0,0,0,0,0,0,0,0,0,0,0,0,0,
0,0,0,0,0,0,0,0,0,0,0,0,0,0,0,0,
0,0,0,0,0,0,0,0,0,0,0,0,0,0,0,0,
0,0,0,0,0,0,0,0,0,0,0,0,0,0,0,0,
165,165,165,165,165,0,0,0,0,165,165,165,165,165,165,165,
0,0,0,0,0,0,0,0,0,0,0,0,0,0,0,0,
0,0,0,0,0,0,0,0,0,0,0,0,0,0,0,0,
0,0,0,0,0,0,0,0,0,0,0,0,0,0,0,0,
0,0,0,0,0,0,0,0,0,0,0,0,0,0,0,0
</chunk>
   <chunk x="160" y="-48" width="16" height="16">
0,0,0,0,0,0,0,0,0,0,0,0,0,0,0,0,
0,0,0,0,0,0,0,0,0,0,0,0,0,0,0,0,
0,0,0,0,0,0,0,0,0,0,0,0,0,0,0,0,
0,0,0,0,0,0,0,0,0,0,0,0,0,0,0,0,
0,0,0,0,0,0,0,0,0,0,0,0,0,0,0,0,
0,0,0,0,0,0,0,0,0,0,0,0,0,0,0,0,
0,0,0,0,0,0,0,0,0,0,0,0,0,0,0,0,
0,0,0,0,0,0,0,0,0,0,0,0,0,0,0,0,
0,0,0,0,0,0,0,0,0,0,0,0,0,0,0,0,
0,0,0,0,0,0,0,0,0,0,0,0,0,0,0,0,
0,0,0,0,0,0,0,0,0,0,0,0,0,0,0,0,
165,165,165,165,165,165,165,165,166,0,0,0,0,0,0,0,
0,0,0,0,0,0,0,0,0,0,0,0,0,0,0,0,
0,0,0,0,0,0,0,0,0,0,0,0,0,0,0,0,
0,0,0,0,0,0,0,0,0,0,0,0,0,0,0,0,
0,0,0,0,0,0,0,0,0,0,0,0,0,0,0,0
</chunk>
   <chunk x="-80" y="-32" width="16" height="16">
0,0,0,0,0,0,0,0,0,0,0,0,0,0,0,0,
0,0,0,0,0,0,0,0,0,0,0,0,0,0,0,0,
0,0,0,0,0,0,0,0,0,0,0,0,0,0,0,0,
0,0,0,0,0,0,0,0,0,0,0,0,0,0,0,0,
0,0,0,0,0,0,0,0,0,0,0,0,0,0,0,0,
0,0,0,0,0,0,0,0,0,0,0,0,0,0,0,0,
0,0,0,0,0,0,0,0,0,0,0,0,0,0,0,0,
0,0,0,0,0,0,0,0,0,0,0,0,0,0,0,0,
0,0,0,0,0,0,0,0,0,0,0,0,0,0,0,38,
0,0,0,0,0,0,0,0,0,0,0,0,0,0,0,0,
0,0,0,0,0,0,0,0,0,0,0,0,0,0,38,39,
0,0,0,0,0,0,0,0,0,0,0,0,0,38,39,0,
0,0,0,0,0,0,0,0,0,0,0,0,0,0,0,0,
0,0,0,0,0,0,0,0,0,0,0,0,0,0,0,0,
0,0,0,0,0,0,0,0,0,0,0,0,0,0,0,0,
0,0,0,0,0,0,0,0,0,0,0,0,0,0,0,0
</chunk>
   <chunk x="-64" y="-32" width="16" height="16">
0,0,0,0,0,0,0,0,0,38,38,39,0,0,0,0,
0,0,0,0,0,0,0,38,38,39,0,0,0,0,0,0,
0,0,0,0,0,0,0,0,0,0,0,0,0,0,0,0,
0,0,0,0,38,38,38,39,0,0,0,0,0,0,0,0,
0,0,0,0,0,0,0,0,0,0,0,0,0,0,0,0,
0,0,0,0,0,0,0,0,0,0,0,0,0,0,38,38,
0,0,0,0,0,0,0,0,0,0,11,4,38,38,39,0,
38,38,4,11,0,0,0,0,0,11,38,39,0,0,0,0,
39,0,38,4,4,4,4,4,38,39,0,0,0,0,0,0,
0,0,0,38,38,38,38,39,0,0,0,0,0,0,0,0,
0,0,0,0,0,0,0,0,0,0,0,0,0,0,0,0,
0,0,0,0,0,0,0,0,0,0,0,0,0,38,39,0,
0,0,0,0,0,0,0,0,0,0,0,0,38,39,0,0,
0,0,0,0,0,0,0,0,0,0,0,0,0,0,0,0,
0,0,0,0,0,0,0,0,0,0,0,0,0,0,0,0,
0,0,0,0,0,0,37,4,4,11,0,0,0,0,0,0
</chunk>
   <chunk x="-48" y="-32" width="16" height="16">
0,0,0,0,0,0,0,0,0,0,0,0,0,0,37,38,
0,0,0,0,0,0,0,0,0,0,0,0,0,0,0,0,
0,0,0,0,0,0,0,0,0,0,0,0,0,0,0,0,
0,0,0,0,0,0,0,0,0,0,0,0,0,0,0,0,
0,22,4,4,4,24,0,0,0,0,0,0,0,0,0,0,
38,39,38,38,38,37,38,0,0,0,0,0,0,0,0,0,
0,0,0,0,0,0,38,38,0,0,0,0,0,0,0,0,
0,0,0,0,0,0,0,4,11,0,0,0,0,0,0,0,
0,0,0,0,0,0,0,38,11,0,0,0,0,0,0,0,
0,0,0,0,0,0,0,0,0,0,0,0,0,0,0,0,
0,0,0,0,0,0,0,0,37,38,0,0,0,0,0,0,
0,0,0,0,0,0,0,0,0,37,38,0,0,0,0,0,
0,0,0,0,0,0,0,0,0,0,37,38,0,0,0,0,
0,0,0,0,0,0,0,0,0,0,0,37,38,38,0,0,
0,0,0,0,0,0,0,0,0,0,0,0,0,37,38,0,
0,0,0,0,0,0,0,0,0,0,0,0,0,0,37,38
</chunk>
   <chunk x="-32" y="-32" width="16" height="16">
38,0,0,0,0,0,0,0,0,0,0,0,0,0,0,0,
37,38,0,0,0,0,0,0,0,0,0,0,0,0,0,0,
0,37,38,0,0,0,0,0,0,0,0,0,0,0,0,0,
0,0,37,38,0,0,0,0,0,0,0,0,0,0,0,0,
0,0,0,37,38,38,0,0,0,0,0,0,0,0,0,0,
0,0,0,0,0,37,38,0,0,0,0,0,0,0,0,0,
0,0,0,0,0,0,37,38,38,11,0,0,0,0,11,38,
0,0,0,0,0,0,0,0,37,38,11,0,0,2147483659,4,0,
0,0,0,0,0,0,0,0,0,38,4,11,2147483659,4,38,0,
0,0,0,0,0,0,0,0,0,0,38,23,2147483671,38,0,0,
0,0,0,0,0,0,0,0,0,0,0,0,0,0,0,0,
0,0,0,0,0,0,0,0,0,0,0,0,0,0,0,0,
0,0,0,0,0,0,0,0,0,0,0,0,0,0,0,0,
0,0,0,0,0,0,0,0,0,0,0,0,0,0,0,0,
0,0,0,0,0,0,0,0,0,0,0,0,0,0,0,0,
0,0,0,0,0,0,0,0,0,0,0,0,0,0,0,0
</chunk>
   <chunk x="32" y="-32" width="16" height="16">
0,0,0,0,0,0,0,0,0,0,0,0,0,0,0,0,
0,0,0,0,0,0,0,0,0,0,0,0,0,0,0,0,
0,0,0,0,0,0,0,0,0,0,0,0,0,0,0,0,
0,0,0,0,0,0,0,0,205,38,0,0,0,0,0,0,
0,0,0,0,0,0,0,0,0,0,0,0,0,0,0,0,
0,0,0,0,0,0,0,0,0,0,0,0,0,0,0,0,
0,0,0,0,0,0,0,0,0,0,0,0,0,0,0,0,
0,0,0,0,0,0,0,0,0,0,0,0,0,0,0,0,
0,0,0,0,205,38,0,0,0,0,0,0,0,0,0,0,
0,0,0,0,0,205,38,0,0,0,0,0,0,0,0,0,
0,0,0,0,0,0,0,0,0,0,0,0,0,0,0,0,
0,0,0,0,0,0,0,0,0,0,0,0,0,0,0,0,
0,0,0,0,0,0,0,0,0,0,0,0,0,0,0,0,
0,0,0,0,0,0,0,0,0,0,0,0,0,0,0,0,
0,0,0,0,205,38,0,0,0,0,0,0,0,0,0,0,
0,0,0,0,0,0,0,0,0,0,0,0,0,0,0,0
</chunk>
   <chunk x="48" y="-32" width="16" height="16">
0,0,0,23,207,0,0,0,0,0,0,0,0,0,0,0,
0,0,0,0,0,0,0,0,0,0,0,0,0,0,0,0,
0,0,0,0,0,0,0,0,0,0,0,0,0,0,0,0,
0,0,0,0,0,0,0,0,0,0,0,0,0,0,0,0,
0,0,0,0,0,0,23,207,0,0,0,0,0,0,0,0,
0,0,0,0,0,0,0,0,0,0,0,0,0,0,0,0,
0,0,0,0,0,0,0,0,0,0,0,0,0,0,0,0,
0,0,0,0,0,0,0,0,0,0,0,0,0,0,0,0,
0,0,0,0,0,0,0,0,0,0,0,0,0,0,0,0,
0,0,0,0,0,0,0,0,23,207,0,0,0,0,0,0,
0,0,0,0,0,0,0,23,207,0,0,0,0,0,0,0,
0,0,0,0,0,0,0,0,0,0,0,0,0,0,0,0,
0,0,0,0,0,0,0,0,0,0,0,0,0,0,0,0,
0,0,0,0,0,0,0,0,0,0,0,0,0,0,0,0,
0,0,0,0,0,0,0,0,23,207,0,0,0,0,0,0,
0,0,0,0,0,0,0,0,0,0,0,0,0,0,0,0
</chunk>
   <chunk x="96" y="-32" width="16" height="16">
0,0,0,0,0,0,0,0,0,0,0,0,0,0,0,0,
0,0,0,0,0,0,0,0,0,0,0,0,0,0,0,0,
0,0,0,0,0,0,0,0,0,0,0,0,0,0,0,0,
0,0,0,0,0,0,0,0,0,165,165,165,165,165,165,165,
0,0,0,0,0,0,0,0,0,0,0,0,0,0,0,0,
0,0,0,0,0,0,0,0,0,0,0,0,0,0,0,0,
0,0,0,0,0,0,0,0,0,0,0,0,0,0,0,0,
0,0,0,0,0,0,0,0,0,0,0,0,0,0,0,0,
0,0,0,0,0,0,0,0,0,0,0,0,0,0,0,0,
0,0,0,0,0,0,0,0,0,0,0,0,0,0,0,0,
0,0,0,0,0,152,0,0,0,0,0,0,0,0,0,0,
0,0,0,0,0,164,165,165,165,165,165,165,165,165,165,165,
0,0,0,0,0,0,0,0,0,0,0,0,0,0,0,0,
0,0,0,0,0,0,0,0,0,0,0,0,0,0,0,0,
0,0,0,0,0,0,0,0,0,0,0,0,0,0,0,0,
0,0,0,0,0,0,0,0,0,0,0,0,0,0,0,0
</chunk>
   <chunk x="112" y="-32" width="16" height="16">
0,0,0,0,0,0,0,0,0,0,0,0,0,0,0,0,
0,0,0,0,0,0,0,0,0,0,0,0,0,0,0,0,
0,0,0,0,0,0,0,0,0,0,0,0,0,152,0,0,
166,0,0,0,0,0,0,0,0,0,0,0,0,164,165,165,
0,0,0,0,0,0,0,0,0,0,0,0,0,0,0,0,
0,0,0,0,0,0,0,0,0,0,0,0,0,0,0,0,
0,0,0,0,0,0,0,0,0,0,0,0,0,0,0,0,
0,0,0,0,0,0,0,0,0,0,0,0,0,0,0,0,
0,0,0,0,0,0,0,0,0,0,0,0,0,0,0,0,
0,0,0,0,0,0,0,0,0,0,0,0,0,0,0,0,
0,0,0,0,0,0,0,0,0,0,0,0,0,0,0,0,
165,165,165,165,165,165,165,165,165,165,165,165,165,165,165,165,
0,0,0,0,0,0,0,0,0,0,0,0,0,0,0,0,
0,0,0,0,0,0,0,0,0,0,0,0,0,0,0,0,
0,0,0,0,0,0,0,0,0,0,0,0,0,0,0,0,
0,0,0,0,0,0,0,0,0,0,0,0,0,0,0,0
</chunk>
   <chunk x="128" y="-32" width="16" height="16">
0,0,0,0,0,0,0,0,0,0,0,0,0,0,0,0,
0,0,0,0,0,0,0,0,0,0,0,0,0,0,0,0,
0,0,0,0,0,0,0,0,0,0,0,0,0,0,0,0,
165,165,165,165,165,165,165,165,165,165,165,165,165,165,165,165,
0,0,0,0,0,0,0,0,0,0,0,0,0,0,0,0,
0,0,0,0,0,0,0,0,0,0,0,0,0,0,0,0,
0,0,0,0,0,0,0,0,0,0,0,0,0,0,0,0,
0,0,0,0,0,0,0,0,0,0,0,0,0,0,0,0,
0,0,0,0,0,0,0,0,0,0,0,0,0,0,0,0,
0,0,0,0,0,0,0,0,0,0,0,0,0,0,0,0,
0,0,0,0,0,0,0,0,0,0,0,0,0,0,0,0,
165,165,165,165,166,0,0,0,0,0,0,0,0,0,0,0,
0,0,0,0,0,0,0,0,0,0,0,0,0,0,0,0,
0,0,0,0,0,0,0,0,0,0,0,0,0,0,0,0,
0,0,0,0,0,0,0,0,0,0,0,0,0,0,0,0,
0,0,0,0,0,0,0,0,0,0,0,0,0,0,0,0
</chunk>
   <chunk x="144" y="-32" width="16" height="16">
0,0,0,0,0,0,0,0,0,0,0,0,0,0,0,0,
0,0,0,0,0,0,0,0,0,0,0,0,0,0,0,0,
0,0,0,0,0,0,0,0,0,0,0,0,0,0,0,0,
165,165,165,165,165,0,0,0,0,0,0,0,0,0,0,0,
0,0,0,0,0,0,0,0,0,0,0,0,0,0,0,0,
0,0,0,0,0,0,0,0,0,0,0,0,0,0,0,0,
0,0,0,0,0,0,0,0,0,0,0,0,0,0,0,0,
0,0,0,0,0,0,0,0,0,0,0,0,0,0,0,0,
0,0,0,0,0,0,0,0,0,0,0,0,0,0,0,0,
0,0,0,0,0,0,0,0,0,0,0,0,0,0,0,0,
0,0,0,0,0,0,0,0,0,0,0,0,0,0,0,0,
0,164,165,165,166,0,0,0,0,0,0,0,0,0,0,0,
0,0,0,0,0,0,0,0,0,0,0,0,0,0,0,0,
0,0,0,0,0,0,0,0,0,0,0,0,0,0,0,0,
0,0,0,0,0,0,0,0,0,0,0,0,0,0,0,0,
0,0,0,0,0,0,0,0,0,0,0,0,0,0,0,0
</chunk>
   <chunk x="160" y="-32" width="16" height="16">
0,0,0,0,0,0,0,0,0,0,0,0,0,0,0,0,
0,0,0,0,0,0,0,0,0,0,0,0,0,0,0,0,
0,0,0,0,0,0,0,0,0,0,0,0,0,0,0,0,
0,164,165,165,166,0,0,0,0,0,0,0,0,0,0,0,
0,0,0,0,0,0,0,0,0,0,0,0,0,0,0,0,
0,0,0,0,0,0,0,0,0,0,0,0,0,0,0,0,
0,0,0,0,0,0,0,0,0,0,0,0,0,0,0,0,
0,0,0,0,0,0,0,0,0,0,0,0,0,0,0,0,
0,0,0,0,0,0,0,0,0,0,0,0,0,0,0,0,
0,0,0,0,0,0,0,0,0,0,0,0,0,0,0,0,
0,0,0,0,0,0,0,0,0,0,0,0,0,0,0,0,
0,0,0,0,0,0,0,0,0,0,0,0,0,0,0,0,
0,0,0,0,0,0,0,0,0,0,0,0,0,0,0,0,
0,0,0,0,0,0,0,0,0,0,0,0,0,0,0,0,
0,0,0,0,0,0,0,0,0,0,0,0,0,0,0,0,
0,0,0,0,0,0,0,0,0,0,0,0,0,0,0,0
</chunk>
   <chunk x="-80" y="-16" width="16" height="16">
0,0,0,0,0,0,0,0,0,0,0,0,0,0,0,0,
0,0,0,0,0,0,0,0,0,0,37,38,0,0,0,0,
0,0,0,0,0,0,0,0,0,0,0,0,0,0,0,0,
0,0,0,0,0,0,0,0,0,0,0,37,38,38,0,0,
0,0,0,0,0,0,0,0,0,0,0,0,0,37,38,0,
0,0,0,0,0,0,0,0,0,0,0,0,0,0,0,0,
0,0,0,0,0,0,0,0,0,0,0,0,0,0,0,0,
0,0,0,0,0,0,0,0,0,0,0,0,0,0,0,0,
0,0,0,0,0,0,0,0,0,0,0,0,0,0,0,0,
0,0,0,0,0,0,0,0,0,0,0,0,0,0,0,38,
0,0,0,0,0,0,0,0,0,0,0,0,0,38,38,39,
0,0,0,0,0,0,0,0,0,0,0,0,38,39,0,0,
0,0,0,0,0,0,0,0,0,0,0,38,39,0,0,0,
0,0,0,0,0,0,0,0,0,0,38,39,0,0,0,0,
0,0,0,0,0,0,0,0,0,38,39,0,0,0,0,0,
0,0,0,0,0,0,0,0,0,0,0,0,0,0,0,0
</chunk>
   <chunk x="-64" y="-16" width="16" height="16">
0,0,0,0,0,0,0,38,23,24,0,38,39,0,0,0,
0,0,0,0,0,0,0,0,0,0,0,0,0,0,0,0,
0,0,0,0,0,0,0,0,0,0,0,0,0,0,0,0,
0,0,0,0,0,0,0,0,0,0,38,39,0,0,0,0,
0,0,0,0,0,0,0,0,38,38,39,0,0,0,0,0,
0,0,0,0,0,0,38,38,39,0,0,0,0,0,0,0,
0,0,0,0,38,38,39,0,0,0,0,0,0,0,0,0,
0,38,4,38,39,0,0,0,0,0,0,0,0,0,0,38,
38,38,39,0,0,0,0,0,0,0,0,0,0,0,38,39,
39,0,0,0,0,0,0,0,0,0,0,0,0,0,0,0,
0,0,0,0,0,0,0,0,0,0,0,0,0,38,39,0,
0,0,0,0,0,0,0,0,0,0,0,0,0,0,0,0,
0,0,0,0,0,0,0,0,0,0,0,38,11,4,0,0,
0,0,0,0,0,0,0,0,0,0,0,0,11,38,0,0,
0,0,0,0,0,0,0,0,0,0,0,0,0,0,0,0,
0,0,0,0,0,0,0,0,0,0,0,0,0,0,0,0
</chunk>
   <chunk x="-48" y="-16" width="16" height="16">
0,0,0,0,0,0,0,0,0,0,0,0,0,0,0,0,
0,0,0,0,0,0,0,0,0,0,0,0,0,0,0,37,
0,0,0,0,0,0,0,0,0,0,0,0,0,0,0,0,
0,0,0,0,0,0,0,0,0,0,0,0,0,0,0,0,
0,0,0,0,0,0,0,0,0,0,0,0,0,0,0,0,
0,0,0,0,0,0,0,0,0,0,0,0,0,0,0,0,
38,4,4,0,0,0,0,0,0,38,38,38,38,0,0,0,
38,38,38,0,0,0,0,0,0,0,0,0,0,0,0,0,
0,0,0,0,0,0,0,0,0,0,0,0,0,0,0,0,
0,0,0,0,0,0,0,0,0,0,0,0,0,0,0,0,
0,0,0,0,0,0,0,0,0,0,0,0,0,0,0,0,
0,0,0,0,0,0,0,0,0,0,0,0,0,0,0,0,
0,0,0,0,0,0,0,0,0,0,0,0,0,0,0,0,
0,0,0,0,0,0,0,0,0,0,0,0,0,0,0,0,
0,0,0,0,0,0,0,0,0,0,0,0,0,0,0,0,
0,0,0,0,0,0,0,0,0,0,0,0,0,0,0,0
</chunk>
   <chunk x="-32" y="-16" width="16" height="16">
0,0,0,0,0,0,0,4,14,0,0,0,0,0,0,0,
38,0,0,0,0,0,0,0,0,0,0,0,0,0,0,0,
0,0,0,0,0,0,0,0,0,0,0,0,0,0,0,0,
37,38,0,39,37,0,26,16,14,0,0,0,0,0,0,0,
0,37,4,4,4,37,4,11,0,0,0,0,0,0,0,0,
0,0,38,38,38,0,38,11,0,0,0,0,0,0,0,0,
0,0,0,0,0,0,0,38,11,0,0,0,0,0,0,11,
0,0,0,0,0,0,0,0,38,11,0,0,0,0,11,38,
0,0,0,0,0,0,0,0,0,4,4,4,4,4,4,0,
0,0,0,0,0,0,0,0,0,38,38,0,0,38,38,0,
0,0,0,0,0,0,0,0,0,0,0,0,0,0,0,0,
0,0,0,0,0,0,0,0,0,0,0,0,0,0,0,0,
0,0,0,0,0,0,0,0,0,0,0,0,0,0,0,0,
0,0,0,0,0,0,0,0,0,0,0,0,0,0,0,0,
0,0,0,0,0,0,0,0,0,0,0,0,0,0,0,0,
0,0,0,0,0,0,0,0,0,0,0,0,0,0,0,0
</chunk>
   <chunk x="-16" y="-16" width="16" height="16">
0,0,0,0,0,0,0,0,0,0,0,0,0,0,0,0,
0,0,0,0,0,0,0,0,0,0,0,0,0,0,0,0,
0,0,0,0,0,0,0,0,0,0,0,0,0,0,0,0,
0,0,0,0,0,0,0,0,0,0,0,0,0,0,0,0,
11,38,0,0,0,0,0,0,37,4,4,4,4,39,0,0,
11,0,0,0,0,0,0,0,0,38,38,38,38,0,0,0,
38,0,0,0,0,0,0,0,0,0,0,0,0,0,0,0,
0,0,0,0,0,0,0,0,0,0,0,0,0,0,0,0,
0,0,0,0,0,0,0,0,0,0,0,0,0,0,0,0,
0,0,0,0,0,0,0,0,0,0,0,0,0,0,0,0,
0,0,0,0,0,0,0,0,0,0,0,0,0,0,0,0,
0,0,0,0,0,0,0,0,0,0,0,0,0,0,0,0,
0,0,0,0,0,0,0,0,0,0,0,0,0,0,0,0,
0,0,0,0,0,0,0,0,0,0,0,0,0,0,0,0,
0,0,0,0,0,0,0,0,0,0,0,0,0,0,0,0,
0,0,0,0,0,0,0,0,0,0,0,0,0,0,0,0
</chunk>
   <chunk x="32" y="-16" width="16" height="16">
0,0,0,0,0,205,38,0,0,0,0,0,0,0,0,0,
0,0,0,0,0,0,205,38,0,0,0,0,0,0,0,0,
0,0,0,0,0,0,0,205,38,0,0,0,0,0,0,0,
0,0,0,0,0,0,0,22,11,0,0,0,0,0,0,0,
0,0,0,0,0,0,0,0,0,0,0,0,0,0,0,0,
0,0,0,0,0,0,0,0,0,0,0,0,0,0,0,0,
0,0,0,0,0,0,0,0,0,0,0,0,0,0,0,0,
0,0,0,0,0,0,0,0,0,0,0,0,0,0,0,0,
0,0,0,0,0,0,205,23,0,0,0,0,0,0,0,0,
0,0,0,0,0,0,0,0,0,0,0,0,0,0,0,0,
0,0,0,0,0,0,0,205,23,0,0,0,0,0,0,0,
0,0,0,0,0,0,0,0,205,23,0,0,0,0,0,0,
0,0,0,0,0,0,0,0,0,205,23,0,0,0,0,0,
0,0,0,0,0,0,0,0,0,0,205,23,0,0,0,0,
0,0,0,0,0,0,0,0,0,0,0,205,23,0,0,0,
0,0,0,0,0,0,0,0,0,0,0,0,205,23,0,0
</chunk>
   <chunk x="48" y="-16" width="16" height="16">
0,0,0,0,0,0,0,23,207,0,0,0,0,0,0,0,
0,0,0,0,0,0,23,207,0,0,0,0,0,0,0,0,
0,0,0,0,0,23,207,0,0,0,0,0,0,0,0,0,
0,0,0,0,0,0,0,0,0,0,0,0,0,0,0,0,
0,0,0,0,0,0,0,0,0,0,0,0,0,0,0,0,
0,0,0,0,0,0,0,0,0,0,0,0,0,0,0,0,
0,0,0,0,0,0,0,0,0,0,0,0,0,0,0,0,
0,0,0,0,0,0,0,0,0,0,0,0,0,0,0,0,
0,0,0,0,0,0,23,207,0,0,0,0,0,0,0,0,
0,0,0,0,0,0,0,0,0,0,0,0,0,0,0,0,
0,0,0,0,0,23,207,0,0,0,0,0,0,0,0,0,
0,0,0,0,23,207,0,0,0,0,0,0,0,0,0,0,
0,0,0,23,207,0,0,0,0,0,0,0,0,0,0,0,
0,0,23,207,0,0,0,0,0,0,0,0,0,0,0,0,
0,23,207,0,0,0,0,0,0,0,0,0,0,0,0,0,
23,207,0,0,0,0,0,0,0,0,0,0,0,0,0,0
</chunk>
   <chunk x="80" y="-16" width="16" height="16">
0,0,0,0,0,0,0,0,0,0,0,0,0,0,0,0,
0,0,0,0,0,0,0,0,0,0,0,0,0,0,0,0,
0,0,0,0,0,0,0,0,0,0,0,0,0,0,0,0,
0,0,0,0,0,0,0,0,0,0,0,0,0,164,165,165,
0,0,0,0,0,0,0,0,0,0,0,0,0,0,0,0,
0,0,0,0,0,0,0,0,0,0,0,0,0,0,0,0,
0,0,0,0,0,0,0,0,0,0,0,0,0,0,0,0,
0,0,0,0,0,0,0,0,0,0,0,0,0,0,0,0,
0,0,0,0,0,0,0,0,0,0,0,0,0,0,0,0,
0,0,0,0,0,0,0,0,0,0,0,0,0,0,0,0,
0,0,0,0,0,0,0,0,0,0,0,0,0,0,0,0,
0,0,0,0,0,0,0,0,0,0,0,0,0,0,0,0,
0,0,0,0,0,0,0,0,0,0,0,0,0,0,0,0,
0,0,0,0,0,0,0,0,0,0,0,0,0,0,0,0,
0,0,0,0,0,0,0,0,0,0,0,0,0,0,0,0,
0,0,0,0,0,0,0,0,0,0,0,0,0,0,0,0
</chunk>
   <chunk x="96" y="-16" width="16" height="16">
0,0,0,0,0,0,0,0,0,0,0,0,0,0,0,0,
0,0,0,0,0,0,0,0,0,0,0,0,0,0,0,0,
0,0,0,0,0,0,0,0,0,0,0,0,0,0,0,0,
165,165,165,165,165,165,165,165,165,165,165,165,165,165,165,165,
0,0,0,0,0,0,0,0,0,0,0,0,0,0,0,0,
0,0,0,0,0,0,0,0,0,0,0,0,0,0,0,0,
0,0,0,0,0,0,0,0,0,0,0,0,0,0,0,0,
0,0,0,0,0,0,0,0,0,0,0,0,0,0,0,0,
0,0,0,0,0,0,0,0,0,0,0,0,0,0,0,0,
0,0,0,0,0,0,0,0,0,0,0,0,0,0,0,0,
0,0,0,0,0,0,0,0,0,0,0,0,0,0,0,0,
0,0,0,0,0,0,0,0,0,0,0,0,0,0,0,0,
0,0,0,0,0,0,0,0,0,0,0,0,0,0,0,0,
0,0,0,0,0,0,0,0,0,0,0,0,0,0,0,0,
0,0,0,0,0,0,0,0,0,0,0,0,0,0,0,0,
0,0,0,0,0,0,0,0,0,0,0,0,0,0,0,0
</chunk>
   <chunk x="112" y="-16" width="16" height="16">
0,0,0,0,0,0,0,0,0,0,0,0,0,0,0,0,
0,0,0,0,0,0,0,0,0,0,0,0,0,0,0,0,
0,0,0,0,0,0,0,0,0,0,0,0,0,0,0,0,
165,165,165,165,165,0,0,0,0,165,165,165,165,0,0,0,
0,0,0,0,0,0,0,0,0,0,0,0,0,0,0,0,
0,0,0,0,0,0,0,0,0,0,0,0,0,0,0,0,
0,0,0,0,0,0,0,0,0,0,0,0,0,0,0,0,
0,0,0,0,0,0,0,0,0,0,0,0,0,0,0,0,
0,0,0,0,0,0,0,0,0,0,0,0,0,0,0,0,
0,0,0,0,0,0,0,0,0,0,0,0,0,0,0,0,
0,0,0,0,0,0,0,0,0,0,0,0,0,0,0,0,
0,0,0,0,0,0,0,0,0,0,0,0,0,164,165,165,
0,0,0,0,0,0,0,0,0,0,0,0,0,0,0,0,
0,0,0,0,0,0,0,0,0,0,0,0,0,0,0,0,
0,0,0,0,0,0,0,0,0,0,0,0,0,0,0,0,
0,0,0,0,0,0,0,0,0,0,0,0,0,0,0,0
</chunk>
   <chunk x="128" y="-16" width="16" height="16">
0,0,0,0,0,0,0,0,0,0,0,0,0,0,0,0,
0,0,0,0,0,0,0,0,0,0,0,0,0,0,0,0,
0,0,0,0,0,0,0,0,0,0,0,0,0,0,0,0,
0,165,165,165,165,165,165,165,166,0,0,0,0,0,0,0,
0,0,0,0,0,0,0,0,0,0,0,0,0,0,0,0,
0,0,0,0,0,0,0,0,0,0,0,0,0,0,0,0,
0,0,0,0,0,0,0,0,0,0,0,0,0,0,0,0,
0,0,0,0,0,0,0,0,0,0,0,0,0,0,0,0,
0,0,0,0,0,0,0,0,0,0,0,0,0,0,0,0,
0,0,0,0,0,0,0,0,0,0,0,0,0,0,0,0,
0,0,0,0,0,0,0,0,0,0,0,0,0,0,0,0,
165,165,165,165,165,0,0,0,0,0,0,0,0,164,165,165,
0,0,0,0,0,0,0,0,0,0,0,0,0,0,0,0,
0,0,0,0,0,0,0,0,0,0,0,0,0,0,0,0,
0,0,0,0,0,0,0,0,0,0,0,0,0,0,0,0,
0,0,0,0,0,0,0,0,0,0,0,0,0,0,0,0
</chunk>
   <chunk x="144" y="-16" width="16" height="16">
0,0,0,0,0,0,0,0,0,0,0,0,0,0,0,0,
0,0,0,0,0,0,0,0,0,0,0,0,0,0,0,0,
0,0,0,0,0,0,0,0,0,0,0,0,0,0,0,0,
0,0,0,0,0,0,0,0,0,164,165,165,165,165,165,165,
0,0,0,0,0,0,0,0,0,0,0,0,0,0,0,0,
0,0,0,0,0,0,0,0,0,0,0,0,0,0,0,0,
0,0,0,0,0,0,0,0,0,0,0,0,0,0,0,0,
0,0,0,0,0,0,0,0,0,0,0,0,0,0,0,0,
0,0,0,0,0,0,0,0,0,0,0,0,0,0,0,0,
0,0,0,0,0,0,0,0,0,0,0,0,0,0,0,0,
0,0,0,0,0,0,0,0,0,0,0,0,0,0,0,0,
166,0,0,0,0,0,0,0,0,0,0,0,0,0,0,0,
0,0,0,0,0,0,0,0,0,0,0,0,0,0,0,0,
0,0,0,0,0,0,0,0,0,0,0,0,0,0,0,0,
0,0,0,0,0,0,0,0,0,0,0,0,0,0,0,0,
0,0,0,0,0,0,0,0,0,0,0,0,0,0,0,0
</chunk>
   <chunk x="160" y="-16" width="16" height="16">
0,0,0,0,0,0,0,0,0,0,0,0,0,0,0,0,
0,0,0,0,0,0,0,0,0,0,0,0,0,0,0,0,
0,0,0,0,0,0,0,0,0,0,0,0,0,0,0,0,
166,0,0,0,0,164,165,165,166,0,0,0,0,0,0,0,
0,0,0,0,0,0,0,0,0,0,0,0,0,0,0,0,
0,0,0,0,0,0,0,0,0,0,0,0,0,0,0,0,
0,0,0,0,0,0,0,0,0,0,0,0,0,0,0,0,
0,0,0,0,0,0,0,0,0,0,0,0,0,0,0,0,
0,0,0,0,0,0,0,0,0,0,0,0,0,0,0,0,
0,0,0,0,0,0,0,0,0,0,0,0,0,0,0,0,
0,0,0,0,0,0,0,0,0,0,0,0,0,0,0,0,
0,0,0,0,0,0,0,0,0,0,0,0,0,0,0,0,
0,0,0,0,0,0,0,0,0,0,0,0,0,0,0,0,
0,0,0,0,0,0,0,0,0,0,0,0,0,0,0,0,
0,0,0,0,0,0,0,0,0,0,0,0,0,0,0,0,
0,0,0,0,0,0,0,0,0,0,0,0,0,0,0,0
</chunk>
   <chunk x="-80" y="0" width="16" height="16">
0,0,0,0,0,0,0,0,0,0,0,0,0,0,0,0,
0,0,0,0,0,0,0,0,0,0,0,0,0,0,0,0,
0,0,0,0,0,0,0,0,0,0,0,0,0,0,0,0,
0,0,0,0,0,0,37,38,0,0,0,0,0,0,0,0,
0,0,0,0,0,0,0,0,0,0,0,0,0,0,0,0,
0,0,0,0,0,0,0,37,38,0,0,0,0,0,0,0,
0,0,0,0,0,0,0,0,37,38,0,0,0,0,0,0,
0,0,0,0,0,0,0,0,0,0,0,0,0,0,0,0,
0,0,0,0,0,0,0,0,0,37,38,0,0,0,0,0,
0,0,0,0,0,0,0,0,0,0,37,4,38,0,0,0,
0,0,0,0,0,0,0,0,0,0,0,38,23,38,38,0,
0,0,0,0,0,0,0,0,0,0,0,0,0,0,37,38,
0,0,0,0,0,0,0,0,0,0,0,0,0,0,0,37,
0,0,0,0,0,0,0,0,0,0,0,0,0,0,0,0,
0,0,0,0,0,0,0,0,0,0,0,0,0,0,0,0,
0,0,0,0,0,0,0,0,0,0,0,0,0,0,0,0
</chunk>
   <chunk x="-64" y="0" width="16" height="16">
0,0,0,0,0,0,0,0,0,0,0,38,39,0,0,0,
0,0,0,0,0,0,0,0,0,38,38,39,0,0,0,0,
0,0,0,0,0,0,0,0,38,39,0,0,0,0,0,0,
0,4,4,4,4,4,38,38,39,0,0,0,0,0,0,0,
0,38,38,38,38,38,0,0,0,0,0,0,0,0,0,0,
0,0,0,0,0,0,0,0,0,0,0,0,0,0,0,0,
0,0,0,0,0,0,0,0,0,0,0,0,0,0,0,0,
0,0,0,0,0,0,0,0,0,0,0,0,0,0,0,0,
0,0,0,0,0,0,0,0,0,0,0,0,0,0,0,0,
0,0,0,0,0,0,0,0,0,0,0,0,0,0,0,0,
0,0,0,0,0,0,0,0,0,0,0,0,0,0,0,0,
0,0,0,0,0,0,0,0,0,0,0,0,0,0,0,0,
38,38,0,0,0,0,0,0,0,0,0,0,0,0,0,0,
0,37,4,4,4,38,38,0,0,0,0,0,0,0,0,0,
0,0,38,38,38,0,37,38,38,0,0,0,0,0,0,0,
0,0,0,0,0,0,0,0,37,38,38,0,0,0,0,0
</chunk>
   <chunk x="-48" y="0" width="16" height="16">
0,0,0,0,0,0,0,0,0,0,0,0,0,0,0,0,
0,0,0,0,0,0,0,0,37,38,0,0,0,0,0,0,
0,0,0,0,0,0,0,0,0,37,4,4,38,0,0,0,
0,0,0,0,0,0,0,0,0,0,38,38,37,38,38,0,
0,0,0,0,0,0,0,0,0,0,0,0,0,0,37,38,
0,0,0,0,0,0,0,0,0,0,0,0,0,0,0,37,
0,0,0,0,0,0,0,0,0,0,0,0,0,0,0,0,
0,0,0,0,0,0,0,0,0,0,38,39,0,0,0,0,
0,0,0,0,0,0,0,0,0,38,39,0,0,0,0,0,
0,0,0,0,0,0,0,0,38,39,0,0,0,38,0,0,
0,0,0,0,0,0,0,38,39,0,0,0,0,37,4,4,
0,0,0,0,0,0,0,0,0,0,0,0,0,0,38,38,
0,0,0,0,0,0,38,39,0,0,0,0,0,0,0,0,
0,0,0,0,0,38,39,0,0,0,0,0,0,0,0,0,
0,0,0,0,0,0,0,0,0,0,0,0,0,0,0,0,
0,0,0,0,38,39,0,0,0,0,0,0,0,0,0,0
</chunk>
   <chunk x="-32" y="0" width="16" height="16">
0,0,0,0,0,0,0,0,0,0,0,0,0,0,0,0,
0,0,0,0,0,0,0,0,0,0,0,0,0,0,0,0,
0,0,0,0,0,0,0,0,0,0,0,0,0,0,0,0,
0,0,0,0,0,0,0,0,0,0,0,0,0,0,0,0,
0,0,0,0,0,0,0,0,0,0,0,0,0,0,0,0,
38,0,0,0,0,0,0,0,0,0,0,0,0,0,0,0,
0,0,38,39,0,0,0,0,0,0,0,0,0,0,0,0,
0,38,39,0,0,0,0,0,0,0,0,0,0,0,0,0,
0,0,0,0,0,0,0,0,0,0,0,0,0,0,0,0,
38,39,0,0,0,0,0,0,0,0,0,0,0,0,0,0,
39,0,0,0,0,0,0,0,0,0,0,0,0,0,0,0,
0,0,0,0,0,0,0,0,0,0,0,0,0,0,0,0,
0,0,0,0,0,0,0,0,0,0,0,0,0,0,0,0,
0,0,0,0,0,0,0,0,0,0,0,0,0,0,0,0,
0,0,0,0,0,0,0,0,0,0,0,0,0,0,0,0,
0,0,0,0,0,0,0,0,0,0,0,0,0,0,0,0
</chunk>
   <chunk x="-16" y="0" width="16" height="16">
0,0,0,0,0,0,0,0,0,0,0,0,0,0,0,0,
0,0,0,0,0,0,0,0,0,0,0,0,0,0,0,0,
0,0,0,0,0,0,0,0,0,0,0,0,0,0,0,0,
0,0,0,0,0,0,0,0,0,0,0,0,0,0,0,0,
0,0,0,0,0,0,0,0,0,0,0,0,0,0,0,0,
0,0,0,0,0,0,0,0,0,0,0,0,0,0,0,0,
0,0,0,0,0,0,0,0,0,0,0,0,0,0,0,0,
0,0,0,0,0,0,0,0,0,0,0,0,0,0,0,0,
0,0,0,0,0,0,0,0,0,0,0,0,0,0,0,0,
0,0,0,0,0,0,0,0,0,0,0,0,0,0,0,0,
0,0,0,0,0,0,0,0,0,0,0,0,0,0,0,0,
0,0,0,0,0,0,0,0,0,0,0,0,0,0,0,0,
0,0,0,0,0,0,0,0,0,0,0,0,0,0,0,0,
0,0,0,0,0,0,0,0,0,0,0,0,0,0,0,0,
0,0,0,0,0,0,0,0,0,0,0,0,37,16,0,0,
0,0,0,0,0,0,0,0,0,0,0,0,0,37,16,0
</chunk>
   <chunk x="16" y="0" width="16" height="16">
0,0,0,0,0,0,0,0,0,0,0,0,0,0,0,0,
0,0,0,0,0,0,0,0,0,0,0,0,0,0,0,0,
0,0,0,0,0,0,0,0,0,0,0,0,0,0,0,0,
0,0,0,0,0,0,0,0,0,0,0,0,0,0,0,0,
0,0,0,0,0,0,0,0,0,0,0,0,0,0,0,0,
0,0,0,0,0,0,0,0,0,0,0,0,0,0,0,0,
0,0,0,0,0,0,0,0,0,0,0,0,0,0,0,0,
0,0,0,0,0,0,0,0,0,0,0,0,0,0,0,0,
0,0,0,0,0,0,0,0,0,0,0,0,0,0,0,0,
0,0,0,0,0,0,0,0,0,0,0,0,0,0,0,0,
0,0,0,0,0,0,0,0,0,0,0,0,0,0,0,0,
0,0,0,0,0,0,0,0,0,0,0,0,0,0,0,0,
0,0,0,0,0,0,0,0,0,0,0,0,0,0,0,0,
0,0,0,0,0,0,0,0,0,0,0,0,0,0,0,0,
0,0,0,0,0,0,0,0,17,39,0,0,0,0,0,0,
0,0,0,0,0,0,0,17,39,0,0,0,0,0,0,0
</chunk>
   <chunk x="32" y="0" width="16" height="16">
0,0,0,0,0,0,0,0,0,0,0,0,0,205,23,23,
0,0,0,0,0,0,0,0,0,0,0,0,0,0,205,207,
0,0,0,0,0,0,0,0,0,0,0,0,0,0,0,0,
0,0,0,0,0,0,0,0,0,0,0,0,0,0,0,0,
0,0,0,0,0,0,0,0,0,0,0,0,0,0,0,0,
0,0,0,0,0,0,0,0,0,0,0,0,0,0,0,0,
0,0,0,0,0,0,0,0,0,0,0,0,0,0,0,0,
0,0,0,0,0,0,0,0,0,0,0,0,0,0,0,0,
0,0,0,0,0,0,0,0,0,0,0,0,0,0,0,0,
0,0,0,0,0,0,0,0,0,0,0,0,0,0,0,0,
0,0,0,0,0,0,0,0,0,0,0,0,0,0,0,0,
0,0,0,0,0,0,0,0,0,0,0,0,0,0,0,0,
0,0,0,0,0,0,0,0,0,0,0,0,0,0,0,0,
0,0,0,0,0,0,0,0,0,0,0,0,0,0,0,0,
0,0,0,0,0,0,0,0,0,0,0,0,0,0,0,0,
0,0,0,0,0,0,0,0,0,0,0,0,0,0,0,0
</chunk>
   <chunk x="48" y="0" width="16" height="16">
207,0,0,0,0,0,0,0,0,0,0,0,0,0,0,0,
0,0,0,0,0,0,0,0,0,0,0,0,0,0,0,0,
0,0,0,0,0,0,0,0,0,0,0,0,0,0,0,0,
0,0,0,0,0,0,0,0,0,0,0,0,0,0,0,0,
0,0,0,0,0,0,0,0,0,0,0,0,0,0,0,0,
0,0,0,0,0,0,0,0,0,0,0,0,0,0,0,0,
0,0,0,0,0,0,0,0,0,0,0,0,0,0,0,0,
0,0,0,0,0,0,0,0,0,0,0,0,0,0,0,0,
0,0,0,0,0,0,0,0,0,0,0,0,0,0,0,0,
0,0,0,0,0,0,0,0,0,0,0,0,0,0,0,0,
0,0,0,0,0,0,0,0,0,0,0,0,0,0,0,0,
0,0,0,0,0,0,0,0,0,0,0,0,0,0,0,0,
0,0,0,0,0,0,0,0,0,0,0,0,0,0,0,0,
0,0,0,0,0,0,0,0,0,0,0,0,0,0,0,0,
0,0,0,0,0,0,0,0,0,0,0,0,0,0,0,0,
0,0,0,0,0,0,0,0,0,0,0,0,0,0,0,0
</chunk>
   <chunk x="96" y="0" width="16" height="16">
0,0,0,0,0,0,0,0,0,0,0,0,0,0,0,0,
0,0,0,0,0,0,0,0,0,0,0,0,0,0,0,0,
0,0,0,0,0,0,0,0,0,0,0,0,0,0,0,0,
0,0,0,0,0,164,165,165,165,165,165,165,165,165,165,165,
0,0,0,0,0,0,0,0,0,0,0,0,0,0,0,0,
0,0,0,0,0,0,0,0,0,0,0,0,0,0,0,0,
0,0,0,0,0,0,0,0,0,0,0,0,0,0,0,0,
0,0,0,0,0,0,0,0,0,0,0,0,0,0,0,0,
0,0,0,0,0,0,0,0,0,0,0,0,0,0,0,0,
0,0,0,0,0,0,0,0,0,0,0,0,0,0,0,0,
0,0,0,0,0,0,0,0,0,0,0,0,0,0,0,0,
0,164,165,165,165,165,165,165,165,165,165,165,165,165,165,165,
0,0,0,0,0,0,0,0,0,0,0,0,0,0,0,0,
0,0,0,0,0,0,0,0,0,0,0,0,0,0,0,0,
0,0,0,0,0,0,0,0,0,0,0,0,0,0,0,0,
0,0,0,0,0,0,0,0,0,0,0,0,0,0,0,0
</chunk>
   <chunk x="112" y="0" width="16" height="16">
0,0,0,0,0,0,0,0,0,0,0,0,0,0,0,0,
0,0,0,0,0,0,0,0,0,0,0,0,0,0,0,0,
0,0,0,0,0,0,0,0,0,0,0,0,0,0,0,0,
165,165,165,165,165,165,165,165,165,165,165,165,166,0,0,0,
0,0,0,0,0,0,0,0,0,0,0,0,0,0,0,0,
0,0,0,0,0,0,0,0,0,0,0,0,0,0,0,0,
0,0,0,0,0,0,0,0,0,0,0,0,0,0,0,0,
0,0,0,0,0,0,0,0,0,0,0,0,0,0,0,0,
0,0,0,0,0,0,0,0,0,0,0,0,0,0,0,0,
0,0,0,0,0,0,0,0,0,0,0,0,0,0,0,0,
0,0,0,0,0,0,0,0,0,0,0,0,0,0,0,0,
165,165,165,165,165,165,165,165,166,0,0,0,0,164,165,165,
0,0,0,0,0,0,0,0,0,0,0,0,0,0,0,0,
0,0,0,0,0,0,0,0,0,0,0,0,0,0,0,0,
0,0,0,0,0,0,0,0,0,0,0,0,0,0,0,0,
0,0,0,0,0,0,0,0,0,0,0,0,0,0,0,0
</chunk>
   <chunk x="128" y="0" width="16" height="16">
0,0,0,0,0,0,0,0,0,0,0,0,0,0,0,0,
0,0,0,0,0,0,0,0,0,0,0,0,0,0,0,0,
0,0,0,0,0,0,0,0,0,0,0,0,0,0,0,0,
0,0,0,0,0,164,165,165,166,0,0,0,0,0,0,0,
0,0,0,0,0,0,0,0,0,0,0,0,0,0,0,0,
0,0,0,0,0,0,0,0,0,0,0,0,0,0,0,0,
0,0,0,0,0,0,0,0,0,0,0,0,0,0,0,0,
0,0,0,0,0,0,0,0,0,0,0,0,0,0,0,0,
0,0,0,0,0,0,0,0,0,0,0,0,0,0,0,0,
0,0,0,0,0,0,0,0,0,0,0,0,0,0,0,0,
0,0,0,0,0,0,0,0,0,0,0,0,0,0,0,0,
165,165,165,165,166,0,0,0,0,0,0,0,0,0,0,0,
0,0,0,0,0,0,0,0,0,0,0,0,0,0,0,0,
0,0,0,0,0,0,0,0,0,0,0,0,0,0,0,0,
0,0,0,0,0,0,0,0,0,0,0,0,0,0,0,0,
0,0,0,0,0,0,0,0,0,0,0,0,0,0,0,0
</chunk>
   <chunk x="144" y="0" width="16" height="16">
0,0,0,0,0,0,0,0,0,0,0,0,0,0,0,0,
0,0,0,0,0,0,0,0,0,0,0,0,0,0,0,0,
0,0,0,0,0,0,0,0,0,0,0,0,0,0,0,0,
0,165,165,165,165,165,165,165,165,165,165,165,165,0,0,0,
0,0,0,0,0,0,0,0,0,0,0,0,0,0,0,0,
0,0,0,0,0,0,0,0,0,0,0,0,0,0,0,0,
0,0,0,0,0,0,0,0,0,0,0,0,0,0,0,0,
0,0,0,0,0,0,0,0,0,0,0,0,0,0,0,0,
0,0,0,0,0,0,0,0,0,0,0,0,0,0,0,0,
0,0,0,0,0,0,0,0,0,0,0,0,0,0,0,0,
0,0,0,0,0,0,0,0,0,0,0,0,0,0,0,0,
0,0,0,0,0,0,0,0,0,0,0,0,0,164,165,165,
0,0,0,0,0,0,0,0,0,0,0,0,0,0,0,0,
0,0,0,0,0,0,0,0,0,0,0,0,0,0,0,0,
0,0,0,0,0,0,0,0,0,0,0,0,0,0,0,0,
0,0,0,0,0,0,0,0,0,0,0,0,0,0,0,0
</chunk>
   <chunk x="160" y="0" width="16" height="16">
0,0,0,0,0,0,0,0,0,0,0,0,0,0,0,0,
0,0,0,0,0,0,0,0,0,0,0,0,0,0,0,0,
0,0,0,0,0,0,0,0,0,0,0,0,0,0,0,0,
0,165,165,165,165,165,165,165,166,0,0,0,0,0,0,0,
0,0,0,0,0,0,0,0,0,0,0,0,0,0,0,0,
0,0,0,0,0,0,0,0,0,0,0,0,0,0,0,0,
0,0,0,0,0,0,0,0,0,0,0,0,0,0,0,0,
0,0,0,0,0,0,0,0,0,0,0,0,0,0,0,0,
0,0,0,0,0,0,0,0,0,0,0,0,0,0,0,0,
0,0,0,0,0,0,0,0,0,0,0,0,0,0,0,0,
0,0,0,0,0,0,0,0,0,0,0,0,0,0,0,0,
166,0,0,0,0,0,0,0,0,0,0,0,0,0,0,0,
0,0,0,0,0,0,0,0,0,0,0,0,0,0,0,0,
0,0,0,0,0,0,0,0,0,0,0,0,0,0,0,0,
0,0,0,0,0,0,0,0,0,0,0,0,0,0,0,0,
0,0,0,0,0,0,0,0,0,0,0,0,0,0,0,0
</chunk>
   <chunk x="-64" y="16" width="16" height="16">
0,0,0,0,0,0,0,0,0,0,0,0,0,0,0,0,
0,0,0,0,0,0,0,0,0,0,37,38,0,0,0,0,
0,0,0,0,0,0,0,0,0,0,0,37,4,4,4,4,
0,0,0,0,0,0,0,0,0,0,0,0,37,4,4,4,
0,0,0,0,0,0,0,0,0,0,0,0,0,37,4,4,
0,0,0,0,0,0,0,0,0,0,0,0,0,0,37,37,
0,0,0,0,0,0,0,0,0,0,0,0,0,0,0,0,
0,0,0,0,0,0,0,0,0,0,0,0,0,0,0,0,
0,0,0,0,0,0,0,0,0,0,0,0,0,0,0,0,
0,0,0,0,0,0,0,0,0,0,0,0,0,0,0,0,
0,0,0,0,0,0,0,0,0,0,0,0,0,0,0,0,
0,0,0,0,0,0,0,0,0,0,0,0,0,0,0,0,
0,0,0,0,0,0,0,0,0,0,0,0,0,0,0,0,
0,0,0,0,0,0,0,0,0,0,0,0,0,0,0,0,
0,0,0,0,0,0,0,0,0,0,0,0,0,0,0,0,
0,0,0,0,0,0,0,0,0,0,0,0,0,0,0,0
</chunk>
   <chunk x="-48" y="16" width="16" height="16">
0,0,0,0,0,0,0,0,0,0,0,0,0,0,0,0,
0,0,0,38,38,39,0,0,0,0,0,0,0,0,0,0,
4,38,38,39,0,0,0,0,0,0,0,0,0,0,0,0,
4,4,37,0,0,0,0,0,0,0,0,0,0,0,0,0,
37,37,0,0,0,0,0,0,0,0,0,0,0,0,0,0,
37,0,0,0,0,0,0,0,0,0,0,0,0,0,0,0,
0,0,0,0,0,0,0,0,0,0,0,0,0,0,0,0,
0,0,0,0,0,0,0,0,0,0,0,0,0,0,0,0,
0,0,0,0,0,0,0,0,0,0,0,0,0,0,0,0,
0,0,0,0,0,0,0,0,0,0,0,0,0,0,0,0,
0,0,0,0,0,0,0,0,0,0,0,0,0,0,0,0,
0,0,0,0,0,0,0,0,0,0,0,0,0,0,0,0,
0,0,0,0,0,0,0,0,0,0,0,0,0,0,0,0,
0,0,0,0,0,0,0,0,0,0,0,0,0,0,0,0,
0,0,0,0,0,0,0,0,0,0,0,0,0,0,0,0,
0,0,0,0,0,0,0,0,0,0,0,0,0,0,0,0
</chunk>
   <chunk x="-16" y="16" width="16" height="16">
0,0,0,0,0,0,0,0,0,0,0,0,0,0,37,16,
0,0,0,0,0,0,0,0,0,0,0,0,0,0,0,37,
0,0,0,0,0,0,0,0,0,0,0,0,0,0,0,0,
0,0,0,0,0,0,0,0,0,0,0,0,0,0,0,0,
0,0,0,0,0,0,0,0,0,0,0,0,0,0,0,0,
0,0,0,0,0,0,0,0,0,0,0,0,0,0,0,0,
0,0,0,0,0,0,0,0,0,0,0,0,0,0,0,0,
0,0,0,0,0,0,0,0,0,0,0,0,0,0,0,0,
0,0,0,0,0,0,0,0,0,0,0,0,0,0,0,0,
0,0,0,0,0,0,0,0,0,0,0,0,0,0,0,0,
0,0,0,0,0,0,0,0,0,0,0,0,0,0,0,0,
0,0,0,0,0,0,0,0,0,0,0,0,0,0,0,0,
0,0,0,0,0,0,0,0,0,0,0,0,0,0,0,0,
0,0,0,0,0,0,0,0,0,0,0,0,0,0,0,0,
0,0,0,0,0,0,0,0,0,0,0,0,0,0,0,0,
0,0,0,0,0,0,0,0,0,0,0,0,0,0,0,0
</chunk>
   <chunk x="0" y="16" width="16" height="16">
0,0,0,0,0,0,0,0,0,0,0,0,0,0,0,0,
16,0,0,0,0,0,0,0,0,0,0,0,0,0,0,0,
37,16,0,0,0,0,0,0,0,0,0,0,0,0,0,0,
0,37,16,0,0,0,0,0,0,0,0,0,0,0,0,0,
0,0,37,38,16,0,0,0,0,0,0,0,0,0,0,0,
0,0,0,0,37,38,16,0,0,0,0,0,0,0,0,17,
0,0,0,0,0,0,37,38,16,0,0,0,0,17,38,39,
0,0,0,0,0,0,0,0,37,16,0,0,17,39,0,0,
0,0,0,0,0,0,0,0,0,37,4,4,4,0,0,0,
0,0,0,0,0,0,0,0,0,0,37,37,37,0,0,0,
0,0,0,0,0,0,0,0,0,0,0,0,0,0,0,0,
0,0,0,0,0,0,0,0,0,0,0,0,0,0,0,0,
0,0,0,0,0,0,0,0,0,0,0,0,0,0,0,0,
0,0,0,0,0,0,0,0,0,0,0,0,0,0,0,0,
0,0,0,0,0,0,0,0,0,0,0,0,0,0,0,0,
0,0,0,0,0,0,0,0,0,0,0,0,0,0,0,0
</chunk>
   <chunk x="16" y="16" width="16" height="16">
0,0,0,0,0,0,17,39,0,0,0,0,0,0,0,0,
0,0,0,0,0,17,39,0,0,0,0,0,0,0,0,0,
0,0,0,0,17,39,0,0,0,0,0,0,0,0,0,0,
0,0,0,17,39,0,0,0,0,0,0,0,0,0,0,0,
0,17,38,39,0,0,0,0,0,0,0,0,0,0,0,0,
38,39,0,0,0,0,0,0,0,0,0,0,0,0,0,0,
0,0,0,0,0,0,0,0,0,0,0,0,0,0,0,0,
0,0,0,0,0,0,0,0,0,0,0,0,0,0,0,0,
0,0,0,0,0,0,0,0,0,0,0,0,0,0,0,0,
0,0,0,0,0,0,0,0,0,0,0,0,0,0,0,0,
0,0,0,0,0,0,0,0,0,0,0,0,0,0,0,0,
0,0,0,0,0,0,0,0,0,0,0,0,0,0,0,0,
0,0,0,0,0,0,0,0,0,0,0,0,0,0,0,0,
0,0,0,0,0,0,0,0,0,0,0,0,0,0,0,0,
0,0,0,0,0,0,0,0,0,0,0,0,0,0,0,0,
0,0,0,0,0,0,0,0,0,0,0,0,0,0,0,0
</chunk>
   <chunk x="80" y="16" width="16" height="16">
0,0,0,0,0,0,0,0,0,0,0,0,0,0,0,0,
0,0,0,0,0,0,0,0,0,0,0,0,0,0,0,0,
0,0,0,0,0,0,0,0,0,0,0,0,0,0,0,0,
0,0,0,0,0,0,0,0,0,0,0,0,0,0,0,0,
0,0,0,0,0,0,0,0,0,0,0,0,0,0,0,0,
0,0,0,0,0,0,0,0,0,0,0,0,0,0,0,0,
0,0,0,0,0,0,0,0,0,0,0,0,0,0,0,0,
0,0,0,0,0,0,0,0,0,0,0,0,0,0,0,0,
0,0,0,0,0,0,0,0,0,0,0,0,0,0,0,0,
0,0,0,0,0,0,0,0,0,0,0,0,0,0,0,0,
0,0,0,0,0,0,0,0,0,0,0,0,0,0,0,0,
0,0,0,0,0,0,0,0,0,0,0,0,0,164,165,165,
0,0,0,0,0,0,0,0,0,0,0,0,0,0,0,0,
0,0,0,0,0,0,0,0,0,0,0,0,0,0,0,0,
0,0,0,0,0,0,0,0,0,0,0,0,0,0,0,0,
0,0,0,0,0,0,0,0,0,0,0,0,0,0,0,0
</chunk>
   <chunk x="96" y="16" width="16" height="16">
0,0,0,0,0,0,0,0,0,0,0,0,0,0,0,0,
0,0,0,0,0,0,0,0,0,0,0,0,0,0,0,0,
0,0,0,0,0,0,0,0,0,0,0,0,0,0,0,0,
0,165,165,165,165,0,0,0,0,165,165,165,165,0,0,0,
0,0,0,0,0,0,0,0,0,0,0,0,0,0,0,0,
0,0,0,0,0,0,0,0,0,0,0,0,0,0,0,0,
0,0,0,0,0,0,0,0,0,0,0,0,0,0,0,0,
0,0,0,0,0,0,0,0,0,0,0,0,0,0,0,0,
0,0,0,0,0,0,0,0,0,0,0,0,0,0,0,0,
0,0,0,0,0,0,0,0,0,0,0,0,0,0,0,0,
0,0,0,0,0,0,0,0,0,0,0,0,0,0,0,0,
166,0,0,0,0,164,165,165,166,0,0,0,0,0,0,0,
0,0,0,0,0,0,0,0,0,0,0,0,0,0,0,0,
0,0,0,0,0,0,0,0,0,0,0,0,0,0,0,0,
0,0,0,0,0,0,0,0,0,0,0,0,0,0,0,0,
0,0,0,0,0,0,0,0,0,0,0,0,0,0,0,0
</chunk>
   <chunk x="112" y="16" width="16" height="16">
0,0,0,0,0,0,0,0,0,0,0,0,0,0,0,0,
0,0,0,0,0,0,0,0,0,0,0,0,0,0,0,0,
0,0,0,0,0,0,0,0,0,0,0,0,0,0,0,0,
0,165,165,165,165,165,165,165,165,165,165,165,165,0,0,0,
0,0,0,0,0,0,0,0,0,0,0,0,0,0,0,0,
0,0,0,0,0,0,0,0,0,0,0,0,0,0,0,0,
0,0,0,0,0,0,0,0,0,0,0,0,0,0,0,0,
0,0,0,0,0,0,0,0,0,0,0,0,0,0,0,0,
0,0,0,0,0,0,0,0,0,0,0,0,0,0,0,0,
0,0,0,0,0,0,0,0,0,0,0,0,0,0,0,0,
0,0,0,0,0,0,0,0,0,0,0,0,0,0,0,0,
0,0,0,0,0,0,0,0,0,0,0,0,0,164,165,165,
0,0,0,0,0,0,0,0,0,0,0,0,0,0,0,0,
0,0,0,0,0,0,0,0,0,0,0,0,0,0,0,0,
0,0,0,0,0,0,0,0,0,0,0,0,0,0,0,0,
0,0,0,0,0,0,0,0,0,0,0,0,0,0,0,0
</chunk>
   <chunk x="128" y="16" width="16" height="16">
0,0,0,0,0,0,0,0,0,0,0,0,0,0,0,0,
0,0,0,0,0,0,0,0,0,0,0,0,0,0,0,0,
0,0,0,0,0,0,0,0,0,0,0,0,0,0,0,0,
0,165,165,165,165,165,165,165,165,165,165,165,165,0,0,0,
0,0,0,0,0,0,0,0,0,0,0,0,0,0,0,0,
0,0,0,0,0,0,0,0,0,0,0,0,0,0,0,0,
0,0,0,0,0,0,0,0,0,0,0,0,0,0,0,0,
0,0,0,0,0,0,0,0,0,0,0,0,0,0,0,0,
0,0,0,0,0,0,0,0,0,0,0,0,0,0,0,0,
0,0,0,0,0,0,0,0,0,0,0,0,0,0,0,0,
0,0,0,0,0,0,0,0,0,0,0,0,0,0,0,0,
165,165,165,165,165,165,165,165,166,0,0,0,0,0,0,0,
0,0,0,0,0,0,0,0,0,0,0,0,0,0,0,0,
0,0,0,0,0,0,0,0,0,0,0,0,0,0,0,0,
0,0,0,0,0,0,0,0,0,0,0,0,0,0,0,0,
0,0,0,0,0,0,0,0,0,0,0,0,0,0,0,0
</chunk>
   <chunk x="144" y="16" width="16" height="16">
0,0,0,0,0,0,0,0,0,0,0,0,0,0,0,0,
0,0,0,0,0,0,0,0,0,0,0,0,0,0,0,0,
0,0,0,0,0,0,0,0,0,0,0,0,0,0,0,0,
0,165,165,165,165,165,165,165,165,165,165,165,165,165,165,165,
0,0,0,0,0,0,0,0,0,0,0,0,0,0,0,0,
0,0,0,0,0,0,0,0,0,0,0,0,0,0,0,0,
0,0,0,0,0,0,0,0,0,0,0,0,0,0,0,0,
0,0,0,0,0,0,0,0,0,0,0,0,0,0,0,0,
0,0,0,0,0,0,0,0,0,0,0,0,0,0,0,0,
0,0,0,0,0,0,0,0,0,0,0,0,0,0,0,0,
0,0,0,0,0,0,0,0,0,0,0,0,0,0,0,0,
0,0,0,0,0,164,165,165,165,165,165,165,165,0,0,0,
0,0,0,0,0,0,0,0,0,0,0,0,0,0,0,0,
0,0,0,0,0,0,0,0,0,0,0,0,0,0,0,0,
0,0,0,0,0,0,0,0,0,0,0,0,0,0,0,0,
0,0,0,0,0,0,0,0,0,0,0,0,0,0,0,0
</chunk>
   <chunk x="160" y="16" width="16" height="16">
0,0,0,0,0,0,0,0,0,0,0,0,0,0,0,0,
0,0,0,0,0,0,0,0,0,0,0,0,0,0,0,0,
0,0,0,0,0,0,0,0,0,0,0,0,0,0,0,0,
165,165,165,165,165,0,0,0,0,0,0,0,0,0,0,0,
0,0,0,0,0,0,0,0,0,0,0,0,0,0,0,0,
0,0,0,0,0,0,0,0,0,0,0,0,0,0,0,0,
0,0,0,0,0,0,0,0,0,0,0,0,0,0,0,0,
0,0,0,0,0,0,0,0,0,0,0,0,0,0,0,0,
0,0,0,0,0,0,0,0,0,0,0,0,0,0,0,0,
0,0,0,0,0,0,0,0,0,0,0,0,0,0,0,0,
0,0,0,0,0,0,0,0,0,0,0,0,0,0,0,0,
0,0,0,0,0,0,0,0,0,0,0,0,0,0,0,0,
0,0,0,0,0,0,0,0,0,0,0,0,0,0,0,0,
0,0,0,0,0,0,0,0,0,0,0,0,0,0,0,0,
0,0,0,0,0,0,0,0,0,0,0,0,0,0,0,0,
0,0,0,0,0,0,0,0,0,0,0,0,0,0,0,0
</chunk>
   <chunk x="80" y="32" width="16" height="16">
0,0,0,0,0,0,0,0,0,0,0,0,0,0,0,0,
0,0,0,0,0,0,0,0,0,0,0,0,0,0,0,0,
0,0,0,0,0,0,0,0,0,0,0,0,0,0,0,0,
0,0,0,0,0,0,0,0,0,0,0,0,0,164,165,165,
0,0,0,0,0,0,0,0,0,0,0,0,0,0,0,0,
0,0,0,0,0,0,0,0,0,0,0,0,0,0,0,0,
0,0,0,0,0,0,0,0,0,0,0,0,0,0,0,0,
0,0,0,0,0,0,0,0,0,0,0,0,0,0,0,0,
0,0,0,0,0,0,0,0,0,0,0,0,0,0,0,0,
0,0,0,0,0,0,0,0,0,0,0,0,0,0,0,0,
0,0,0,0,0,0,0,0,0,0,0,0,0,0,0,0,
0,0,0,0,0,0,0,0,0,0,0,0,0,0,0,0,
0,0,0,0,0,0,0,0,0,0,0,0,0,0,0,0,
0,0,0,0,0,0,0,0,0,0,0,0,0,0,0,0,
0,0,0,0,0,0,0,0,0,0,0,0,0,0,0,0,
0,0,0,0,0,0,0,0,0,0,0,0,0,0,0,0
</chunk>
   <chunk x="96" y="32" width="16" height="16">
0,0,0,0,0,0,0,0,0,0,0,0,0,0,0,0,
0,0,0,0,0,0,0,0,0,0,0,0,0,0,0,0,
0,0,0,0,0,0,0,0,0,0,0,0,0,0,0,0,
165,165,165,165,165,165,165,165,165,165,165,165,165,165,165,165,
0,0,0,0,0,0,0,0,0,0,0,0,0,0,0,0,
0,0,0,0,0,0,0,0,0,0,0,0,0,0,0,0,
0,0,0,0,0,0,0,0,0,0,0,0,0,0,0,0,
0,0,0,0,0,0,0,0,0,0,0,0,0,0,0,0,
0,0,0,0,0,0,0,0,0,0,0,0,0,0,0,0,
0,0,0,0,0,0,0,0,0,0,0,0,0,0,0,0,
0,0,0,0,0,0,0,0,0,0,0,0,0,0,0,0,
0,0,0,0,0,0,0,0,0,0,0,0,0,0,0,0,
0,0,0,0,0,0,0,0,0,0,0,0,0,0,0,0,
0,0,0,0,0,0,0,0,0,0,0,0,0,0,0,0,
0,0,0,0,0,0,0,0,0,0,0,0,0,0,0,0,
0,0,0,0,0,0,0,0,0,0,0,0,0,0,0,0
</chunk>
   <chunk x="112" y="32" width="16" height="16">
0,0,0,0,0,0,0,0,0,0,0,0,0,0,0,0,
0,0,0,0,0,0,0,0,0,0,0,0,0,0,0,0,
0,0,0,0,0,0,0,0,0,0,0,0,0,0,0,0,
166,0,0,0,0,164,165,165,165,165,165,165,165,165,165,165,
0,0,0,0,0,0,0,0,0,0,0,0,0,0,0,0,
0,0,0,0,0,0,0,0,0,0,0,0,0,0,0,0,
0,0,0,0,0,0,0,0,0,0,0,0,0,0,0,0,
0,0,0,0,0,0,0,0,0,0,0,0,0,0,0,0,
0,0,0,0,0,0,0,0,0,0,0,0,0,0,0,0,
0,0,0,0,0,0,0,0,0,0,0,0,0,0,0,0,
0,0,0,0,0,0,0,0,0,0,0,0,0,0,0,0,
0,0,0,0,0,0,0,0,0,0,0,0,0,0,0,0,
0,0,0,0,0,0,0,0,0,0,0,0,0,0,0,0,
0,0,0,0,0,0,0,0,0,0,0,0,0,0,0,0,
0,0,0,0,0,0,0,0,0,0,0,0,0,0,0,0,
0,0,0,0,0,0,0,0,0,0,0,0,0,0,0,0
</chunk>
   <chunk x="128" y="32" width="16" height="16">
0,0,0,0,0,0,0,0,0,0,0,0,0,0,0,0,
0,0,0,0,0,0,0,0,0,0,0,0,0,0,0,0,
0,0,0,0,0,0,0,0,0,0,0,0,0,0,0,0,
165,165,165,165,165,165,165,165,165,165,165,165,165,165,165,165,
0,0,0,0,0,0,0,0,0,0,0,0,0,0,0,0,
0,0,0,0,0,0,0,0,0,0,0,0,0,0,0,0,
0,0,0,0,0,0,0,0,0,0,0,0,0,0,0,0,
0,0,0,0,0,0,0,0,0,0,0,0,0,0,0,0,
0,0,0,0,0,0,0,0,0,0,0,0,0,0,0,0,
0,0,0,0,0,0,0,0,0,0,0,0,0,0,0,0,
0,0,0,0,0,0,0,0,0,0,0,0,0,0,0,0,
0,0,0,0,0,0,0,0,0,0,0,0,0,0,0,0,
0,0,0,0,0,0,0,0,0,0,0,0,0,0,0,0,
0,0,0,0,0,0,0,0,0,0,0,0,0,0,0,0,
0,0,0,0,0,0,0,0,0,0,0,0,0,0,0,0,
0,0,0,0,0,0,0,0,0,0,0,0,0,0,0,0
</chunk>
   <chunk x="144" y="32" width="16" height="16">
0,0,0,0,0,0,0,0,0,0,0,0,0,0,0,0,
0,0,0,0,0,0,0,0,0,0,0,0,0,0,0,0,
0,0,0,0,0,0,0,0,0,0,0,0,0,0,0,0,
165,165,165,165,165,165,165,165,166,0,0,0,0,164,165,165,
0,0,0,0,0,0,0,0,0,0,0,0,0,0,0,0,
0,0,0,0,0,0,0,0,0,0,0,0,0,0,0,0,
0,0,0,0,0,0,0,0,0,0,0,0,0,0,0,0,
0,0,0,0,0,0,0,0,0,0,0,0,0,0,0,0,
0,0,0,0,0,0,0,0,0,0,0,0,0,0,0,0,
0,0,0,0,0,0,0,0,0,0,0,0,0,0,0,0,
0,0,0,0,0,0,0,0,0,0,0,0,0,0,0,0,
0,0,0,0,0,0,0,0,0,0,0,0,0,0,0,0,
0,0,0,0,0,0,0,0,0,0,0,0,0,0,0,0,
0,0,0,0,0,0,0,0,0,0,0,0,0,0,0,0,
0,0,0,0,0,0,0,0,0,0,0,0,0,0,0,0,
0,0,0,0,0,0,0,0,0,0,0,0,0,0,0,0
</chunk>
   <chunk x="160" y="32" width="16" height="16">
0,0,0,0,0,0,0,0,0,0,0,0,0,0,0,0,
0,0,0,0,0,0,0,0,0,0,0,0,0,0,0,0,
0,0,0,0,0,0,0,0,0,0,0,0,0,0,0,0,
165,165,165,165,165,165,165,165,166,0,0,0,0,0,0,0,
0,0,0,0,0,0,0,0,0,0,0,0,0,0,0,0,
0,0,0,0,0,0,0,0,0,0,0,0,0,0,0,0,
0,0,0,0,0,0,0,0,0,0,0,0,0,0,0,0,
0,0,0,0,0,0,0,0,0,0,0,0,0,0,0,0,
0,0,0,0,0,0,0,0,0,0,0,0,0,0,0,0,
0,0,0,0,0,0,0,0,0,0,0,0,0,0,0,0,
0,0,0,0,0,0,0,0,0,0,0,0,0,0,0,0,
0,0,0,0,0,0,0,0,0,0,0,0,0,0,0,0,
0,0,0,0,0,0,0,0,0,0,0,0,0,0,0,0,
0,0,0,0,0,0,0,0,0,0,0,0,0,0,0,0,
0,0,0,0,0,0,0,0,0,0,0,0,0,0,0,0,
0,0,0,0,0,0,0,0,0,0,0,0,0,0,0,0
</chunk>
  </data>
 </layer>
 <layer id="4" name="floor" width="30" height="20">
  <data encoding="csv">
   <chunk x="-64" y="-48" width="16" height="16">
0,0,0,0,0,0,0,0,0,0,0,0,0,0,0,0,
0,0,0,0,0,0,0,0,0,0,0,0,0,0,0,0,
0,0,0,0,0,0,0,0,0,0,0,0,0,0,0,0,
0,0,0,0,0,0,0,0,0,0,0,0,0,0,0,0,
0,0,0,0,0,0,0,0,0,0,0,0,0,0,0,0,
0,0,0,0,0,0,0,0,0,0,0,0,0,0,0,0,
0,0,0,0,0,0,0,0,0,0,0,0,0,0,0,0,
0,0,0,0,0,0,0,0,0,0,0,0,0,0,0,0,
0,0,0,0,0,0,0,0,0,0,0,0,0,0,0,0,
0,0,0,0,0,0,0,0,0,0,0,0,0,0,0,0,
0,0,0,0,0,0,0,0,0,0,0,0,0,0,0,1,
0,0,0,0,0,0,0,0,0,0,0,0,0,0,10,11,
0,0,0,0,0,0,0,0,0,0,0,0,1,2,22,23,
0,0,0,0,0,0,0,0,0,1,2,15,14,15,14,26,
0,0,0,0,0,0,0,1,10,11,14,15,15,26,27,0,
0,0,0,0,0,1,2,14,22,23,26,27,0,0,0,0
</chunk>
   <chunk x="-48" y="-48" width="16" height="16">
0,0,0,0,0,0,0,0,0,0,0,0,0,0,0,0,
0,0,0,0,0,0,0,0,0,0,0,0,0,0,0,0,
0,0,0,0,0,0,0,0,0,0,0,0,0,0,0,0,
0,0,0,0,0,0,0,0,0,0,0,0,0,0,0,0,
0,0,0,0,0,0,0,0,0,0,0,0,0,0,0,0,
0,0,0,0,0,0,0,0,0,0,0,0,0,0,0,0,
0,0,0,0,0,0,0,0,0,0,0,0,0,0,0,0,
0,0,0,0,0,0,0,0,0,0,0,0,0,0,0,0,
0,0,0,0,0,0,0,0,0,0,0,0,0,0,0,0,
0,1,2,15,2,2,15,15,2,2,3,0,0,0,0,0,
2,15,10,11,14,15,14,15,14,14,14,2,3,0,0,0,
14,15,22,23,26,26,26,14,14,14,14,14,14,2,3,0,
14,14,26,27,0,0,0,25,26,26,26,26,14,14,14,3,
26,27,0,0,0,0,0,0,0,0,0,0,25,26,14,14,
0,0,0,0,0,0,0,0,0,0,0,0,37,0,13,10,
0,0,0,0,0,0,0,0,0,0,0,0,0,0,25,22
</chunk>
   <chunk x="-32" y="-48" width="16" height="16">
0,0,0,0,0,0,0,0,0,0,0,0,0,0,0,0,
0,0,0,0,0,0,0,0,0,0,0,0,0,0,0,0,
0,0,0,0,0,0,0,0,0,0,0,0,0,0,0,0,
0,0,0,0,0,0,0,0,0,0,0,0,0,0,0,0,
0,0,0,0,0,0,0,0,0,0,0,0,0,0,0,0,
0,0,0,0,0,0,0,0,0,0,0,0,0,0,0,0,
0,0,0,0,0,0,0,0,0,0,0,0,0,0,0,0,
0,0,0,0,0,0,0,0,0,0,0,0,0,0,0,0,
0,0,0,0,0,0,0,0,0,0,0,0,0,0,0,0,
0,0,0,0,0,0,0,0,0,0,0,0,0,0,0,0,
0,0,0,0,0,0,0,0,0,0,0,0,0,0,0,0,
0,0,0,0,0,0,0,0,0,0,0,0,0,0,0,0,
0,0,0,0,0,0,0,0,0,0,0,0,0,0,0,0,
3,0,0,0,0,0,0,0,0,0,0,0,0,0,0,0,
11,3,0,0,0,0,0,0,0,0,0,0,0,0,0,0,
23,14,15,3,0,0,0,0,0,0,0,0,0,0,0,0
</chunk>
   <chunk x="32" y="-48" width="16" height="16">
0,0,0,0,0,0,0,0,0,0,0,0,0,0,0,0,
0,0,0,0,0,0,0,0,0,0,0,0,0,0,0,0,
0,0,0,0,0,0,0,0,0,0,0,0,0,0,0,0,
0,0,0,0,0,0,0,0,0,0,0,0,0,0,0,0,
0,0,0,0,0,0,0,0,0,0,0,0,0,0,0,0,
0,0,0,0,0,0,0,0,0,0,0,0,0,0,0,0,
0,0,0,0,0,0,0,0,0,0,0,0,0,0,0,0,
0,0,0,0,0,0,0,0,0,0,0,0,0,0,170,170,
0,0,0,0,0,0,0,0,0,0,0,0,0,0,181,5,
0,0,0,0,0,0,0,0,0,0,0,0,0,0,170,181,
0,0,0,0,0,0,0,0,0,0,0,0,0,0,0,172,
0,0,0,0,0,0,0,0,0,0,0,170,0,0,0,184,
0,0,0,0,0,0,0,0,0,0,170,181,0,0,0,170,
0,0,0,0,0,0,0,0,0,170,4,181,0,0,0,0,
0,0,0,0,0,0,0,0,0,181,181,181,170,0,0,0,
0,0,0,0,0,0,0,0,170,181,181,172,173,0,0,170
</chunk>
   <chunk x="48" y="-48" width="16" height="16">
0,0,0,0,0,0,0,0,0,0,0,0,0,0,0,0,
0,0,0,0,0,0,0,0,0,0,0,0,0,0,0,0,
0,0,0,0,0,0,0,0,0,0,0,0,0,0,0,0,
0,0,0,0,0,0,0,0,0,0,0,0,0,0,0,0,
0,0,0,0,0,0,0,0,0,0,0,0,0,0,0,0,
0,0,0,0,0,0,0,0,0,0,0,0,0,0,0,0,
0,0,0,0,0,0,0,0,0,0,0,0,0,0,0,0,
0,0,0,0,0,0,0,0,0,0,0,0,0,0,0,0,
170,0,0,0,0,0,0,0,0,0,0,0,0,0,0,0,
181,170,0,0,0,0,0,0,0,0,0,0,0,0,0,0,
173,172,173,0,0,0,0,0,0,0,0,0,0,0,0,0,
185,184,185,170,0,0,0,0,0,0,0,0,0,0,0,0,
16,181,181,181,0,0,0,0,0,0,0,0,0,0,0,0,
181,181,181,181,170,0,0,0,0,0,0,0,0,0,0,0,
181,181,181,172,173,0,0,0,0,0,0,0,0,0,0,0,
4,181,181,184,185,0,0,0,0,0,0,0,0,0,0,0
</chunk>
   <chunk x="80" y="-48" width="16" height="16">
0,0,0,0,0,0,0,0,0,0,0,0,0,0,0,0,
0,0,0,0,0,0,0,0,0,0,0,0,0,0,0,0,
0,0,0,0,0,0,0,0,0,0,0,0,0,0,0,0,
0,0,0,0,0,0,0,0,0,0,0,0,0,0,0,0,
0,0,0,0,0,0,0,0,0,0,0,0,0,0,0,0,
0,0,0,0,0,0,0,0,0,0,0,0,0,0,0,0,
0,0,0,0,0,0,0,0,0,0,0,0,0,0,0,0,
0,0,0,0,0,0,0,0,0,0,0,0,0,128,129,129,
0,0,0,0,0,0,0,0,0,0,0,0,0,140,141,141,
0,0,0,0,0,0,0,0,0,0,0,0,0,140,141,141,
0,0,0,0,0,0,0,0,0,0,0,0,0,152,153,153,
0,0,0,0,0,0,0,0,0,0,0,0,0,0,0,0,
0,0,0,0,0,0,0,0,0,0,0,0,0,0,0,0,
0,0,0,0,0,0,0,0,0,0,0,0,0,0,0,0,
0,0,0,0,0,0,0,0,0,0,0,0,0,0,0,0,
0,0,0,0,0,0,0,0,0,0,0,0,0,128,129,129
</chunk>
   <chunk x="96" y="-48" width="16" height="16">
0,0,0,0,0,0,0,0,0,0,0,0,0,0,0,0,
0,0,0,0,0,0,0,0,0,0,0,0,0,0,0,0,
0,0,0,0,0,0,0,0,0,0,0,0,0,0,0,0,
0,0,0,0,0,0,0,0,0,0,0,0,0,0,0,0,
0,0,0,0,0,0,0,0,0,0,0,0,0,0,0,0,
0,0,0,0,0,0,0,0,0,0,0,0,0,0,0,0,
0,0,0,0,0,0,0,0,0,0,0,0,0,0,0,0,
129,129,129,129,129,129,129,129,130,0,0,0,0,0,129,129,
141,141,141,141,141,141,141,141,142,0,0,0,0,140,141,141,
141,141,141,141,141,141,141,141,142,0,0,0,0,140,141,141,
153,153,153,153,153,143,141,141,142,0,0,0,0,0,153,153,
0,0,0,0,0,140,141,141,142,0,0,0,0,0,0,0,
0,0,0,0,0,140,141,141,142,0,0,0,0,0,0,0,
0,0,0,0,0,140,141,141,142,0,0,0,0,0,0,0,
0,0,0,0,0,140,141,141,142,0,0,0,0,0,0,0,
130,0,0,0,0,140,141,141,132,129,129,129,129,129,129,129
</chunk>
   <chunk x="112" y="-48" width="16" height="16">
0,0,0,0,0,0,0,0,0,0,0,0,0,0,0,0,
0,0,0,0,0,0,0,0,0,0,0,0,0,0,0,0,
0,0,0,0,0,0,0,0,0,0,0,0,0,0,0,0,
0,0,0,0,0,0,0,0,0,0,0,0,0,0,0,0,
0,0,0,0,0,0,0,0,0,0,0,0,0,0,0,0,
0,0,0,0,0,0,0,0,0,0,0,0,0,0,0,0,
0,0,0,0,0,0,0,0,0,0,0,0,0,0,0,0,
129,129,129,129,129,129,129,129,129,129,129,129,129,129,129,129,
141,141,141,141,141,141,141,141,141,141,141,141,141,141,141,141,
141,141,141,141,141,141,141,141,141,141,141,141,141,141,141,141,
153,153,153,153,153,153,153,153,153,153,153,153,153,143,141,141,
0,0,0,0,0,0,0,0,0,0,0,0,0,140,141,141,
0,0,0,0,0,0,0,0,0,0,0,0,0,140,141,141,
0,0,0,0,0,0,0,0,0,0,0,0,0,140,141,141,
0,0,0,0,0,0,0,0,0,0,0,0,0,140,141,141,
130,0,0,0,0,128,129,129,130,0,0,0,0,140,141,141
</chunk>
   <chunk x="128" y="-48" width="16" height="16">
0,0,0,0,0,0,0,0,0,0,0,0,0,0,0,0,
0,0,0,0,0,0,0,0,0,0,0,0,0,0,0,0,
0,0,0,0,0,0,0,0,0,0,0,0,0,0,0,0,
0,0,0,0,0,0,0,0,0,0,0,0,0,0,0,0,
0,0,0,0,0,0,0,0,0,0,0,0,0,0,0,0,
0,0,0,0,0,0,0,0,0,0,0,0,0,0,0,0,
0,0,0,0,0,0,0,0,0,0,0,0,0,0,0,0,
0,0,0,0,0,128,129,129,130,0,0,0,0,128,129,129,
142,0,0,0,0,140,141,141,142,0,0,0,0,140,141,141,
142,0,0,0,0,140,141,141,142,0,0,0,0,140,141,141,
142,0,0,0,0,140,141,141,142,0,0,0,0,152,153,153,
142,0,0,0,0,140,141,141,142,0,0,0,0,0,0,0,
142,0,0,0,0,140,141,141,142,0,0,0,0,0,0,0,
142,0,0,0,0,140,141,141,142,0,0,0,0,0,0,0,
142,0,0,0,0,140,141,141,142,0,0,0,0,0,0,0,
132,129,129,129,129,131,141,141,132,129,129,129,129,129,129,129
</chunk>
   <chunk x="144" y="-48" width="16" height="16">
0,0,0,0,0,0,0,0,0,0,0,0,0,0,0,0,
0,0,0,0,0,0,0,0,0,0,0,0,0,0,0,0,
0,0,0,0,0,0,0,0,0,0,0,0,0,0,0,0,
0,0,0,0,0,0,0,0,0,0,0,0,0,0,0,0,
0,0,0,0,0,0,0,0,0,0,0,0,0,0,0,0,
0,0,0,0,0,0,0,0,0,0,0,0,0,0,0,0,
0,0,0,0,0,0,0,0,0,0,0,0,0,0,0,0,
129,129,129,129,129,129,129,129,129,129,129,129,129,129,129,129,
141,141,141,141,141,141,141,141,141,141,141,141,141,141,141,141,
141,141,141,141,141,141,141,141,141,141,141,141,141,141,141,141,
153,153,153,153,153,143,141,141,144,153,153,153,153,153,153,153,
0,0,0,0,0,140,141,141,142,0,0,0,0,0,0,0,
0,0,0,0,0,140,141,141,142,0,0,0,0,0,0,0,
0,0,0,0,0,140,141,141,142,0,0,0,0,0,0,0,
0,0,0,0,0,140,141,141,142,0,0,0,0,0,0,0,
129,129,129,129,129,131,141,141,142,0,0,0,0,128,129,129
</chunk>
   <chunk x="160" y="-48" width="16" height="16">
0,0,0,0,0,0,0,0,0,0,0,0,0,0,0,0,
0,0,0,0,0,0,0,0,0,0,0,0,0,0,0,0,
0,0,0,0,0,0,0,0,0,0,0,0,0,0,0,0,
0,0,0,0,0,0,0,0,0,0,0,0,0,0,0,0,
0,0,0,0,0,0,0,0,0,0,0,0,0,0,0,0,
0,0,0,0,0,0,0,0,0,0,0,0,0,0,0,0,
0,0,0,0,0,0,0,0,0,0,0,0,0,0,0,0,
129,129,129,129,129,129,129,129,130,0,0,0,0,0,0,0,
141,141,141,141,141,141,141,141,142,0,0,0,0,0,0,0,
141,141,141,141,141,141,141,141,142,0,0,0,0,0,0,0,
153,153,153,153,153,153,153,153,154,0,0,0,0,0,0,0,
0,0,0,0,0,0,0,0,0,0,0,0,0,0,0,0,
0,0,0,0,0,0,0,0,0,0,0,0,0,0,0,0,
0,0,0,0,0,0,0,0,0,0,0,0,0,0,0,0,
0,0,0,0,0,0,0,0,0,0,0,0,0,0,0,0,
129,129,129,129,129,129,129,129,130,0,0,0,0,0,0,0
</chunk>
   <chunk x="-80" y="-32" width="16" height="16">
0,0,0,0,0,0,0,0,0,0,0,0,0,0,0,0,
0,0,0,0,0,0,0,0,0,0,0,0,0,0,0,0,
0,0,0,0,0,0,0,0,0,0,0,0,0,0,0,0,
0,0,0,0,0,0,0,0,0,0,0,0,0,0,0,0,
0,0,0,0,0,0,0,0,0,0,0,0,0,0,1,2,
0,0,0,0,0,0,0,0,0,0,0,0,0,1,10,11,
0,0,0,0,0,0,0,0,0,0,0,0,1,14,22,23,
0,0,0,0,0,0,0,0,0,0,0,1,14,14,14,15,
0,0,0,0,0,0,0,0,0,0,0,10,11,15,14,15,
0,0,0,0,0,0,0,0,0,0,0,22,23,15,14,27,
0,0,0,0,0,0,0,0,0,0,1,14,14,14,15,0,
0,0,0,0,0,0,0,0,0,0,13,14,14,15,0,0,
0,0,0,0,0,0,0,0,0,0,13,10,11,15,0,0,
0,0,0,0,0,0,0,0,0,0,13,22,23,15,0,0,
0,0,0,0,0,0,0,0,0,0,10,11,14,14,3,0,
0,0,0,0,0,0,0,0,0,0,22,23,14,14,15,0
</chunk>
   <chunk x="-64" y="-32" width="16" height="16">
0,0,0,1,10,11,14,15,26,27,0,0,0,0,0,0,
0,0,1,14,22,23,15,15,0,0,0,0,0,0,0,0,
0,0,15,14,14,26,14,27,0,0,0,0,0,0,1,2,
1,2,14,15,15,0,0,0,0,1,2,2,15,2,10,11,
14,10,11,14,15,0,0,1,2,10,11,14,14,14,22,23,
14,22,23,14,10,11,2,10,11,22,23,26,26,14,27,0,
15,26,14,15,22,23,14,22,23,14,15,0,0,0,0,0,
27,0,0,14,14,26,15,14,14,27,0,0,0,0,0,0,
0,0,0,0,0,0,0,0,0,0,0,0,0,0,0,0,
0,0,0,0,0,0,0,0,0,0,0,0,1,2,3,0,
0,0,0,0,0,0,0,0,0,0,1,2,14,14,27,0,
0,0,0,0,0,0,0,0,0,1,14,14,14,27,0,0,
0,0,0,0,0,0,0,1,2,14,14,14,15,0,0,0,
0,0,0,0,0,0,1,14,14,14,14,14,15,0,0,0,
0,0,0,0,0,0,25,26,26,14,14,14,15,0,0,0,
0,0,0,0,0,0,0,0,0,13,14,14,27,0,0,0
</chunk>
   <chunk x="-48" y="-32" width="16" height="16">
0,0,0,0,1,3,0,0,0,0,0,0,0,0,0,0,
1,2,2,10,11,14,2,3,0,0,0,0,0,0,0,0,
10,11,14,22,23,14,14,14,3,0,0,0,0,0,0,0,
22,23,26,14,14,14,10,11,14,3,0,0,0,0,0,0,
26,27,0,0,0,25,22,23,14,14,3,0,0,0,0,0,
0,0,0,0,0,0,25,14,10,11,14,3,0,0,0,0,
0,0,0,0,0,0,0,25,22,23,14,14,3,0,0,0,
0,0,0,0,0,0,0,0,13,14,14,14,15,0,0,0,
0,0,0,0,0,0,0,0,13,14,14,10,11,0,0,0,
0,0,0,0,0,0,0,0,25,15,14,22,23,3,0,0,
0,0,0,0,0,0,0,0,0,25,14,15,14,14,2,3,
0,0,0,0,0,0,0,0,0,0,25,14,14,10,11,15,
0,0,0,0,0,0,0,0,0,0,0,25,26,22,23,14,
0,0,0,0,0,0,0,0,0,0,0,0,0,25,14,15,
0,0,0,0,0,0,0,0,0,0,0,0,0,0,25,14,
0,0,0,0,0,0,0,0,0,0,0,0,0,0,0,13
</chunk>
   <chunk x="-32" y="-32" width="16" height="16">
25,15,14,10,11,3,0,0,0,0,0,0,0,0,0,0,
0,25,14,22,23,14,3,0,0,0,0,1,3,0,0,0,
0,0,25,14,14,14,15,0,0,0,1,15,14,3,0,0,
0,0,0,25,26,14,14,2,2,2,4,14,14,5,3,0,
0,0,0,0,0,25,15,14,14,10,11,14,14,14,14,3,
0,0,0,0,0,0,25,26,14,22,23,14,14,14,14,27,
0,0,0,0,0,0,0,0,25,14,14,14,14,17,27,0,
0,0,0,0,0,0,0,0,0,25,26,14,14,27,0,0,
0,0,0,0,0,0,0,0,0,0,0,25,27,0,0,0,
0,0,0,0,0,0,0,0,0,0,0,18,20,0,0,0,
0,0,0,0,0,0,0,0,0,0,0,18,20,0,0,0,
3,0,0,0,0,0,0,0,0,0,0,18,20,0,0,0,
14,3,0,0,0,0,0,0,0,1,2,2,2,2,3,0,
10,11,0,0,0,0,0,0,1,4,14,14,14,15,14,3,
22,23,0,0,0,0,0,1,4,14,10,11,14,15,14,14,
10,11,3,0,0,0,0,13,14,14,22,23,14,15,15,10
</chunk>
   <chunk x="-16" y="-32" width="16" height="16">
0,0,0,0,0,0,0,0,0,0,0,0,0,0,0,0,
0,0,0,0,0,0,0,0,0,0,0,0,0,0,0,0,
0,0,0,0,0,0,0,0,0,0,0,0,0,0,0,0,
0,0,0,0,0,0,0,0,0,0,0,0,0,0,0,0,
0,0,0,0,0,0,0,0,0,0,0,0,0,0,0,0,
0,0,0,0,0,0,0,0,0,0,0,0,0,0,0,0,
0,0,0,0,0,0,0,0,0,0,0,0,0,0,0,0,
0,0,0,0,0,0,0,0,0,0,0,0,0,0,0,0,
0,0,0,0,0,0,0,0,0,0,0,0,0,0,0,0,
0,0,0,0,0,0,0,0,0,0,0,0,0,0,0,0,
0,0,0,0,0,0,0,0,0,0,0,0,0,0,0,0,
0,0,0,0,0,0,0,0,0,0,0,0,0,0,0,0,
0,0,0,0,0,0,0,0,0,0,0,0,0,0,0,0,
0,0,0,0,0,0,0,0,0,0,0,0,0,0,0,0,
3,0,0,0,0,0,0,0,0,0,0,0,0,0,0,0,
11,0,0,0,0,0,0,0,1,2,2,15,2,3,0,0
</chunk>
   <chunk x="32" y="-32" width="16" height="16">
0,0,0,0,0,0,0,0,181,181,181,184,185,0,0,181,
0,0,0,0,0,0,0,0,181,181,181,181,181,170,0,181,
0,0,0,0,0,0,0,0,181,181,181,181,181,172,173,181,
0,0,0,0,0,0,0,0,0,181,181,181,181,184,185,181,
0,0,0,0,170,170,170,0,0,181,181,181,181,181,181,181,
0,0,0,0,172,173,5,170,0,181,181,181,181,181,181,181,
0,0,0,0,184,185,181,5,170,4,181,181,181,181,181,181,
0,0,0,0,182,181,172,173,181,181,181,181,181,181,181,181,
0,0,0,0,0,182,184,185,181,181,181,181,181,181,181,181,
0,0,0,0,0,0,181,181,181,181,181,181,181,181,181,181,
0,0,0,0,0,0,181,181,181,181,181,181,181,181,181,181,
0,0,0,0,0,0,181,181,181,181,181,181,181,181,181,181,
0,0,0,0,0,170,181,181,181,181,181,181,181,181,181,181,
0,0,0,0,170,181,181,181,181,62,62,62,62,62,62,62,
0,0,0,0,0,181,181,181,181,181,62,62,62,62,62,62,
0,0,0,0,0,181,181,181,181,181,181,181,62,62,62,62
</chunk>
   <chunk x="48" y="-32" width="16" height="16">
181,181,181,181,0,0,0,170,0,0,0,0,0,0,0,0,
181,181,181,181,0,170,172,173,0,0,0,0,0,0,0,0,
181,181,172,173,170,181,184,185,0,0,0,0,0,0,0,0,
181,181,184,185,181,181,181,181,0,0,0,0,0,0,0,0,
181,2684354574,181,181,181,181,181,0,0,0,0,0,0,0,0,0,
181,181,181,181,181,181,181,0,0,0,0,0,0,0,0,0,
181,181,181,181,181,181,181,0,172,173,0,0,0,0,0,0,
181,181,181,181,181,181,5,170,184,185,0,0,0,0,0,0,
181,181,181,181,181,181,181,181,181,181,0,0,0,0,0,0,
181,181,181,181,181,181,181,181,181,0,0,0,0,0,0,0,
181,181,181,181,181,181,181,181,0,0,0,0,0,0,0,0,
181,181,181,181,181,181,181,181,0,0,0,0,0,0,0,0,
181,181,181,181,181,181,181,181,170,0,0,0,0,0,0,0,
62,62,62,62,62,181,181,181,181,170,0,0,0,0,0,0,
62,62,62,62,181,181,181,181,181,0,0,0,0,0,0,0,
62,62,181,181,181,181,181,181,181,0,0,0,0,0,0,0
</chunk>
   <chunk x="80" y="-32" width="16" height="16">
0,0,0,0,0,0,0,0,0,0,0,0,0,140,141,141,
0,0,0,0,0,0,0,0,0,0,0,0,0,140,141,141,
0,0,0,0,0,0,0,0,0,0,0,0,0,140,141,141,
0,0,0,0,0,0,0,0,0,0,0,0,0,140,141,141,
0,0,0,0,0,0,0,0,0,0,0,0,0,140,141,141,
0,0,0,0,0,0,0,0,0,0,0,0,0,140,141,141,
0,0,0,0,0,0,0,0,0,0,0,0,0,140,141,141,
0,0,0,0,0,0,0,0,0,0,0,0,0,140,141,141,
0,0,0,0,0,0,0,0,0,0,0,0,0,140,141,141,
0,0,0,0,0,0,0,0,0,0,0,0,0,140,141,141,
0,0,0,0,0,0,0,0,0,0,0,0,0,140,141,141,
0,0,0,0,0,0,0,0,0,0,0,0,0,140,141,141,
0,0,0,0,0,0,0,0,0,0,0,0,0,140,141,141,
0,0,0,0,0,0,0,0,0,0,0,0,0,140,141,141,
0,0,0,0,0,0,0,0,0,0,0,0,0,140,141,141,
0,0,0,0,0,0,0,0,0,0,0,0,0,140,141,141
</chunk>
   <chunk x="96" y="-32" width="16" height="16">
142,0,0,0,0,140,141,141,141,141,141,141,141,141,141,141,
142,0,0,0,0,140,141,141,141,141,141,141,141,141,141,141,
142,0,0,0,0,140,141,141,144,153,153,153,153,153,153,153,
142,0,0,0,0,140,141,141,142,0,0,0,0,0,0,0,
142,0,0,0,0,140,141,141,142,0,0,0,0,0,0,0,
142,0,0,0,0,140,141,141,142,0,0,0,0,0,0,0,
142,0,0,0,0,140,141,141,142,0,0,0,0,0,0,0,
142,0,0,0,0,140,141,141,132,129,129,129,129,129,129,129,
142,0,0,0,0,140,141,141,141,141,141,141,141,141,141,141,
142,0,0,0,0,140,141,141,141,141,141,141,141,141,141,141,
142,0,0,0,0,0,153,153,153,153,153,153,153,153,153,153,
142,0,0,0,0,0,0,0,0,0,0,0,0,0,0,0,
142,0,0,0,0,0,0,0,0,0,0,0,0,0,0,0,
142,0,0,0,0,0,0,0,0,0,0,0,0,0,0,0,
142,0,0,0,0,0,0,0,0,0,0,0,0,0,0,0,
132,129,129,129,129,129,129,129,129,129,129,129,129,129,129,129
</chunk>
   <chunk x="112" y="-32" width="16" height="16">
142,0,0,0,0,140,141,141,142,0,0,0,0,140,141,141,
142,0,0,0,0,140,141,141,142,0,0,0,0,140,141,141,
154,0,0,0,0,140,141,141,142,0,0,0,0,0,153,153,
0,0,0,0,0,140,141,141,142,0,0,0,0,0,0,0,
0,0,0,0,0,140,141,141,142,0,0,0,0,0,0,0,
0,0,0,0,0,140,141,141,142,0,0,0,0,0,0,0,
0,0,0,0,0,140,141,141,142,0,0,0,0,0,0,0,
129,129,129,129,129,131,141,141,132,129,129,129,129,129,129,129,
141,141,141,141,141,141,141,141,141,141,141,141,141,141,141,141,
141,141,141,141,141,141,141,141,141,141,141,141,141,141,141,141,
153,153,153,153,153,153,153,153,153,153,153,153,153,153,153,153,
0,0,0,0,0,0,0,0,0,0,0,0,0,0,0,0,
0,0,0,0,0,0,0,0,0,0,0,0,0,0,0,0,
0,0,0,0,0,0,0,0,0,0,0,0,0,0,0,0,
0,0,0,0,0,0,0,0,0,0,0,0,0,0,0,0,
129,129,129,129,129,129,129,129,129,129,129,129,129,129,129,129
</chunk>
   <chunk x="128" y="-32" width="16" height="16">
141,141,141,141,141,141,141,141,141,141,141,141,141,141,141,141,
141,141,141,141,141,141,141,141,141,141,141,141,141,141,141,141,
153,153,153,153,153,153,153,153,153,153,153,153,153,153,153,153,
0,0,0,0,0,0,0,0,0,0,0,0,0,0,0,0,
0,0,0,0,0,0,0,0,0,0,0,0,0,0,0,0,
0,0,0,0,0,0,0,0,0,0,0,0,0,0,0,0,
0,0,0,0,0,0,0,0,0,0,0,0,0,0,0,0,
129,129,129,129,129,129,129,129,130,0,0,0,0,128,129,129,
141,141,141,141,141,141,141,141,142,0,0,0,0,140,141,141,
141,141,141,141,141,141,141,141,142,0,0,0,0,140,141,141,
153,153,153,153,153,143,141,141,142,0,0,0,0,140,141,141,
0,0,0,0,0,140,141,141,142,0,0,0,0,140,141,141,
0,0,0,0,0,140,141,141,142,0,0,0,0,140,141,141,
0,0,0,0,0,140,141,141,142,0,0,0,0,140,141,141,
0,0,0,0,0,140,141,141,142,0,0,0,0,140,141,141,
129,129,129,129,129,131,141,141,142,0,0,0,0,140,141,141
</chunk>
   <chunk x="144" y="-32" width="16" height="16">
141,141,141,141,141,141,141,141,142,0,0,0,0,140,141,141,
141,141,141,141,141,141,141,141,142,0,0,0,0,140,141,141,
153,153,153,153,153,143,141,141,142,0,0,0,0,140,141,141,
0,0,0,0,0,140,141,141,142,0,0,0,0,140,141,141,
0,0,0,0,0,140,141,141,142,0,0,0,0,140,141,141,
0,0,0,0,0,140,141,141,142,0,0,0,0,140,141,141,
0,0,0,0,0,140,141,141,142,0,0,0,0,140,141,141,
129,129,129,129,129,131,141,141,142,0,0,0,0,140,141,141,
141,141,141,141,141,141,141,141,142,0,0,0,0,140,141,141,
141,141,141,141,141,141,141,141,142,0,0,0,0,140,141,141,
144,153,153,153,153,143,141,141,142,0,0,0,0,140,141,141,
142,0,0,0,0,140,141,141,142,0,0,0,0,140,141,141,
142,0,0,0,0,140,141,141,142,0,0,0,0,140,141,141,
142,0,0,0,0,140,141,141,142,0,0,0,0,140,141,141,
142,0,0,0,0,140,141,141,142,0,0,0,0,140,141,141,
142,0,0,0,0,140,141,141,132,129,129,129,129,131,141,141
</chunk>
   <chunk x="160" y="-32" width="16" height="16">
141,141,141,141,141,141,141,141,142,0,0,0,0,0,0,0,
141,141,141,141,141,141,141,141,142,0,0,0,0,0,0,0,
144,153,153,153,153,143,141,141,142,0,0,0,0,0,0,0,
142,0,0,0,0,140,141,141,142,0,0,0,0,0,0,0,
142,0,0,0,0,140,141,141,142,0,0,0,0,0,0,0,
142,0,0,0,0,140,141,141,142,0,0,0,0,0,0,0,
142,0,0,0,0,140,141,141,142,0,0,0,0,0,0,0,
142,0,0,0,0,140,141,141,142,0,0,0,0,0,0,0,
142,0,0,0,0,140,141,141,142,0,0,0,0,0,0,0,
142,0,0,0,0,140,141,141,142,0,0,0,0,0,0,0,
142,0,0,0,0,140,141,141,142,0,0,0,0,0,0,0,
142,0,0,0,0,140,141,141,142,0,0,0,0,0,0,0,
142,0,0,0,0,140,141,141,142,0,0,0,0,0,0,0,
142,0,0,0,0,140,141,141,142,0,0,0,0,0,0,0,
142,0,0,0,0,140,141,141,142,0,0,0,0,0,0,0,
142,0,0,0,0,140,141,141,142,0,0,0,0,0,0,0
</chunk>
   <chunk x="-80" y="-16" width="16" height="16">
0,0,0,0,0,0,0,0,0,0,25,15,15,14,15,0,
0,0,0,0,0,0,0,0,0,0,0,13,14,10,11,3,
0,0,0,0,0,0,0,0,0,0,0,25,26,22,23,14,
0,0,0,0,0,0,0,0,0,0,0,0,0,25,14,14,
0,0,0,0,0,0,0,0,0,0,0,0,0,0,13,14,
0,0,0,0,0,0,0,0,0,0,0,0,0,0,13,14,
0,0,0,0,0,0,0,0,0,0,0,0,0,1,10,11,
0,0,0,0,0,0,0,0,0,0,0,0,1,14,22,23,
0,0,0,0,0,0,0,0,0,0,1,2,15,10,11,14,
0,0,0,0,0,0,0,0,0,1,10,11,14,22,23,15,
0,0,0,0,0,0,0,0,1,14,22,23,14,15,0,0,
0,0,0,0,0,0,0,1,14,10,11,14,27,0,0,0,
0,0,0,0,0,0,0,13,14,22,23,27,0,0,0,0,
0,0,0,0,0,0,1,14,15,13,27,0,0,0,0,0,
0,0,0,0,0,0,13,10,11,15,0,0,0,0,0,0,
0,0,0,0,0,0,13,22,23,15,0,0,0,0,0,0
</chunk>
   <chunk x="-64" y="-16" width="16" height="16">
0,0,0,0,0,0,0,0,1,4,14,15,0,0,0,0,
0,0,0,0,0,0,0,1,14,15,14,15,0,0,0,0,
3,0,0,0,1,2,2,15,15,14,14,27,0,0,0,0,
14,2,2,2,15,14,15,14,14,26,27,0,0,0,0,0,
14,14,14,15,14,14,14,26,27,0,0,0,0,0,0,1,
14,14,14,15,14,26,27,0,0,0,0,0,0,0,1,10,
15,14,26,26,27,0,0,0,0,0,0,0,0,1,14,22,
14,27,0,0,0,0,0,0,0,0,0,0,1,14,14,27,
27,0,0,0,0,0,0,0,0,0,0,0,10,11,15,0,
0,0,0,0,0,0,0,0,0,0,0,1,22,23,27,0,
0,0,0,0,0,0,0,0,0,0,1,14,2684354574,15,0,0,
0,0,0,0,0,0,0,0,0,0,13,26,14,27,0,0,
0,0,0,0,0,0,0,0,0,10,11,2684354574,15,0,0,0,
0,0,0,0,0,0,0,0,0,22,23,2684354574,15,0,0,0,
0,0,0,0,0,0,0,0,1,14,26,2684354574,15,0,0,0,
0,0,0,0,0,0,1,2,14,2684354574,2684354574,14,27,0,0,0
</chunk>
   <chunk x="-48" y="-16" width="16" height="16">
0,0,0,0,0,0,0,0,0,0,0,0,0,0,0,25,
0,0,0,0,0,0,0,0,0,0,0,0,0,0,0,0,
0,0,0,0,0,0,0,0,0,0,0,0,0,0,0,0,
1,2,3,0,0,0,0,0,0,2,10,11,2,0,0,0,
14,2684354574,15,7,7,7,7,7,7,13,22,23,15,7,0,0,
11,14,27,0,0,0,0,0,0,13,15,14,14,0,0,0,
23,0,0,0,0,0,0,0,0,0,0,0,0,0,0,0,
0,0,0,0,0,0,0,0,0,0,0,0,0,0,0,0,
0,0,0,0,0,0,0,0,0,0,0,0,0,0,0,0,
0,0,0,0,0,0,0,0,0,0,0,0,0,0,0,0,
0,0,0,0,0,0,0,0,0,0,0,0,0,0,0,0,
0,0,0,0,0,0,0,0,0,0,0,0,0,0,0,0,
0,0,0,0,0,0,0,0,0,0,0,0,0,0,0,0,
0,0,0,0,0,0,0,0,0,0,0,0,0,0,0,0,
0,0,0,0,0,0,0,0,0,0,0,0,0,0,0,0,
0,0,0,0,0,0,0,0,0,1,2,2,2,3,0,0
</chunk>
   <chunk x="-32" y="-16" width="16" height="16">
22,23,14,2,2,2,2,14,10,11,14,10,11,14,14,22,
13,14,14,14,14,14,14,14,22,23,14,22,23,14,14,14,
25,14,14,14,14,14,14,14,15,14,14,14,14,15,14,14,
0,25,26,26,26,26,14,14,14,14,14,14,15,14,10,11,
0,0,0,0,0,0,0,13,10,11,10,11,14,14,22,23,
0,0,0,0,0,0,0,25,22,23,22,23,14,14,14,14,
0,0,0,0,0,0,0,0,25,14,14,14,14,15,15,27,
0,0,0,0,0,0,0,0,0,25,26,26,15,15,27,0,
0,0,0,0,0,0,0,0,0,0,0,0,0,0,0,0,
0,0,0,0,0,0,0,0,0,0,0,0,0,0,0,0,
0,0,0,0,0,0,0,0,0,0,0,0,0,0,0,0,
0,0,0,0,0,0,0,0,0,0,0,0,0,0,0,0,
0,0,0,0,0,0,0,0,0,0,0,0,0,0,0,0,
0,0,0,0,0,0,0,0,0,0,0,0,0,0,0,0,
0,0,0,0,0,0,0,0,0,0,0,0,0,0,0,0,
0,0,0,0,0,0,0,0,0,0,0,0,0,0,0,0
</chunk>
   <chunk x="-16" y="-16" width="16" height="16">
23,3,0,31,7,7,31,0,13,14,10,11,14,15,0,0,
14,15,31,43,0,0,43,31,10,11,22,23,14,15,0,0,
14,15,55,43,0,0,43,55,22,23,15,14,10,11,0,0,
14,27,0,55,7,7,55,0,25,15,26,26,22,23,0,0,
15,0,0,0,0,0,0,0,0,0,0,0,0,0,0,0,
27,0,0,0,0,0,0,0,0,0,0,0,0,0,0,0,
0,0,0,0,0,0,0,0,0,0,0,0,0,0,0,0,
0,0,0,0,0,0,0,0,0,0,0,0,0,0,0,0,
0,0,0,0,0,0,0,0,0,0,0,0,0,0,0,0,
0,0,0,0,0,0,0,0,0,0,0,0,0,0,0,0,
0,0,0,0,0,0,0,0,0,0,0,0,0,0,0,0,
0,0,0,0,0,0,0,0,0,0,0,0,0,0,0,0,
0,0,0,0,0,0,0,0,0,0,0,0,0,0,0,0,
0,0,0,0,0,0,0,0,0,0,0,0,0,0,0,0,
0,0,0,0,0,0,0,0,0,0,0,0,0,0,0,0,
0,0,0,0,0,0,0,0,0,0,0,0,0,0,0,0
</chunk>
   <chunk x="32" y="-16" width="16" height="16">
0,0,0,0,0,0,181,181,181,181,181,181,181,181,172,173,
0,0,0,0,0,0,0,181,181,182,182,181,181,181,184,185,
0,0,0,0,0,0,0,0,181,182,182,182,182,181,181,181,
0,0,0,0,0,0,0,170,181,182,182,172,173,182,182,182,
0,0,0,0,0,0,170,181,182,172,173,184,185,172,173,182,
0,0,0,0,0,0,181,172,173,184,185,182,182,184,185,182,
0,0,0,0,0,0,181,184,185,182,182,182,182,182,182,172,
0,0,0,0,0,0,181,181,182,182,182,182,182,182,182,184,
0,0,0,0,0,0,0,181,182,182,182,182,172,173,182,182,
0,0,0,0,0,0,0,181,181,182,172,173,184,185,182,172,
0,0,0,0,0,0,0,0,181,181,184,185,182,182,182,184,
0,0,0,0,0,0,0,0,0,181,181,182,172,173,182,182,
0,0,0,0,0,0,0,0,0,0,181,181,184,185,182,182,
0,0,0,0,0,0,0,0,0,0,0,181,181,182,172,173,
0,0,0,0,0,0,0,0,0,0,0,0,181,181,184,185,
0,0,0,0,0,0,0,0,0,0,0,0,0,181,181,181
</chunk>
   <chunk x="48" y="-16" width="16" height="16">
181,181,181,181,172,173,181,181,0,0,0,0,0,0,0,0,
181,181,181,182,184,185,181,0,0,0,0,0,0,0,0,0,
181,182,182,172,173,181,0,0,0,0,0,0,0,0,0,0,
182,182,182,184,185,181,170,0,0,0,0,0,0,0,0,0,
172,173,182,182,182,182,5,3,0,0,0,0,0,0,0,0,
184,185,182,182,182,182,182,15,0,0,0,0,0,0,0,0,
173,172,173,182,182,182,182,15,0,0,0,0,0,0,0,0,
185,184,185,182,182,182,17,27,0,0,0,0,0,0,0,0,
182,182,182,182,172,173,181,0,0,0,0,0,0,0,0,0,
173,182,182,182,184,185,181,0,0,0,0,0,0,0,0,0,
185,182,182,182,181,181,0,0,0,0,0,0,0,0,0,0,
182,182,182,17,181,0,0,0,0,0,0,0,0,0,0,0,
172,173,181,181,0,0,0,0,0,0,0,0,0,0,0,0,
184,185,181,0,0,0,0,0,0,0,0,0,0,0,0,0,
181,181,0,0,0,0,0,0,0,0,0,0,0,0,0,0,
181,0,0,0,0,0,0,0,0,0,0,0,0,0,0,0
</chunk>
   <chunk x="80" y="-16" width="16" height="16">
0,0,0,0,0,0,0,0,0,0,0,0,0,140,141,141,
0,0,0,0,0,0,0,0,0,0,0,0,0,140,141,141,
0,0,0,0,0,0,0,0,0,0,0,0,0,152,153,153,
0,0,0,0,0,0,0,0,0,0,0,0,0,0,0,0,
0,0,0,0,0,0,0,0,0,0,0,0,0,0,0,0,
0,0,0,0,0,0,0,0,0,0,0,0,0,0,0,0,
0,0,0,0,0,0,0,0,0,0,0,0,0,0,0,0,
0,0,0,0,0,0,0,0,0,0,0,0,0,128,129,129,
0,0,0,0,0,0,0,0,0,0,0,0,0,140,141,141,
0,0,0,0,0,0,0,0,0,0,0,0,0,140,141,141,
0,0,0,0,0,0,0,0,0,0,0,0,0,140,141,141,
0,0,0,0,0,0,0,0,0,0,0,0,0,140,141,141,
0,0,0,0,0,0,0,0,0,0,0,0,0,140,141,141,
0,0,0,0,0,0,0,0,0,0,0,0,0,140,141,141,
0,0,0,0,0,0,0,0,0,0,0,0,0,140,141,141,
0,0,0,0,0,0,0,0,0,0,0,0,0,140,141,141
</chunk>
   <chunk x="96" y="-16" width="16" height="16">
141,141,141,141,141,141,141,141,141,141,141,141,141,141,141,141,
141,141,141,141,141,141,141,141,141,141,141,141,141,141,141,141,
153,153,153,153,153,153,153,153,153,153,153,153,153,153,153,153,
0,0,0,0,0,0,0,0,0,0,0,0,0,0,0,0,
0,0,0,0,0,0,0,0,0,0,0,0,0,0,0,0,
0,0,0,0,0,0,0,0,0,0,0,0,0,0,0,0,
0,0,0,0,0,0,0,0,0,0,0,0,0,0,0,0,
130,0,0,0,0,128,129,129,130,0,0,0,0,128,129,129,
142,0,0,0,0,140,141,141,142,0,0,0,0,140,141,141,
142,0,0,0,0,140,141,141,142,0,0,0,0,140,141,141,
142,0,0,0,0,140,141,141,142,0,0,0,0,140,141,141,
142,0,0,0,0,140,141,141,142,0,0,0,0,140,141,141,
142,0,0,0,0,140,141,141,142,0,0,0,0,140,141,141,
142,0,0,0,0,140,141,141,142,0,0,0,0,140,141,141,
142,0,0,0,0,140,141,141,142,0,0,0,0,140,141,141,
142,0,0,0,0,140,141,141,132,129,129,129,129,131,141,141
</chunk>
   <chunk x="112" y="-16" width="16" height="16">
141,141,141,141,141,141,141,141,141,141,141,141,141,141,141,141,
141,141,141,141,141,141,141,141,141,141,141,141,141,141,141,141,
153,153,153,153,153,143,141,141,144,153,153,153,153,143,141,141,
0,0,0,0,0,140,141,141,142,0,0,0,0,140,141,141,
0,0,0,0,0,140,141,141,142,0,0,0,0,140,141,141,
0,0,0,0,0,140,141,141,142,0,0,0,0,140,141,141,
0,0,0,0,0,140,141,141,142,0,0,0,0,140,141,141,
130,0,0,0,0,140,141,141,142,0,0,0,0,140,141,141,
142,0,0,0,0,140,141,141,142,0,0,0,0,140,141,141,
142,0,0,0,0,140,141,141,142,0,0,0,0,140,141,141,
142,0,0,0,0,140,141,141,142,0,0,0,0,152,153,153,
142,0,0,0,0,140,141,141,142,0,0,0,0,0,0,0,
142,0,0,0,0,140,141,141,142,0,0,0,0,0,0,0,
142,0,0,0,0,140,141,141,142,0,0,0,0,0,0,0,
142,0,0,0,0,140,141,141,142,0,0,0,0,0,0,0,
132,129,129,129,129,131,141,141,132,129,129,129,129,129,129,129
</chunk>
   <chunk x="128" y="-16" width="16" height="16">
141,141,141,141,141,141,141,141,142,0,0,0,0,140,141,141,
141,141,141,141,141,141,141,141,142,0,0,0,0,140,141,141,
144,153,153,153,153,153,153,153,154,0,0,0,0,140,141,141,
142,0,0,0,0,0,0,0,0,0,0,0,0,140,141,141,
142,0,0,0,0,0,0,0,0,0,0,0,0,140,141,141,
142,0,0,0,0,0,0,0,0,0,0,0,0,140,141,141,
142,0,0,0,0,0,0,0,0,0,0,0,0,140,141,141,
132,129,129,129,129,129,129,129,130,0,0,0,0,140,141,141,
141,141,141,141,141,141,141,141,142,0,0,0,0,140,141,141,
141,141,141,141,141,141,141,141,142,0,0,0,0,140,141,141,
153,153,153,153,153,143,141,141,142,0,0,0,0,152,153,153,
0,0,0,0,0,140,141,141,142,0,0,0,0,0,0,0,
0,0,0,0,0,140,141,141,142,0,0,0,0,0,0,0,
0,0,0,0,0,140,141,141,142,0,0,0,0,0,0,0,
0,0,0,0,0,140,141,141,142,0,0,0,0,0,0,0,
130,0,0,0,0,140,141,141,142,0,0,0,0,128,129,129
</chunk>
   <chunk x="144" y="-16" width="16" height="16">
142,0,0,0,0,140,141,141,141,141,141,141,141,141,141,141,
142,0,0,0,0,140,141,141,141,141,141,141,141,141,141,141,
142,0,0,0,0,140,141,141,144,153,153,153,153,153,153,153,
142,0,0,0,0,140,141,141,142,0,0,0,0,0,0,0,
142,0,0,0,0,140,141,141,142,0,0,0,0,0,0,0,
142,0,0,0,0,140,141,141,142,0,0,0,0,0,0,0,
142,0,0,0,0,140,141,141,142,0,0,0,0,0,0,0,
142,0,0,0,0,140,141,141,142,0,0,0,0,128,129,129,
142,0,0,0,0,140,141,141,142,0,0,0,0,140,141,141,
142,0,0,0,0,140,141,141,142,0,0,0,0,140,141,141,
154,0,0,0,0,140,141,141,142,0,0,0,0,140,141,141,
0,0,0,0,0,140,141,141,142,0,0,0,0,140,141,141,
0,0,0,0,0,140,141,141,142,0,0,0,0,140,141,141,
0,0,0,0,0,140,141,141,142,0,0,0,0,140,141,141,
0,0,0,0,0,140,141,141,142,0,0,0,0,140,141,141,
129,129,129,129,129,131,141,141,132,129,129,129,129,131,141,141
</chunk>
   <chunk x="160" y="-16" width="16" height="16">
142,0,0,0,0,140,141,141,142,0,0,0,0,0,0,0,
142,0,0,0,0,140,141,141,142,0,0,0,0,0,0,0,
154,0,0,0,0,152,153,153,154,0,0,0,0,0,0,0,
0,0,0,0,0,0,0,0,0,0,0,0,0,0,0,0,
0,0,0,0,0,0,0,0,0,0,0,0,0,0,0,0,
0,0,0,0,0,0,0,0,0,0,0,0,0,0,0,0,
0,0,0,0,0,0,0,0,0,0,0,0,0,0,0,0,
130,0,0,0,0,128,129,129,130,0,0,0,0,0,0,0,
142,0,0,0,0,140,141,141,142,0,0,0,0,0,0,0,
142,0,0,0,0,140,141,141,142,0,0,0,0,0,0,0,
142,0,0,0,0,140,141,141,142,0,0,0,0,0,0,0,
142,0,0,0,0,140,141,141,142,0,0,0,0,0,0,0,
142,0,0,0,0,140,141,141,142,0,0,0,0,0,0,0,
142,0,0,0,0,140,141,141,142,0,0,0,0,0,0,0,
142,0,0,0,0,140,141,141,142,0,0,0,0,0,0,0,
132,129,129,129,129,131,141,141,142,0,0,0,0,0,0,0
</chunk>
   <chunk x="-80" y="0" width="16" height="16">
0,0,0,0,0,0,10,11,13,13,0,0,0,0,0,0,
0,0,0,0,0,0,22,23,14,13,7,7,7,7,7,7,
0,0,0,0,0,0,25,14,15,13,3,0,0,0,0,0,
0,0,0,0,0,0,0,13,13,13,15,3,0,0,0,0,
0,0,0,0,0,0,0,25,15,14,14,14,3,0,0,0,
0,0,0,0,0,0,0,0,25,14,10,11,14,3,0,0,
0,0,0,0,0,0,0,0,0,13,22,23,10,11,3,0,
0,0,0,0,0,0,0,0,0,25,14,14,22,23,15,0,
0,0,0,0,0,0,0,0,0,0,25,26,14,15,14,2,
0,0,0,0,0,0,0,0,0,0,0,0,25,26,14,10,
0,0,0,0,0,0,0,0,0,0,0,0,37,0,25,22,
0,0,0,0,0,0,0,0,0,0,0,0,0,0,0,25,
0,0,0,0,0,0,0,0,0,0,0,0,0,0,0,0,
0,0,0,0,0,0,0,0,0,0,0,0,0,0,0,0,
0,0,0,0,0,0,0,0,0,0,0,0,0,0,0,0,
0,0,0,0,0,0,0,0,0,0,0,0,0,0,0,0
</chunk>
   <chunk x="-64" y="0" width="16" height="16">
0,1,2,2,2,2,10,11,2684354574,14,26,27,0,0,0,0,
7,13,10,11,2684354574,2684354574,22,23,14,27,0,0,0,0,0,0,
0,25,22,23,14,26,26,26,27,0,0,0,0,0,0,0,
0,0,0,0,0,0,0,0,0,0,0,0,0,0,0,0,
0,0,0,0,0,0,0,0,0,0,0,0,0,0,0,0,
0,0,0,0,0,0,0,0,0,0,0,0,0,0,0,0,
0,0,0,0,0,0,0,0,0,0,0,0,0,0,0,0,
0,0,0,0,0,0,0,0,0,0,0,0,0,0,0,0,
3,0,0,0,0,0,0,0,0,0,0,1,3,0,0,0,
11,2,15,2,3,0,0,0,0,1,2,14,15,0,0,1,
23,14,14,10,11,2,2,15,2,14,14,14,15,0,0,13,
26,15,15,22,23,14,15,14,10,11,14,14,14,2,2,4,
0,25,26,26,14,14,15,14,22,23,14,14,14,14,10,11,
0,0,0,0,0,0,25,26,14,14,14,10,11,14,22,23,
0,0,0,0,0,0,0,0,25,26,14,22,23,14,14,15,
0,0,0,0,0,0,0,0,0,0,15,14,10,11,14,14
</chunk>
   <chunk x="-48" y="0" width="16" height="16">
0,0,0,0,0,0,0,0,2147483651,14,15,2147483662,10,11,2,2,
0,0,0,0,0,0,0,0,0,25,26,26,22,23,2147483662,14,
0,0,0,0,0,0,0,0,0,6,0,0,25,26,14,14,
0,0,0,0,0,0,0,0,0,6,0,0,0,0,25,15,
0,0,0,0,0,0,0,1,2,2,3,0,0,0,0,25,
0,0,0,0,0,1,2,4,14,10,11,3,0,0,0,0,
0,0,0,1,2,10,11,14,14,22,23,27,0,0,0,0,
0,1,2,15,14,22,23,14,14,14,27,0,0,0,1,10,
1,14,14,10,11,14,15,14,14,27,31,31,31,1,14,22,
10,11,15,22,23,14,14,14,27,7,55,55,55,25,26,26,
22,23,14,14,10,11,14,15,0,0,0,0,0,0,0,0,
14,14,14,14,22,23,14,27,0,0,0,0,0,0,0,0,
14,14,14,10,11,14,27,0,0,0,0,0,0,0,0,0,
14,14,14,22,23,15,0,0,0,0,0,0,0,0,0,0,
15,14,14,14,14,27,0,0,0,0,0,0,0,0,0,0,
15,14,14,14,15,0,0,0,0,0,0,0,0,0,0,0
</chunk>
   <chunk x="-32" y="0" width="16" height="16">
3,0,0,0,0,0,0,0,0,0,0,0,0,0,0,0,
14,3,0,0,0,0,0,0,0,0,0,0,0,0,0,0,
14,15,0,0,0,0,0,0,0,0,0,0,0,0,0,0,
10,11,3,0,0,0,0,0,0,0,0,0,0,0,0,0,
22,23,14,3,0,0,0,0,0,0,0,0,0,0,0,0,
13,2147483662,15,27,0,0,0,0,0,0,0,0,0,0,0,0,
13,14,27,0,0,0,0,0,0,0,0,0,0,0,0,0,
11,15,0,0,0,0,0,0,0,0,0,0,0,0,0,0,
23,27,0,0,0,0,0,0,0,0,0,0,0,0,0,0,
27,0,0,0,0,0,0,0,0,0,0,0,0,0,0,0,
0,0,0,0,0,0,0,0,0,0,0,0,0,0,0,0,
0,0,0,0,0,0,0,0,0,0,0,0,0,0,0,0,
0,0,0,0,0,0,0,0,0,0,0,0,0,0,0,0,
0,0,0,0,0,0,0,0,0,0,0,0,0,0,0,0,
0,0,0,0,0,0,0,0,0,0,0,0,0,0,0,0,
0,0,0,0,0,0,0,0,0,0,0,0,0,0,0,0
</chunk>
   <chunk x="-16" y="0" width="16" height="16">
0,0,0,0,0,0,0,0,0,0,0,0,0,0,0,0,
0,0,0,0,0,0,0,0,0,0,0,0,0,0,0,0,
0,0,0,0,0,0,0,0,0,0,0,0,0,0,0,0,
0,0,0,0,0,0,0,0,0,0,0,0,0,0,0,0,
0,0,0,0,0,0,0,0,0,0,0,0,0,0,0,0,
0,0,0,0,0,0,0,0,0,0,0,0,0,0,0,0,
0,0,0,0,0,0,0,0,0,0,0,0,0,0,0,0,
0,0,0,0,0,0,0,0,0,0,0,0,0,0,0,0,
0,0,0,0,0,0,0,0,0,0,0,0,0,0,1,3,
0,0,0,0,0,0,0,0,0,0,0,0,0,1,14,15,
0,0,0,0,0,0,0,0,0,0,0,0,0,13,2147483662,27,
0,0,0,0,0,0,0,0,0,0,0,0,1,10,11,2147483662,
0,0,0,0,0,0,0,0,0,0,0,0,13,22,23,26,
0,0,0,0,0,0,0,0,0,0,0,0,25,27,10,11,
0,0,0,0,0,0,0,0,0,0,0,0,0,25,22,23,
0,0,0,0,0,0,0,0,0,0,0,0,0,0,25,14
</chunk>
   <chunk x="0" y="0" width="16" height="16">
0,0,0,0,0,0,0,0,0,0,0,0,0,0,0,0,
0,0,0,0,0,0,0,0,0,0,0,0,0,0,0,0,
0,0,0,0,0,0,0,0,0,0,0,0,0,0,0,0,
0,0,0,0,0,0,0,0,0,0,0,0,0,0,0,0,
0,0,0,0,0,0,0,0,0,0,0,0,0,0,0,0,
0,0,0,0,0,0,0,0,0,0,0,0,0,0,0,0,
0,0,0,0,0,0,0,0,0,0,0,0,0,0,0,0,
0,0,0,0,0,0,0,0,0,0,0,0,0,0,0,0,
0,0,0,0,0,0,0,0,0,0,0,0,0,0,0,0,
0,0,0,0,0,0,0,0,0,0,0,0,0,0,0,0,
3,0,0,0,0,0,0,0,0,0,0,0,0,0,0,0,
15,3,0,0,0,0,0,0,0,0,0,0,0,0,0,0,
2147483662,14,2,3,0,0,0,0,0,1,2,2147483650,3,0,0,0,
2147483662,2147483662,2147483662,14,3,0,0,0,1,10,11,2147483662,14,3,0,0,
2147483662,2147483662,2147483662,2147483662,26,3,0,1,14,22,23,26,26,14,3,0,
2147483662,2147483662,2147483662,2147483662,26,14,2,26,15,27,27,27,10,11,14,2
</chunk>
   <chunk x="16" y="0" width="16" height="16">
0,0,0,0,0,0,0,0,0,0,0,0,0,0,0,0,
0,0,0,0,0,0,0,0,0,0,0,0,0,0,0,0,
0,0,0,0,0,0,0,0,0,0,0,0,0,0,0,0,
0,0,0,0,0,0,0,0,0,0,0,0,0,0,0,0,
0,0,0,0,0,0,0,0,0,0,0,0,0,0,0,0,
0,0,0,0,0,0,0,0,0,0,0,0,0,0,0,0,
0,0,0,0,0,0,0,0,0,0,0,0,0,0,0,0,
0,0,0,0,0,0,0,0,0,0,0,0,0,0,0,0,
0,0,0,0,0,0,1,3,0,0,0,0,0,0,0,0,
0,0,0,0,0,0,13,14,3,0,0,0,0,0,0,0,
0,0,0,0,0,27,27,27,15,0,0,0,0,0,0,0,
0,0,0,0,1,27,14,14,27,3,0,0,0,0,0,0,
0,0,1,2,10,11,27,10,11,27,0,0,0,0,0,0,
0,1,10,11,22,23,27,22,23,27,0,0,0,0,0,0,
1,14,22,23,27,15,14,14,27,0,0,0,0,0,0,0,
14,26,14,15,27,15,14,27,0,0,0,0,0,0,0,0
</chunk>
   <chunk x="32" y="0" width="16" height="16">
0,0,0,0,0,0,0,0,0,0,0,0,0,0,181,181,
0,0,0,0,0,0,0,0,0,0,0,0,0,0,0,0,
0,0,0,0,0,0,0,0,0,0,0,0,0,0,0,0,
0,0,0,0,0,0,0,0,0,0,0,0,0,0,0,0,
0,0,0,0,0,0,0,0,0,0,0,0,0,0,0,0,
0,0,0,0,0,0,0,0,0,0,0,0,0,0,0,0,
0,0,0,0,0,0,0,0,0,0,0,0,0,0,0,0,
0,0,0,0,0,0,0,0,0,0,0,0,0,0,0,0,
0,0,0,0,0,0,0,0,0,0,0,0,0,0,0,0,
0,0,0,0,0,0,0,0,0,0,0,0,0,0,0,0,
0,0,0,0,0,0,0,0,0,0,0,0,0,0,0,0,
0,0,0,0,0,0,0,0,0,0,0,0,0,0,0,0,
0,0,0,0,0,0,0,0,0,0,0,0,0,0,0,0,
0,0,0,0,0,0,0,0,0,0,0,0,0,0,0,0,
0,0,0,0,0,0,0,0,0,0,0,0,0,0,0,0,
0,0,0,0,0,0,0,0,0,0,0,0,0,0,0,0
</chunk>
   <chunk x="80" y="0" width="16" height="16">
0,0,0,0,0,0,0,0,0,0,0,0,0,140,141,141,
0,0,0,0,0,0,0,0,0,0,0,0,0,140,141,141,
0,0,0,0,0,0,0,0,0,0,0,0,0,140,141,141,
0,0,0,0,0,0,0,0,0,0,0,0,0,140,141,141,
0,0,0,0,0,0,0,0,0,0,0,0,0,140,141,141,
0,0,0,0,0,0,0,0,0,0,0,0,0,140,141,141,
0,0,0,0,0,0,0,0,0,0,0,0,0,140,141,141,
0,0,0,0,0,0,0,0,0,0,0,0,0,140,141,141,
0,0,0,0,0,0,0,0,0,0,0,0,0,140,141,141,
0,0,0,0,0,0,0,0,0,0,0,0,0,140,141,141,
0,0,0,0,0,0,0,0,0,0,0,0,0,140,141,141,
0,0,0,0,0,0,0,0,0,0,0,0,0,140,141,141,
0,0,0,0,0,0,0,0,0,0,0,0,0,140,141,141,
0,0,0,0,0,0,0,0,0,0,0,0,0,140,141,141,
0,0,0,0,0,0,0,0,0,0,0,0,0,140,141,141,
0,0,0,0,0,0,0,0,0,0,0,0,0,140,141,141
</chunk>
   <chunk x="96" y="0" width="16" height="16">
142,0,0,0,0,140,141,141,141,141,141,141,141,141,141,141,
142,0,0,0,0,140,141,141,141,141,141,141,141,141,141,141,
142,0,0,0,0,152,153,153,153,153,153,153,153,153,153,153,
142,0,0,0,0,0,0,0,0,0,0,0,0,0,0,0,
142,0,0,0,0,0,0,0,0,0,0,0,0,0,0,0,
142,0,0,0,0,0,0,0,0,0,0,0,0,0,0,0,
142,0,0,0,0,0,0,0,0,0,0,0,0,0,0,0,
132,129,129,129,129,129,129,129,129,129,129,129,129,129,129,129,
141,141,141,141,141,141,141,141,141,141,141,141,141,141,141,141,
141,141,141,141,141,141,141,141,141,141,141,141,141,141,141,141,
144,153,153,153,153,153,153,153,153,153,153,153,153,153,153,153,
142,0,0,0,0,0,0,0,0,0,0,0,0,0,0,0,
142,0,0,0,0,0,0,0,0,0,0,0,0,0,0,0,
142,0,0,0,0,0,0,0,0,0,0,0,0,0,0,0,
142,0,0,0,0,0,0,0,0,0,0,0,0,0,0,0,
132,129,129,129,129,129,129,129,129,129,129,129,129,129,129,129
</chunk>
   <chunk x="112" y="0" width="16" height="16">
141,141,141,141,141,141,141,141,141,141,141,141,141,141,141,141,
141,141,141,141,141,141,141,141,141,141,141,141,141,141,141,141,
153,153,153,153,153,153,153,153,153,153,153,153,153,143,141,141,
0,0,0,0,0,0,0,0,0,0,0,0,0,140,141,141,
0,0,0,0,0,0,0,0,0,0,0,0,0,140,141,141,
0,0,0,0,0,0,0,0,0,0,0,0,0,140,141,141,
0,0,0,0,0,0,0,0,0,0,0,0,0,140,141,141,
129,129,129,129,129,129,129,129,130,0,0,0,0,140,141,141,
141,141,141,141,141,141,141,141,142,0,0,0,0,140,141,141,
141,141,141,141,141,141,141,141,142,0,0,0,0,140,141,141,
153,153,153,153,153,153,153,153,154,0,0,0,0,152,153,153,
0,0,0,0,0,0,0,0,0,0,0,0,0,0,0,0,
0,0,0,0,0,0,0,0,0,0,0,0,0,0,0,0,
0,0,0,0,0,0,0,0,0,0,0,0,0,0,0,0,
0,0,0,0,0,0,0,0,0,0,0,0,0,0,0,0,
129,129,129,129,129,129,129,129,129,129,129,129,129,129,129,129
</chunk>
   <chunk x="128" y="0" width="16" height="16">
142,0,0,0,0,140,141,141,142,0,0,0,0,140,141,141,
142,0,0,0,0,140,141,141,142,0,0,0,0,140,141,141,
142,0,0,0,0,152,153,153,154,0,0,0,0,140,141,141,
142,0,0,0,0,0,0,0,0,0,0,0,0,140,141,141,
142,0,0,0,0,0,0,0,0,0,0,0,0,140,141,141,
142,0,0,0,0,0,0,0,0,0,0,0,0,140,141,141,
142,0,0,0,0,0,0,0,0,0,0,0,0,140,141,141,
132,129,129,129,129,129,129,129,130,0,0,0,0,140,141,141,
141,141,141,141,141,141,141,141,142,0,0,0,0,140,141,141,
141,141,141,141,141,141,141,141,142,0,0,0,0,140,141,141,
153,153,153,153,153,143,141,141,142,0,0,0,0,140,141,141,
0,0,0,0,0,140,141,141,142,0,0,0,0,140,141,141,
0,0,0,0,0,140,141,141,142,0,0,0,0,140,141,141,
0,0,0,0,0,140,141,141,142,0,0,0,0,140,141,141,
0,0,0,0,0,140,141,141,142,0,0,0,0,140,141,141,
129,129,129,129,129,131,141,141,132,129,129,129,129,131,141,141
</chunk>
   <chunk x="144" y="0" width="16" height="16">
141,141,141,141,141,141,141,141,141,141,141,141,141,141,141,141,
141,141,141,141,141,141,141,141,141,141,141,141,141,141,141,141,
144,129,129,129,129,129,129,129,129,129,129,129,129,143,141,141,
142,0,0,0,0,0,0,0,0,0,0,0,0,140,141,141,
142,0,0,0,0,0,0,0,0,0,0,0,0,140,141,141,
142,0,0,0,0,0,0,0,0,0,0,0,0,140,141,141,
142,0,0,0,0,0,0,0,0,0,0,0,0,140,141,141,
142,0,0,0,0,128,129,129,130,0,0,0,0,140,141,141,
142,0,0,0,0,140,141,141,142,0,0,0,0,140,141,141,
142,0,0,0,0,140,141,141,142,0,0,0,0,140,141,141,
142,0,0,0,0,140,141,141,142,0,0,0,0,152,153,153,
142,0,0,0,0,140,141,141,142,0,0,0,0,0,0,0,
142,0,0,0,0,140,141,141,142,0,0,0,0,0,0,0,
142,0,0,0,0,140,141,141,142,0,0,0,0,0,0,0,
142,0,0,0,0,140,141,141,142,0,0,0,0,0,0,0,
132,129,129,129,129,131,141,141,132,129,129,129,129,129,129,129
</chunk>
   <chunk x="160" y="0" width="16" height="16">
141,141,141,141,141,141,141,141,142,0,0,0,0,0,0,0,
141,141,141,141,141,141,141,141,142,0,0,0,0,0,0,0,
144,153,153,153,153,153,153,153,154,0,0,0,0,0,0,0,
142,0,0,0,0,0,0,0,0,0,0,0,0,0,0,0,
142,0,0,0,0,0,0,0,0,0,0,0,0,0,0,0,
142,0,0,0,0,0,0,0,0,0,0,0,0,0,0,0,
142,0,0,0,0,0,0,0,0,0,0,0,0,0,0,0,
142,0,0,0,0,128,129,129,130,0,0,0,0,0,0,0,
142,0,0,0,0,140,141,141,142,0,0,0,0,0,0,0,
142,0,0,0,0,140,141,141,142,0,0,0,0,0,0,0,
154,0,0,0,0,140,141,141,142,0,0,0,0,0,0,0,
0,0,0,0,0,140,141,141,142,0,0,0,0,0,0,0,
0,0,0,0,0,140,141,141,142,0,0,0,0,0,0,0,
0,0,0,0,0,140,141,141,142,0,0,0,0,0,0,0,
0,0,0,0,0,140,141,141,142,0,0,0,0,0,0,0,
129,129,129,129,129,131,141,141,142,0,0,0,0,0,0,0
</chunk>
   <chunk x="-64" y="16" width="16" height="16">
0,0,0,0,0,0,0,0,0,0,25,14,22,23,14,14,
0,0,0,0,0,0,0,0,0,0,0,25,26,26,26,26,
0,0,0,0,0,0,0,0,0,0,0,0,0,0,0,0,
0,0,0,0,0,0,0,0,0,0,0,0,0,0,0,0,
0,0,0,0,0,0,0,0,0,0,0,0,0,0,0,0,
0,0,0,0,0,0,0,0,0,0,0,0,0,0,0,0,
0,0,0,0,0,0,0,0,0,0,0,0,0,0,0,0,
0,0,0,0,0,0,0,0,0,0,0,0,0,0,0,0,
0,0,0,0,0,0,0,0,0,0,0,0,0,0,0,0,
0,0,0,0,0,0,0,0,0,0,0,0,0,0,0,0,
0,0,0,0,0,0,0,0,0,0,0,0,0,0,0,0,
0,0,0,0,0,0,0,0,0,0,0,0,0,0,0,0,
0,0,0,0,0,0,0,0,0,0,0,0,0,0,0,0,
0,0,0,0,0,0,0,0,0,0,0,0,0,0,0,0,
0,0,0,0,0,0,0,0,0,0,0,0,0,0,0,0,
0,0,0,0,0,0,0,0,0,0,0,0,0,0,0,0
</chunk>
   <chunk x="-48" y="16" width="16" height="16">
14,14,14,14,14,3,0,0,0,0,0,0,0,0,0,0,
26,14,14,27,0,0,0,0,0,0,0,0,0,0,0,0,
0,25,27,0,0,0,0,0,0,0,0,0,0,0,0,0,
0,0,0,0,0,0,0,0,0,0,0,0,0,0,0,0,
0,0,0,0,0,0,0,0,0,0,0,0,0,0,0,0,
0,0,0,0,0,0,0,0,0,0,0,0,0,0,0,0,
0,0,0,0,0,0,0,0,0,0,0,0,0,0,0,0,
0,0,0,0,0,0,0,0,0,0,0,0,0,0,0,0,
0,0,0,0,0,0,0,0,0,0,0,0,0,0,0,0,
0,0,0,0,0,0,0,0,0,0,0,0,0,0,0,0,
0,0,0,0,0,0,0,0,0,0,0,0,0,0,0,0,
0,0,0,0,0,0,0,0,0,0,0,0,0,0,0,0,
0,0,0,0,0,0,0,0,0,0,0,0,0,0,0,0,
0,0,0,0,0,0,0,0,0,0,0,0,0,0,0,0,
0,0,0,0,0,0,0,0,0,0,0,0,0,0,0,0,
0,0,0,0,0,0,0,0,0,0,0,0,0,0,0,0
</chunk>
   <chunk x="-16" y="16" width="16" height="16">
0,0,0,0,0,0,0,0,0,0,0,0,0,0,0,25,
0,0,0,0,0,0,0,0,0,0,0,0,0,0,0,0,
0,0,0,0,0,0,0,0,0,0,0,0,0,0,0,0,
0,0,0,0,0,0,0,0,0,0,0,0,0,0,0,0,
0,0,0,0,0,0,0,0,0,0,0,0,0,0,0,0,
0,0,0,0,0,0,0,0,0,0,0,0,0,0,0,0,
0,0,0,0,0,0,0,0,0,0,0,0,0,0,0,0,
0,0,0,0,0,0,0,0,0,0,0,0,0,0,0,0,
0,0,0,0,0,0,0,0,0,0,0,0,0,0,0,0,
0,0,0,0,0,0,0,0,0,0,0,0,0,0,0,0,
0,0,0,0,0,0,0,0,0,0,0,0,0,0,0,0,
0,0,0,0,0,0,0,0,0,0,0,0,0,0,0,0,
0,0,0,0,0,0,0,0,0,0,0,0,0,0,0,0,
0,0,0,0,0,0,0,0,0,0,0,0,0,0,0,0,
0,0,0,0,0,0,0,0,0,0,0,0,0,0,0,0,
0,0,0,0,0,0,0,0,0,0,0,0,0,0,0,0
</chunk>
   <chunk x="0" y="16" width="16" height="16">
14,27,2147483662,10,11,27,10,11,27,27,27,27,22,23,10,11,
25,27,15,22,23,15,22,23,27,2147483662,2147483662,14,10,11,22,23,
0,25,14,2147483662,2147483662,26,26,10,11,14,15,14,22,23,15,27,
0,0,25,26,27,27,26,22,23,27,2147483662,15,27,27,15,14,
0,0,0,0,25,27,14,14,14,15,14,2147483662,27,27,2147483662,14,
0,0,0,0,0,0,25,26,27,27,14,10,11,14,26,27,
0,0,0,0,0,0,0,0,25,14,14,22,23,27,0,0,
0,0,0,0,0,0,0,0,0,25,26,26,27,0,0,0,
0,0,0,0,0,0,0,0,0,0,0,0,0,0,0,0,
0,0,0,0,0,0,0,0,0,0,0,0,0,0,0,0,
0,0,0,0,0,0,0,0,0,0,0,0,0,0,0,0,
0,0,0,0,0,0,0,0,0,0,0,0,0,0,0,0,
0,0,0,0,0,0,0,0,0,0,0,0,0,0,0,0,
0,0,0,0,0,0,0,0,0,0,0,0,0,0,0,0,
0,0,0,0,0,0,0,0,0,0,0,0,0,0,0,0,
0,0,0,0,0,0,0,0,0,0,0,0,0,0,0,0
</chunk>
   <chunk x="16" y="16" width="16" height="16">
14,14,27,14,14,14,27,0,0,0,0,0,0,0,0,0,
26,14,10,11,15,27,0,0,0,0,0,0,0,0,0,0,
14,14,22,23,27,0,0,0,0,0,0,0,0,0,0,0,
14,14,26,15,0,0,0,0,0,0,0,0,0,0,0,0,
26,27,0,0,0,0,0,0,0,0,0,0,0,0,0,0,
0,0,0,0,0,0,0,0,0,0,0,0,0,0,0,0,
0,0,0,0,0,0,0,0,0,0,0,0,0,0,0,0,
0,0,0,0,0,0,0,0,0,0,0,0,0,0,0,0,
0,0,0,0,0,0,0,0,0,0,0,0,0,0,0,0,
0,0,0,0,0,0,0,0,0,0,0,0,0,0,0,0,
0,0,0,0,0,0,0,0,0,0,0,0,0,0,0,0,
0,0,0,0,0,0,0,0,0,0,0,0,0,0,0,0,
0,0,0,0,0,0,0,0,0,0,0,0,0,0,0,0,
0,0,0,0,0,0,0,0,0,0,0,0,0,0,0,0,
0,0,0,0,0,0,0,0,0,0,0,0,0,0,0,0,
0,0,0,0,0,0,0,0,0,0,0,0,0,0,0,0
</chunk>
   <chunk x="80" y="16" width="16" height="16">
0,0,0,0,0,0,0,0,0,0,0,0,0,140,141,141,
0,0,0,0,0,0,0,0,0,0,0,0,0,140,141,141,
0,0,0,0,0,0,0,0,0,0,0,0,0,140,141,141,
0,0,0,0,0,0,0,0,0,0,0,0,0,140,141,141,
0,0,0,0,0,0,0,0,0,0,0,0,0,140,141,141,
0,0,0,0,0,0,0,0,0,0,0,0,0,140,141,141,
0,0,0,0,0,0,0,0,0,0,0,0,0,140,141,141,
0,0,0,0,0,0,0,0,0,0,0,0,0,140,141,141,
0,0,0,0,0,0,0,0,0,0,0,0,0,140,141,141,
0,0,0,0,0,0,0,0,0,0,0,0,0,140,141,141,
0,0,0,0,0,0,0,0,0,0,0,0,0,152,153,153,
0,0,0,0,0,0,0,0,0,0,0,0,0,0,0,0,
0,0,0,0,0,0,0,0,0,0,0,0,0,0,0,0,
0,0,0,0,0,0,0,0,0,0,0,0,0,0,0,0,
0,0,0,0,0,0,0,0,0,0,0,0,0,0,0,0,
0,0,0,0,0,0,0,0,0,0,0,0,0,128,129,129
</chunk>
   <chunk x="96" y="16" width="16" height="16">
141,141,141,141,141,141,141,141,141,141,141,141,141,141,141,141,
141,141,141,141,141,141,141,141,141,141,141,141,141,141,141,141,
144,153,153,153,153,143,141,141,144,153,153,153,153,143,141,141,
142,0,0,0,0,140,141,141,142,0,0,0,0,140,141,141,
142,0,0,0,0,140,141,141,142,0,0,0,0,140,141,141,
142,0,0,0,0,140,141,141,142,0,0,0,0,140,141,141,
142,0,0,0,0,140,141,141,142,0,0,0,0,140,141,141,
142,0,0,0,0,140,141,141,142,0,0,0,0,140,141,141,
142,0,0,0,0,140,141,141,142,0,0,0,0,140,141,141,
142,0,0,0,0,140,141,141,142,0,0,0,0,140,141,141,
154,0,0,0,0,152,153,153,154,0,0,0,0,140,141,141,
0,0,0,0,0,0,0,0,0,0,0,0,0,140,141,141,
0,0,0,0,0,0,0,0,0,0,0,0,0,140,141,141,
0,0,0,0,0,0,0,0,0,0,0,0,0,140,141,141,
0,0,0,0,0,0,0,0,0,0,0,0,0,140,141,141,
129,129,129,129,129,129,129,129,129,129,129,129,129,131,141,141
</chunk>
   <chunk x="112" y="16" width="16" height="16">
141,141,141,141,141,141,141,141,141,141,141,141,141,141,141,141,
141,141,141,141,141,141,141,141,141,141,141,141,141,141,141,141,
144,153,153,153,153,153,153,153,153,153,153,153,153,143,141,141,
142,0,0,0,0,0,0,0,0,0,0,0,0,140,141,141,
142,0,0,0,0,0,0,0,0,0,0,0,0,140,141,141,
142,0,0,0,0,0,0,0,0,0,0,0,0,140,141,141,
142,0,0,0,0,0,0,0,0,0,0,0,0,140,141,141,
142,0,0,0,0,128,129,129,130,0,0,0,0,140,141,141,
142,0,0,0,0,140,141,141,142,0,0,0,0,140,141,141,
142,0,0,0,0,140,141,141,142,0,0,0,0,140,141,141,
142,0,0,0,0,140,141,141,142,0,0,0,0,152,153,153,
142,0,0,0,0,140,141,141,142,0,0,0,0,0,0,0,
142,0,0,0,0,140,141,141,142,0,0,0,0,0,0,0,
142,0,0,0,0,140,141,141,142,0,0,0,0,0,0,0,
142,0,0,0,0,140,141,141,142,0,0,0,0,0,0,0,
142,0,0,0,0,140,141,141,132,129,129,129,129,129,129,129
</chunk>
   <chunk x="128" y="16" width="16" height="16">
141,141,141,141,141,141,141,141,141,141,141,141,141,141,141,141,
141,141,141,141,141,141,141,141,141,141,141,141,141,141,141,141,
144,153,153,153,153,153,153,153,153,153,153,153,153,143,141,141,
142,0,0,0,0,0,0,0,0,0,0,0,0,140,141,141,
142,0,0,0,0,0,0,0,0,0,0,0,0,140,141,141,
142,0,0,0,0,0,0,0,0,0,0,0,0,140,141,141,
142,0,0,0,0,0,0,0,0,0,0,0,0,140,141,141,
132,129,129,129,129,129,129,129,130,0,0,0,0,140,141,141,
141,141,141,141,141,141,141,141,142,0,0,0,0,140,141,141,
141,141,141,141,141,141,141,141,142,0,0,0,0,140,141,141,
153,153,153,153,153,153,153,153,154,0,0,0,0,140,141,141,
0,0,0,0,0,0,0,0,0,0,0,0,0,140,141,141,
0,0,0,0,0,0,0,0,0,0,0,0,0,140,141,141,
0,0,0,0,0,0,0,0,0,0,0,0,0,140,141,141,
0,0,0,0,0,0,0,0,0,0,0,0,0,140,141,141,
129,129,129,129,129,129,129,129,129,129,129,129,129,131,141,141
</chunk>
   <chunk x="144" y="16" width="16" height="16">
141,141,141,141,141,141,141,141,141,141,141,141,141,141,141,141,
141,141,141,141,141,141,141,141,141,141,141,141,141,141,141,141,
144,153,153,153,153,153,153,153,153,153,153,153,153,153,153,153,
142,0,0,0,0,0,0,0,0,0,0,0,0,0,0,0,
142,0,0,0,0,0,0,0,0,0,0,0,0,0,0,0,
142,0,0,0,0,0,0,0,0,0,0,0,0,0,0,0,
142,0,0,0,0,0,0,0,0,0,0,0,0,0,0,0,
142,0,0,0,0,128,129,129,129,129,129,129,129,129,129,129,
142,0,0,0,0,140,141,141,141,141,141,141,141,141,141,141,
142,0,0,0,0,140,141,141,141,141,141,141,141,141,141,141,
142,0,0,0,0,152,153,153,153,153,153,153,153,143,141,141,
142,0,0,0,0,0,0,0,0,0,0,0,0,140,141,141,
142,0,0,0,0,0,0,0,0,0,0,0,0,140,141,141,
142,0,0,0,0,0,0,0,0,0,0,0,0,140,141,141,
142,0,0,0,0,0,0,0,0,0,0,0,0,140,141,141,
132,129,129,129,129,129,129,129,130,0,0,0,0,140,141,141
</chunk>
   <chunk x="160" y="16" width="16" height="16">
141,141,141,141,141,141,141,141,142,0,0,0,0,0,0,0,
141,141,141,141,141,141,141,141,142,0,0,0,0,0,0,0,
153,153,153,153,153,143,141,141,142,0,0,0,0,0,0,0,
0,0,0,0,0,140,141,141,142,0,0,0,0,0,0,0,
0,0,0,0,0,140,141,141,142,0,0,0,0,0,0,0,
0,0,0,0,0,140,141,141,142,0,0,0,0,0,0,0,
0,0,0,0,0,140,141,141,142,0,0,0,0,0,0,0,
130,0,0,0,0,140,141,141,142,0,0,0,0,0,0,0,
142,0,0,0,0,140,141,141,142,0,0,0,0,0,0,0,
142,0,0,0,0,140,141,141,142,0,0,0,0,0,0,0,
142,0,0,0,0,140,141,141,142,0,0,0,0,0,0,0,
142,0,0,0,0,140,141,141,142,0,0,0,0,0,0,0,
142,0,0,0,0,140,141,141,142,0,0,0,0,0,0,0,
142,0,0,0,0,140,141,141,142,0,0,0,0,0,0,0,
142,0,0,0,0,140,141,141,142,0,0,0,0,0,0,0,
132,129,129,129,129,131,141,141,142,0,0,0,0,0,0,0
</chunk>
   <chunk x="80" y="32" width="16" height="16">
0,0,0,0,0,0,0,0,0,0,0,0,0,140,141,141,
0,0,0,0,0,0,0,0,0,0,0,0,0,140,141,141,
0,0,0,0,0,0,0,0,0,0,0,0,0,152,153,153,
0,0,0,0,0,0,0,0,0,0,0,0,0,0,0,0,
0,0,0,0,0,0,0,0,0,0,0,0,0,0,0,0,
0,0,0,0,0,0,0,0,0,0,0,0,0,0,0,0,
0,0,0,0,0,0,0,0,0,0,0,0,0,0,0,0,
0,0,0,0,0,0,0,0,0,0,0,0,0,0,0,0,
0,0,0,0,0,0,0,0,0,0,0,0,0,0,0,0,
0,0,0,0,0,0,0,0,0,0,0,0,0,0,0,0,
0,0,0,0,0,0,0,0,0,0,0,0,0,0,0,0,
0,0,0,0,0,0,0,0,0,0,0,0,0,0,0,0,
0,0,0,0,0,0,0,0,0,0,0,0,0,0,0,0,
0,0,0,0,0,0,0,0,0,0,0,0,0,0,0,0,
0,0,0,0,0,0,0,0,0,0,0,0,0,0,0,0,
0,0,0,0,0,0,0,0,0,0,0,0,0,0,0,0
</chunk>
   <chunk x="96" y="32" width="16" height="16">
141,141,141,141,141,141,141,141,141,141,141,141,141,141,141,141,
141,141,141,141,141,141,141,141,141,141,141,141,141,141,141,141,
153,153,153,153,153,153,153,153,153,153,153,153,153,153,153,153,
0,0,0,0,0,0,0,0,0,0,0,0,0,0,0,0,
0,0,0,0,0,0,0,0,0,0,0,0,0,0,0,0,
0,0,0,0,0,0,0,0,0,0,0,0,0,0,0,0,
0,0,0,0,0,0,0,0,0,0,0,0,0,0,0,0,
0,0,0,0,0,0,0,0,0,0,0,0,0,0,0,0,
0,0,0,0,0,0,0,0,0,0,0,0,0,0,0,0,
0,0,0,0,0,0,0,0,0,0,0,0,0,0,0,0,
0,0,0,0,0,0,0,0,0,0,0,0,0,0,0,0,
0,0,0,0,0,0,0,0,0,0,0,0,0,0,0,0,
0,0,0,0,0,0,0,0,0,0,0,0,0,0,0,0,
0,0,0,0,0,0,0,0,0,0,0,0,0,0,0,0,
0,0,0,0,0,0,0,0,0,0,0,0,0,0,0,0,
0,0,0,0,0,0,0,0,0,0,0,0,0,0,0,0
</chunk>
   <chunk x="112" y="32" width="16" height="16">
142,0,0,0,0,140,141,141,141,141,141,141,141,141,141,141,
142,0,0,0,0,140,141,141,141,141,141,141,141,141,141,141,
154,0,0,0,0,152,153,153,153,153,153,153,153,153,153,153,
0,0,0,0,0,0,0,0,0,0,0,0,0,0,0,0,
0,0,0,0,0,0,0,0,0,0,0,0,0,0,0,0,
0,0,0,0,0,0,0,0,0,0,0,0,0,0,0,0,
0,0,0,0,0,0,0,0,0,0,0,0,0,0,0,0,
0,0,0,0,0,0,0,0,0,0,0,0,0,0,0,0,
0,0,0,0,0,0,0,0,0,0,0,0,0,0,0,0,
0,0,0,0,0,0,0,0,0,0,0,0,0,0,0,0,
0,0,0,0,0,0,0,0,0,0,0,0,0,0,0,0,
0,0,0,0,0,0,0,0,0,0,0,0,0,0,0,0,
0,0,0,0,0,0,0,0,0,0,0,0,0,0,0,0,
0,0,0,0,0,0,0,0,0,0,0,0,0,0,0,0,
0,0,0,0,0,0,0,0,0,0,0,0,0,0,0,0,
0,0,0,0,0,0,0,0,0,0,0,0,0,0,0,0
</chunk>
   <chunk x="128" y="32" width="16" height="16">
141,141,141,141,141,141,141,141,141,141,141,141,141,141,141,141,
141,141,141,141,141,141,141,141,141,141,141,141,141,141,141,141,
153,153,153,153,153,153,153,153,153,153,153,153,153,153,153,153,
0,0,0,0,0,0,0,0,0,0,0,0,0,0,0,0,
0,0,0,0,0,0,0,0,0,0,0,0,0,0,0,0,
0,0,0,0,0,0,0,0,0,0,0,0,0,0,0,0,
0,0,0,0,0,0,0,0,0,0,0,0,0,0,0,0,
0,0,0,0,0,0,0,0,0,0,0,0,0,0,0,0,
0,0,0,0,0,0,0,0,0,0,0,0,0,0,0,0,
0,0,0,0,0,0,0,0,0,0,0,0,0,0,0,0,
0,0,0,0,0,0,0,0,0,0,0,0,0,0,0,0,
0,0,0,0,0,0,0,0,0,0,0,0,0,0,0,0,
0,0,0,0,0,0,0,0,0,0,0,0,0,0,0,0,
0,0,0,0,0,0,0,0,0,0,0,0,0,0,0,0,
0,0,0,0,0,0,0,0,0,0,0,0,0,0,0,0,
0,0,0,0,0,0,0,0,0,0,0,0,0,0,0,0
</chunk>
   <chunk x="144" y="32" width="16" height="16">
141,141,141,141,141,141,141,141,142,0,0,0,0,140,141,141,
141,141,141,141,141,141,141,141,142,0,0,0,0,140,141,141,
153,153,153,153,153,153,153,153,154,0,0,0,0,152,153,153,
0,0,0,0,0,0,0,0,0,0,0,0,0,0,0,0,
0,0,0,0,0,0,0,0,0,0,0,0,0,0,0,0,
0,0,0,0,0,0,0,0,0,0,0,0,0,0,0,0,
0,0,0,0,0,0,0,0,0,0,0,0,0,0,0,0,
0,0,0,0,0,0,0,0,0,0,0,0,0,0,0,0,
0,0,0,0,0,0,0,0,0,0,0,0,0,0,0,0,
0,0,0,0,0,0,0,0,0,0,0,0,0,0,0,0,
0,0,0,0,0,0,0,0,0,0,0,0,0,0,0,0,
0,0,0,0,0,0,0,0,0,0,0,0,0,0,0,0,
0,0,0,0,0,0,0,0,0,0,0,0,0,0,0,0,
0,0,0,0,0,0,0,0,0,0,0,0,0,0,0,0,
0,0,0,0,0,0,0,0,0,0,0,0,0,0,0,0,
0,0,0,0,0,0,0,0,0,0,0,0,0,0,0,0
</chunk>
   <chunk x="160" y="32" width="16" height="16">
141,141,141,141,141,141,141,141,142,0,0,0,0,0,0,0,
141,141,141,141,141,141,141,141,142,0,0,0,0,0,0,0,
153,153,153,153,153,153,153,153,154,0,0,0,0,0,0,0,
0,0,0,0,0,0,0,0,0,0,0,0,0,0,0,0,
0,0,0,0,0,0,0,0,0,0,0,0,0,0,0,0,
0,0,0,0,0,0,0,0,0,0,0,0,0,0,0,0,
0,0,0,0,0,0,0,0,0,0,0,0,0,0,0,0,
0,0,0,0,0,0,0,0,0,0,0,0,0,0,0,0,
0,0,0,0,0,0,0,0,0,0,0,0,0,0,0,0,
0,0,0,0,0,0,0,0,0,0,0,0,0,0,0,0,
0,0,0,0,0,0,0,0,0,0,0,0,0,0,0,0,
0,0,0,0,0,0,0,0,0,0,0,0,0,0,0,0,
0,0,0,0,0,0,0,0,0,0,0,0,0,0,0,0,
0,0,0,0,0,0,0,0,0,0,0,0,0,0,0,0,
0,0,0,0,0,0,0,0,0,0,0,0,0,0,0,0,
0,0,0,0,0,0,0,0,0,0,0,0,0,0,0,0
</chunk>
  </data>
 </layer>
 <layer id="6" name="deco" width="30" height="20">
  <data encoding="csv">
   <chunk x="-48" y="-48" width="16" height="16">
0,0,0,0,0,0,0,0,0,0,0,0,0,0,0,0,
0,0,0,0,0,0,0,0,0,0,0,0,0,0,0,0,
0,0,0,0,0,0,0,0,0,0,0,0,0,0,0,0,
0,0,0,0,0,0,0,0,0,0,0,0,0,0,0,0,
0,0,0,0,0,0,0,0,0,0,0,0,0,0,0,0,
0,0,0,0,0,0,0,0,0,0,0,0,0,0,0,0,
0,0,0,0,0,0,0,0,0,0,0,0,0,0,0,0,
0,0,0,0,0,0,0,0,0,0,0,0,0,0,0,0,
0,0,0,0,0,0,0,0,0,0,0,0,0,0,0,0,
0,0,0,0,0,0,0,0,0,121,123,0,0,0,0,0,
0,0,0,0,0,0,0,2684354705,2684354681,145,147,0,0,0,0,0,
0,0,0,0,0,0,0,2684354706,113,122,122,123,121,123,0,0,
0,0,0,0,0,0,0,2684354707,146,146,146,147,145,147,0,0,
0,0,0,0,0,0,0,0,0,0,0,0,0,0,0,0,
0,0,0,0,0,0,0,0,0,0,0,0,0,0,0,0,
0,0,0,0,0,0,0,0,0,0,0,0,0,0,0,0
</chunk>
   <chunk x="32" y="-48" width="16" height="16">
0,0,0,0,0,0,0,0,0,0,0,0,0,0,0,0,
0,0,0,0,0,0,0,0,0,0,0,0,0,0,0,0,
0,0,0,0,0,0,0,0,0,0,0,0,0,0,0,0,
0,0,0,0,0,0,0,0,0,0,0,0,0,0,0,0,
0,0,0,0,0,0,0,0,0,0,0,0,0,0,0,0,
0,0,0,0,0,0,0,0,0,0,0,0,0,0,0,0,
0,0,0,0,0,0,0,0,0,0,0,0,0,0,0,0,
0,0,0,0,0,0,0,0,0,0,0,0,0,0,0,0,
0,0,0,0,0,0,0,0,0,0,0,0,0,0,0,149,
0,0,0,0,0,0,0,0,0,0,0,0,0,0,0,0,
0,0,0,0,0,0,0,0,0,0,0,0,0,0,0,0,
0,0,0,0,0,0,0,0,0,0,0,0,0,0,0,0,
0,0,0,0,0,0,0,0,0,0,0,0,0,0,0,0,
0,0,0,0,0,0,0,0,0,0,149,0,0,0,0,0,
0,0,0,0,0,0,0,0,0,0,149,0,0,0,0,0,
0,0,0,0,0,0,0,0,0,0,149,149,0,0,0,0
</chunk>
   <chunk x="48" y="-48" width="16" height="16">
0,0,0,0,0,0,0,0,0,0,0,0,0,0,0,0,
0,0,0,0,0,0,0,0,0,0,0,0,0,0,0,0,
0,0,0,0,0,0,0,0,0,0,0,0,0,0,0,0,
0,0,0,0,0,0,0,0,0,0,0,0,0,0,0,0,
0,0,0,0,0,0,0,0,0,0,0,0,0,0,0,0,
0,0,0,0,0,0,0,0,0,0,0,0,0,0,0,0,
0,0,0,0,0,0,0,0,0,0,0,0,0,0,0,0,
0,0,0,0,0,0,0,0,0,0,0,0,0,0,0,0,
0,0,0,0,0,0,0,0,0,0,0,0,0,0,0,0,
149,0,0,0,0,0,0,0,0,0,0,0,0,0,0,0,
149,0,0,0,0,0,0,0,0,0,0,0,0,0,0,0,
149,149,0,0,0,0,0,0,0,0,0,0,0,0,0,0,
149,149,149,0,0,0,0,0,0,0,0,0,0,0,0,0,
0,149,149,0,0,0,0,0,0,0,0,0,0,0,0,0,
0,149,149,149,0,0,0,0,0,0,0,0,0,0,0,0,
149,149,149,0,0,0,0,0,0,0,0,0,0,0,0,0
</chunk>
   <chunk x="80" y="-48" width="16" height="16">
0,0,0,0,0,0,0,0,0,0,0,0,0,0,0,0,
0,0,0,0,0,0,0,0,0,0,0,0,0,0,0,0,
0,0,0,0,0,0,0,0,0,0,0,0,0,0,0,0,
0,0,0,0,0,0,0,0,0,0,0,0,0,0,0,0,
0,0,0,0,0,0,0,0,0,0,0,0,0,0,0,0,
0,0,0,0,0,0,0,0,0,0,0,0,0,0,0,0,
0,0,0,0,0,0,0,0,0,0,0,0,0,0,0,0,
0,0,0,0,0,0,0,0,0,0,0,0,0,0,0,0,
0,0,0,0,0,0,0,0,0,0,0,0,0,0,0,0,
0,0,0,0,0,0,0,0,0,0,0,0,0,0,0,0,
0,0,0,0,0,0,0,0,0,0,0,0,0,0,0,0,
0,0,0,0,0,0,0,0,0,0,0,0,0,0,0,0,
0,0,0,0,0,0,0,0,0,0,0,0,0,0,0,0,
0,0,0,0,0,0,0,0,0,0,0,0,0,0,0,0,
0,0,0,0,0,0,0,0,0,0,0,0,0,0,0,0,
0,0,0,0,0,0,0,0,0,0,0,0,0,145,146,146
</chunk>
   <chunk x="96" y="-48" width="16" height="16">
0,0,0,0,0,0,0,0,0,0,0,0,0,0,0,0,
0,0,0,0,0,0,0,0,0,0,0,0,0,0,0,0,
0,0,0,0,0,0,0,0,0,0,0,0,0,0,0,0,
0,0,0,0,0,0,0,0,0,0,0,0,0,0,0,0,
0,0,0,0,0,0,0,0,0,0,0,0,0,0,0,0,
0,0,0,0,0,0,0,0,0,0,0,0,0,0,0,0,
0,0,0,0,0,0,0,0,0,0,0,0,0,0,0,0,
0,121,123,145,147,145,146,146,124,0,0,0,0,0,121,123,
0,133,113,122,122,123,121,123,133,0,0,0,0,121,112,113,
0,133,134,134,134,135,145,147,145,0,0,0,0,145,124,125,
0,145,124,125,146,147,121,122,123,0,0,0,0,0,145,147,
0,0,0,0,0,123,133,134,135,0,0,0,0,0,0,0,
0,0,0,0,0,135,145,146,147,0,0,0,0,0,0,0,
0,0,0,0,0,147,0,0,0,0,0,0,0,0,0,0,
0,0,0,0,0,0,0,0,0,0,0,0,0,0,0,0,
124,0,0,0,0,0,0,0,0,0,0,0,0,0,0,0
</chunk>
   <chunk x="112" y="-48" width="16" height="16">
0,0,0,0,0,0,0,0,0,0,0,0,0,0,0,0,
0,0,0,0,0,0,0,0,0,0,0,0,0,0,0,0,
0,0,0,0,0,0,0,0,0,0,0,0,0,0,0,0,
0,0,0,0,0,0,0,0,0,0,0,0,0,0,0,0,
0,0,0,0,0,0,0,0,0,0,0,0,0,0,0,0,
0,0,0,0,0,0,0,0,0,0,0,0,0,0,0,0,
0,0,0,0,0,0,0,0,0,0,0,0,0,0,0,0,
0,1073741957,1073741958,1073741958,1073741959,0,0,0,0,0,0,0,0,0,0,0,
123,1073741945,1073741946,1073741946,1073741947,0,0,0,121,123,0,0,0,0,0,0,
147,0,0,0,121,122,122,123,145,147,0,0,0,0,0,0,
0,0,0,0,133,134,134,135,0,0,0,0,0,0,0,0,
0,0,0,0,0,0,0,0,0,0,0,0,0,0,0,0,
0,0,0,0,0,0,0,0,0,0,0,0,0,0,0,0,
0,0,0,0,0,0,0,0,0,0,0,0,0,0,0,0,
0,0,0,0,0,0,0,0,0,0,0,0,0,0,0,0,
0,0,0,0,0,123,0,145,124,0,0,0,0,0,0,0
</chunk>
   <chunk x="128" y="-48" width="16" height="16">
0,0,0,0,0,0,0,0,0,0,0,0,0,0,0,0,
0,0,0,0,0,0,0,0,0,0,0,0,0,0,0,0,
0,0,0,0,0,0,0,0,0,0,0,0,0,0,0,0,
0,0,0,0,0,0,0,0,0,0,0,0,0,0,0,0,
0,0,0,0,0,0,0,0,0,0,0,0,0,0,0,0,
0,0,0,0,0,0,0,0,0,0,0,0,0,0,0,0,
0,0,0,0,0,0,0,0,0,0,0,0,0,0,0,0,
0,0,0,0,0,0,0,121,123,0,0,0,0,0,0,0,
0,0,0,0,0,0,0,145,147,0,0,0,0,0,0,0,
0,0,0,0,0,0,0,0,0,0,0,0,0,0,0,0,
0,0,0,0,0,0,0,0,0,0,0,0,0,0,0,0,
0,0,0,0,0,0,0,0,0,0,0,0,0,0,0,0,
0,0,0,0,0,0,0,0,0,0,0,0,0,0,0,0,
0,0,0,0,0,0,0,0,0,0,0,0,0,0,0,0,
0,0,0,0,0,0,0,0,0,0,0,0,0,0,0,0,
0,0,0,0,0,121,123,0,0,0,0,0,0,1610612857,1610612869,1610612869
</chunk>
   <chunk x="144" y="-48" width="16" height="16">
0,0,0,0,0,0,0,0,0,0,0,0,0,0,0,0,
0,0,0,0,0,0,0,0,0,0,0,0,0,0,0,0,
0,0,0,0,0,0,0,0,0,0,0,0,0,0,0,0,
0,0,0,0,0,0,0,0,0,0,0,0,0,0,0,0,
0,0,0,0,0,0,0,0,0,0,0,0,0,0,0,0,
0,0,0,0,0,0,0,0,0,0,0,0,0,0,0,0,
0,0,0,0,0,0,0,0,0,0,0,0,0,0,0,0,
0,0,0,0,0,0,0,0,0,0,0,0,0,0,0,0,
0,0,0,0,0,0,0,0,0,0,0,0,0,0,0,0,
0,0,0,0,0,0,0,0,0,0,0,0,0,0,121,123,
0,0,0,0,0,0,0,0,0,0,0,0,0,0,145,147,
0,0,0,0,0,0,0,0,0,0,0,0,0,0,0,0,
0,0,0,0,0,0,0,0,0,0,0,0,0,0,0,0,
0,0,0,0,0,0,0,0,0,0,0,0,0,0,0,0,
0,0,0,0,0,0,0,0,0,0,0,0,0,0,0,0,
1610612869,1610612869,1610612869,1610612869,1610612881,0,0,0,0,0,0,0,0,0,0,0
</chunk>
   <chunk x="160" y="-48" width="16" height="16">
0,0,0,0,0,0,0,0,0,0,0,0,0,0,0,0,
0,0,0,0,0,0,0,0,0,0,0,0,0,0,0,0,
0,0,0,0,0,0,0,0,0,0,0,0,0,0,0,0,
0,0,0,0,0,0,0,0,0,0,0,0,0,0,0,0,
0,0,0,0,0,0,0,0,0,0,0,0,0,0,0,0,
0,0,0,0,0,0,0,0,0,0,0,0,0,0,0,0,
0,0,0,0,0,0,0,0,0,0,0,0,0,0,0,0,
0,0,0,0,145,124,49,50,51,0,0,0,0,0,0,0,
0,0,0,0,0,145,97,98,99,0,0,0,0,0,0,0,
0,0,0,0,0,0,97,98,99,0,0,0,0,0,0,0,
0,0,0,0,0,0,73,74,75,0,0,0,0,0,0,0,
0,0,0,0,0,0,0,0,0,0,0,0,0,0,0,0,
0,0,0,0,0,0,0,0,0,0,0,0,0,0,0,0,
0,0,0,0,0,0,0,0,0,0,0,0,0,0,0,0,
0,0,0,0,0,0,0,0,0,0,0,0,0,0,0,0,
0,0,0,0,0,0,0,0,0,0,0,0,0,0,0,0
</chunk>
   <chunk x="-64" y="-32" width="16" height="16">
0,0,0,0,0,0,0,0,0,0,0,0,0,0,0,0,
0,0,0,0,0,0,0,0,0,0,0,0,0,0,0,0,
0,0,0,0,0,0,0,0,0,0,0,0,0,0,0,0,
0,0,0,0,0,0,0,0,0,0,0,0,0,0,0,0,
0,0,0,0,0,0,0,0,0,0,0,0,0,0,0,0,
0,0,0,0,0,0,0,0,0,0,0,0,0,0,0,0,
0,0,0,0,0,0,0,0,0,0,0,0,0,0,0,0,
0,0,0,0,0,0,0,0,0,0,0,0,0,0,0,0,
0,0,0,0,0,0,0,0,0,0,0,0,0,0,0,0,
0,0,0,0,0,0,0,0,0,0,0,0,136,137,138,0,
0,0,0,0,0,0,0,0,0,0,136,137,114,127,162,0,
0,0,0,0,0,0,0,0,0,136,114,149,127,162,0,0,
0,0,0,0,0,0,0,0,136,114,149,149,150,0,0,0,
0,0,0,0,0,0,0,136,114,149,149,149,150,0,0,0,
0,0,0,0,0,0,0,160,161,126,149,149,150,0,0,0,
0,0,0,0,0,0,0,0,0,148,149,127,162,0,0,0
</chunk>
   <chunk x="-48" y="-32" width="16" height="16">
0,0,0,0,0,0,0,0,0,0,0,0,0,0,0,0,
0,0,0,0,0,0,0,0,0,0,0,0,0,0,0,0,
0,0,0,0,0,0,0,0,0,0,0,0,0,0,0,0,
0,0,0,0,0,0,0,0,0,0,0,0,0,0,0,0,
0,0,0,0,0,0,0,0,0,0,0,0,0,0,0,0,
0,0,0,0,0,0,0,0,0,0,0,0,0,0,0,0,
0,0,0,0,0,0,0,0,0,121,122,123,0,0,0,0,
0,0,0,0,0,0,0,0,0,133,134,135,0,0,0,0,
0,0,0,0,0,0,0,0,0,145,146,147,0,0,0,0,
0,0,0,0,0,0,0,0,0,0,0,0,0,0,0,0,
0,0,0,0,0,0,0,0,0,0,0,0,0,0,0,0,
0,0,0,0,0,0,0,0,0,0,0,0,0,0,0,0,
0,0,0,0,0,0,0,0,0,0,0,0,0,0,0,0,
0,0,0,0,0,0,0,0,0,0,0,0,0,0,0,0,
0,0,0,0,0,0,0,0,0,0,0,0,0,0,0,0,
0,0,0,0,0,0,0,0,0,0,0,0,0,0,0,0
</chunk>
   <chunk x="-32" y="-32" width="16" height="16">
0,0,0,0,0,0,0,0,0,0,0,0,0,0,0,0,
0,0,0,0,0,0,0,0,0,0,0,0,0,0,0,0,
0,0,0,0,0,0,0,0,0,0,0,0,0,0,0,0,
0,0,0,0,0,0,0,0,0,0,49,50,50,51,0,0,
0,0,0,0,0,0,0,0,0,0,61,85,87,63,0,0,
0,0,0,0,0,0,0,0,0,0,61,1073741909,1073741911,63,0,0,
0,0,0,0,0,0,0,0,0,0,73,74,74,75,0,0,
0,0,0,0,0,0,0,0,0,0,0,0,0,0,0,0,
0,0,0,0,0,0,0,0,0,0,0,0,0,0,0,0,
0,0,0,0,0,0,0,0,0,0,0,0,0,0,0,0,
0,0,0,0,0,0,0,0,0,0,0,0,0,0,0,0,
0,0,0,0,0,0,0,0,0,0,0,0,0,0,0,0,
0,0,0,0,0,0,0,0,0,0,0,0,0,0,0,0,
0,0,0,0,0,0,0,0,0,0,0,0,0,0,0,0,
0,0,0,0,0,0,0,0,0,0,0,0,0,0,0,0,
0,0,0,0,0,0,0,0,0,0,0,0,0,0,0,0
</chunk>
   <chunk x="32" y="-32" width="16" height="16">
0,0,0,0,0,0,0,0,0,149,149,149,0,0,0,0,
0,0,0,0,0,0,0,0,0,149,149,149,0,0,0,0,
0,0,0,0,0,0,0,0,0,0,149,149,149,0,0,0,
0,0,0,0,0,0,0,0,0,0,149,149,149,0,0,149,
0,0,0,0,0,0,0,0,0,0,149,149,149,149,0,149,
0,0,0,0,0,149,149,0,0,0,149,149,149,149,149,149,
0,0,0,0,0,149,149,149,0,149,149,149,149,149,149,149,
0,0,0,0,0,0,149,149,149,0,149,149,149,149,149,149,
0,0,0,0,0,0,0,149,149,149,149,149,149,149,149,149,
0,0,0,0,0,0,0,149,149,149,149,149,149,149,149,149,
0,0,0,0,0,0,0,149,149,149,149,149,149,149,149,149,
0,0,0,0,0,0,0,149,149,149,149,149,149,149,149,149,
0,0,0,0,0,0,0,0,149,149,149,149,149,149,149,149,
0,0,0,0,0,0,0,0,0,149,149,149,149,149,149,149,
0,0,0,0,0,0,0,0,0,0,149,149,149,149,149,149,
0,0,0,0,0,0,0,0,0,0,0,0,149,149,149,149
</chunk>
   <chunk x="48" y="-32" width="16" height="16">
149,149,149,0,0,0,0,0,0,0,0,0,0,0,0,0,
149,149,149,0,0,0,0,0,0,0,0,0,0,0,0,0,
149,149,149,0,0,0,149,0,0,0,0,0,0,0,0,0,
149,149,149,0,0,149,0,0,0,0,0,0,0,0,0,0,
149,149,149,0,149,149,0,0,0,0,0,0,0,0,0,0,
149,149,149,149,149,149,0,0,0,0,0,0,0,0,0,0,
149,149,149,149,149,149,0,0,0,0,0,0,0,0,0,0,
149,149,149,149,149,0,149,0,149,0,0,0,0,0,0,0,
149,149,149,149,149,149,149,149,0,0,0,0,0,0,0,0,
149,149,149,149,149,149,149,0,0,0,0,0,0,0,0,0,
149,149,149,149,149,149,149,0,0,0,0,0,0,0,0,0,
149,149,149,149,149,149,149,0,0,0,0,0,0,0,0,0,
149,149,149,149,149,149,0,0,0,0,0,0,0,0,0,0,
149,149,149,149,149,0,0,0,0,0,0,0,0,0,0,0,
149,149,149,149,0,0,0,0,0,0,0,0,0,0,0,0,
149,149,0,0,0,0,0,0,0,0,0,0,0,0,0,0
</chunk>
   <chunk x="80" y="-32" width="16" height="16">
0,0,0,0,0,0,0,0,0,0,0,0,0,0,0,0,
0,0,0,0,0,0,0,0,0,0,0,0,0,0,0,0,
0,0,0,0,0,0,0,0,0,0,0,0,0,0,0,0,
0,0,0,0,0,0,0,0,0,0,0,0,0,0,0,0,
0,0,0,0,0,0,0,0,0,0,0,0,0,0,0,0,
0,0,0,0,0,0,0,0,0,0,0,0,0,0,0,0,
0,0,0,0,0,0,0,0,0,0,0,0,0,0,0,0,
0,0,0,0,0,0,0,0,0,0,0,0,0,0,0,0,
0,0,0,0,0,0,0,0,0,0,0,0,0,0,0,0,
0,0,0,0,0,0,0,0,0,0,0,0,0,0,121,123,
0,0,0,0,0,0,0,0,0,0,0,0,0,0,145,147,
0,0,0,0,0,0,0,0,0,0,0,0,0,0,0,0,
0,0,0,0,0,0,0,0,0,0,0,0,0,0,0,0,
0,0,0,0,0,0,0,0,0,0,0,0,0,0,0,0,
0,0,0,0,0,0,0,0,0,0,0,0,0,0,0,0,
0,0,0,0,0,0,0,0,0,0,0,0,0,0,0,0
</chunk>
   <chunk x="96" y="-32" width="16" height="16">
133,0,0,0,0,0,0,0,0,0,0,0,0,0,0,0,
133,0,0,0,0,0,121,122,123,0,0,0,0,0,0,0,
145,0,0,0,0,0,145,146,147,0,0,0,0,0,0,0,
0,0,0,0,0,0,0,0,0,0,0,0,0,0,0,0,
0,0,0,0,0,0,0,0,0,0,0,0,0,0,0,0,
0,0,0,0,0,0,0,0,0,0,0,0,0,0,0,0,
0,0,0,0,0,0,0,0,0,0,0,0,0,0,0,0,
0,0,0,0,0,0,0,0,0,0,0,121,123,0,0,0,
121,0,0,0,0,0,0,0,0,0,0,145,147,0,0,0,
133,0,0,0,0,0,0,0,0,0,0,0,0,0,0,0,
133,0,0,0,0,0,0,0,0,0,0,0,0,0,0,0,
133,0,0,0,0,0,0,0,0,0,0,0,0,0,0,0,
133,0,0,0,0,0,0,0,0,0,0,0,0,0,0,0,
133,0,0,0,0,0,0,0,0,0,0,0,0,0,0,0,
133,0,0,0,0,0,0,0,0,0,0,0,0,0,0,0,
145,146,146,146,147,0,0,0,0,0,0,0,0,0,0,0
</chunk>
   <chunk x="112" y="-32" width="16" height="16">
0,0,0,0,0,135,0,0,145,0,0,0,0,0,0,0,
0,0,0,0,0,135,0,0,0,0,0,0,0,0,0,0,
0,0,0,0,0,135,0,0,121,0,0,0,0,0,0,0,
0,0,0,0,0,135,0,0,133,0,0,0,0,0,0,0,
0,0,0,0,0,135,0,0,133,0,0,0,0,0,0,0,
0,0,0,0,0,135,0,0,133,0,0,0,0,0,0,0,
0,0,0,0,0,147,0,0,133,0,0,0,0,0,0,0,
0,0,0,0,0,0,0,0,145,146,146,146,146,146,146,146,
0,0,0,0,0,0,0,0,0,0,0,0,0,0,0,0,
0,0,0,0,0,0,0,0,0,0,0,0,0,0,0,0,
0,0,0,0,0,0,0,0,0,0,0,0,0,0,0,0,
0,0,0,0,0,0,0,0,0,0,0,0,0,0,0,0,
0,0,0,0,0,0,0,0,0,0,0,0,0,0,0,0,
0,0,0,0,0,0,0,0,0,0,0,0,0,0,0,0,
0,0,0,0,0,0,0,0,0,0,0,0,0,0,0,0,
121,123,0,0,0,0,0,0,0,0,0,0,0,1610612857,1610612869,1610612869
</chunk>
   <chunk x="128" y="-32" width="16" height="16">
0,0,0,0,0,145,147,0,0,0,0,0,0,0,0,0,
0,0,0,0,0,0,0,0,0,0,0,0,0,0,0,0,
0,0,0,0,0,0,0,0,0,0,0,0,0,0,0,0,
0,0,0,0,0,0,0,0,0,0,0,0,0,0,0,0,
0,0,0,0,0,0,0,0,0,0,0,0,0,0,0,0,
0,0,0,0,0,0,0,0,0,0,0,0,0,0,0,0,
0,0,0,0,0,0,0,0,0,0,0,0,0,0,0,0,
147,0,0,0,0,0,0,0,0,0,0,0,0,1073741957,134,134,
0,0,0,0,0,0,0,0,0,0,0,0,0,1073741945,1073741946,1073741946,
0,0,0,0,0,0,121,123,0,0,0,0,0,0,0,0,
0,0,0,0,0,0,145,147,0,0,0,0,0,0,0,0,
0,0,0,0,0,0,0,0,0,0,0,0,0,0,0,0,
0,0,0,0,0,0,0,0,0,0,0,0,0,0,121,123,
0,0,0,0,0,1610612871,1610612883,121,123,0,0,0,0,0,145,147,
0,0,0,0,0,1610612848,1610612861,112,135,0,0,0,0,0,121,122,
1610612869,1610612869,1610612869,1610612869,1610612881,145,124,125,147,0,0,0,0,0,145,146
</chunk>
   <chunk x="144" y="-32" width="16" height="16">
0,0,0,0,0,0,0,0,0,0,0,0,0,0,0,0,
0,0,0,0,0,0,0,0,0,0,0,0,0,0,0,0,
0,0,0,0,0,0,0,0,0,0,0,0,0,0,0,0,
0,0,0,0,0,1610612883,0,0,0,0,0,0,0,0,0,0,
0,0,0,0,0,1610612882,0,0,0,0,0,0,0,0,0,0,
0,0,0,0,0,1610612882,0,0,0,0,0,0,0,0,0,0,
0,0,0,0,0,1610612882,0,0,0,0,0,0,0,0,0,0,
135,145,1610612869,1610612869,1610612869,1610612881,0,0,0,0,0,0,0,0,121,123,
1073741947,0,0,0,0,0,0,0,121,0,0,0,0,0,145,147,
0,0,0,0,0,0,0,0,133,0,0,0,0,0,0,0,
0,0,0,0,0,0,0,0,133,0,0,0,0,0,0,0,
0,0,0,0,0,0,0,0,133,0,0,0,0,0,0,0,
0,0,0,0,0,0,0,0,133,0,0,0,0,0,0,0,
0,0,0,0,0,0,0,0,133,0,0,0,0,0,0,0,
123,0,0,0,0,0,0,0,133,0,0,0,0,0,0,0,
147,0,0,0,0,0,0,0,145,1610612869,1610612869,1610612869,1610612881,0,0,536871033
</chunk>
   <chunk x="160" y="-32" width="16" height="16">
0,0,0,0,0,0,0,0,0,0,0,0,0,0,0,0,
0,0,0,0,0,0,121,123,0,0,0,0,0,0,0,0,
121,122,122,122,122,123,145,147,0,0,0,0,0,0,0,0,
133,0,0,0,0,135,0,0,0,0,0,0,0,0,0,0,
133,0,0,0,0,135,0,0,0,0,0,0,0,0,0,0,
133,0,0,0,0,135,0,0,0,0,0,0,0,0,0,0,
133,0,0,0,0,135,1610612859,1610612883,0,0,0,0,0,0,0,0,
133,0,0,0,0,147,1610612858,1610612882,0,0,0,0,0,0,0,0,
133,0,0,0,0,0,1610612857,1610612881,0,0,0,0,0,0,0,0,
133,0,0,0,0,121,123,1610612859,1610612883,0,0,0,0,0,0,0,
133,0,0,0,0,145,147,1610612858,1610612882,0,0,0,0,0,0,0,
133,0,0,0,0,0,0,1610612857,1610612881,0,0,0,0,0,0,0,
133,0,0,0,0,0,0,0,0,0,0,0,0,0,0,0,
133,0,0,0,0,0,0,0,0,0,0,0,0,0,0,0,
133,0,0,0,0,0,0,0,0,0,0,0,0,0,0,0,
112,0,0,0,0,0,0,0,0,0,0,0,0,0,0,0
</chunk>
   <chunk x="-80" y="-16" width="16" height="16">
0,0,0,0,0,0,0,0,0,0,0,0,0,0,0,0,
0,0,0,0,0,0,0,0,0,0,0,0,0,0,0,0,
0,0,0,0,0,0,0,0,0,0,0,0,0,0,0,0,
0,0,0,0,0,0,0,0,0,0,0,0,0,0,0,121,
0,0,0,0,0,0,0,0,0,0,0,0,0,0,0,145,
0,0,0,0,0,0,0,0,0,0,0,0,0,0,0,0,
0,0,0,0,0,0,0,0,0,0,0,0,0,0,0,0,
0,0,0,0,0,0,0,0,0,0,0,0,0,0,0,0,
0,0,0,0,0,0,0,0,0,0,0,0,0,0,0,0,
0,0,0,0,0,0,0,0,0,0,0,0,0,0,0,0,
0,0,0,0,0,0,0,0,0,0,0,0,0,0,0,0,
0,0,0,0,0,0,0,0,0,0,0,0,0,0,0,0,
0,0,0,0,0,0,0,0,0,0,0,0,0,0,0,0,
0,0,0,0,0,0,0,0,0,0,0,0,0,0,0,0,
0,0,0,0,0,0,0,0,0,0,0,0,0,0,0,0,
0,0,0,0,0,0,0,0,0,0,0,0,0,0,0,0
</chunk>
   <chunk x="-64" y="-16" width="16" height="16">
0,0,0,0,0,0,0,0,0,160,161,162,0,0,0,0,
0,0,0,0,0,0,0,0,0,0,136,138,0,0,0,0,
0,0,0,0,0,0,0,0,0,0,160,162,0,0,0,0,
122,122,123,0,0,0,0,0,0,0,0,0,0,0,0,0,
146,124,135,0,0,0,0,0,0,0,0,0,0,0,0,0,
0,145,147,0,0,0,0,0,0,0,0,0,0,0,0,0,
0,0,0,0,0,0,0,0,0,0,0,0,0,0,121,123,
0,0,0,0,0,0,0,0,0,0,0,0,121,123,145,147,
0,0,0,0,0,0,0,0,0,0,0,0,145,147,0,0,
0,0,0,0,0,0,0,0,0,0,0,0,0,0,0,0,
0,0,0,0,0,0,0,0,0,0,0,0,121,123,0,0,
0,0,0,0,0,0,0,0,0,0,0,0,145,147,0,0,
0,0,0,0,0,0,0,0,0,0,0,0,0,0,0,0,
0,0,0,0,0,0,0,0,0,0,0,0,0,0,0,0,
0,0,0,0,0,0,0,0,0,0,0,0,0,0,0,0,
0,0,0,0,0,0,0,0,0,0,0,0,0,0,0,0
</chunk>
   <chunk x="-48" y="-16" width="16" height="16">
0,0,0,0,0,0,0,0,0,0,0,0,0,0,0,0,
0,0,0,0,0,0,0,0,0,0,0,0,0,0,0,0,
0,0,0,0,0,0,0,0,0,0,0,0,0,0,0,0,
121,122,123,0,0,0,0,0,0,0,0,0,0,0,0,0,
133,134,135,0,0,0,0,0,0,0,0,0,0,0,0,0,
145,146,147,0,0,0,0,0,0,0,0,0,0,0,0,0,
0,0,0,0,0,0,0,0,0,0,0,0,0,0,0,0,
0,0,0,0,0,0,0,0,0,0,0,0,0,0,0,0,
0,0,0,0,0,0,0,0,0,0,0,0,0,0,0,0,
0,0,0,0,0,0,0,0,0,0,0,0,0,0,0,0,
0,0,0,0,0,0,0,0,0,0,0,0,0,0,0,0,
0,0,0,0,0,0,0,0,0,0,0,0,0,0,0,0,
0,0,0,0,0,0,0,0,0,0,0,0,0,0,0,0,
0,0,0,0,0,0,0,0,0,0,0,0,0,0,0,0,
0,0,0,0,0,0,0,0,0,0,0,0,0,0,0,0,
0,0,0,0,0,0,0,0,0,0,0,0,0,0,0,0
</chunk>
   <chunk x="-32" y="-16" width="16" height="16">
0,0,0,0,121,123,0,0,0,0,0,0,0,0,0,0,
0,0,0,0,85,87,0,0,0,0,0,0,0,0,0,0,
0,0,0,0,1073741909,1073741911,0,0,0,0,0,0,0,0,0,0,
0,0,0,0,145,147,0,0,0,0,0,0,0,0,0,0,
0,0,0,0,0,0,0,0,0,0,0,0,0,0,0,0,
0,0,0,0,0,0,0,0,0,0,0,0,0,0,0,0,
0,0,0,0,0,0,0,0,0,0,0,0,0,0,0,0,
0,0,0,0,0,0,0,0,0,0,0,0,0,0,0,0,
0,0,0,0,0,0,0,0,0,0,0,0,0,0,0,0,
0,0,0,0,0,0,0,0,0,0,0,0,0,0,0,0,
0,0,0,0,0,0,0,0,0,0,0,0,0,0,0,0,
0,0,0,0,0,0,0,0,0,0,0,0,0,0,0,0,
0,0,0,0,0,0,0,0,0,0,0,0,0,0,0,0,
0,0,0,0,0,0,0,0,0,0,0,0,0,0,0,0,
0,0,0,0,0,0,0,0,0,0,0,0,0,0,0,0,
0,0,0,0,0,0,0,0,0,0,0,0,0,0,0,0
</chunk>
   <chunk x="48" y="-16" width="16" height="16">
0,0,0,0,0,0,0,0,0,0,0,0,0,0,0,0,
0,0,0,0,0,0,0,0,0,0,0,0,0,0,0,0,
0,0,0,0,0,0,0,0,0,0,0,0,0,0,0,0,
0,0,0,0,0,0,0,0,0,0,0,0,0,0,0,0,
0,0,0,0,0,49,50,51,0,0,0,0,0,0,0,0,
0,0,0,0,0,97,98,99,0,0,0,0,0,0,0,0,
0,0,0,0,0,97,98,99,0,0,0,0,0,0,0,0,
0,0,0,0,0,73,74,75,0,0,0,0,0,0,0,0,
0,0,0,0,0,0,0,0,0,0,0,0,0,0,0,0,
0,0,0,0,0,0,0,0,0,0,0,0,0,0,0,0,
0,0,0,0,0,0,0,0,0,0,0,0,0,0,0,0,
0,0,0,0,0,0,0,0,0,0,0,0,0,0,0,0,
0,0,0,0,0,0,0,0,0,0,0,0,0,0,0,0,
0,0,0,0,0,0,0,0,0,0,0,0,0,0,0,0,
0,0,0,0,0,0,0,0,0,0,0,0,0,0,0,0,
0,0,0,0,0,0,0,0,0,0,0,0,0,0,0,0
</chunk>
   <chunk x="80" y="-16" width="16" height="16">
0,0,0,0,0,0,0,0,0,0,0,0,0,0,0,0,
0,0,0,0,0,0,0,0,0,0,0,0,0,0,0,0,
0,0,0,0,0,0,0,0,0,0,0,0,0,0,0,0,
0,0,0,0,0,0,0,0,0,0,0,0,0,0,0,0,
0,0,0,0,0,0,0,0,0,0,0,0,0,0,0,0,
0,0,0,0,0,0,0,0,0,0,0,0,0,0,0,0,
0,0,0,0,0,0,0,0,0,0,0,0,0,0,0,0,
0,0,0,0,0,0,0,0,0,0,0,0,0,123,0,145,
0,0,0,0,0,0,0,0,0,0,0,0,0,135,0,0,
0,0,0,0,0,0,0,0,0,0,0,0,0,135,0,0,
0,0,0,0,0,0,0,0,0,0,0,0,0,135,0,0,
0,0,0,0,0,0,0,0,0,0,0,0,0,135,0,0,
0,0,0,0,0,0,0,0,0,0,0,0,0,135,0,0,
0,0,0,0,0,0,0,0,0,0,0,0,0,135,0,0,
0,0,0,0,0,0,0,0,0,0,0,0,0,135,0,0,
0,0,0,0,0,0,0,0,0,0,0,0,0,135,0,0
</chunk>
   <chunk x="96" y="-16" width="16" height="16">
0,0,0,0,0,0,0,0,0,0,0,0,0,0,0,0,
0,0,0,0,0,0,0,0,0,0,0,0,0,0,0,0,
0,0,0,0,0,0,0,0,0,0,0,0,0,0,0,0,
0,0,0,0,0,0,0,0,0,0,0,0,0,0,0,0,
0,0,0,0,0,0,0,0,0,0,0,0,0,0,0,0,
0,0,0,0,0,0,0,0,0,0,0,0,0,0,0,0,
0,0,0,0,0,0,0,0,0,0,0,0,0,0,0,0,
124,0,0,0,0,1073741937,1073741947,0,0,0,0,0,0,2147483773,536871037,2147483773,
145,0,0,0,0,2684354682,0,0,0,0,0,0,0,2147483795,2147483793,2147483795,
0,0,0,0,0,2684354682,0,0,0,0,0,0,0,121,123,0,
0,0,0,0,0,2684354683,0,0,0,0,0,0,0,145,147,0,
0,0,0,0,0,0,0,0,0,0,0,0,0,0,0,0,
0,0,0,0,0,0,0,0,0,0,0,0,0,0,0,0,
0,0,0,0,0,0,0,0,0,0,0,0,0,0,0,0,
0,0,0,0,0,0,0,0,0,0,0,0,0,0,0,0,
0,0,0,0,0,0,0,0,0,0,0,0,0,0,121,123
</chunk>
   <chunk x="112" y="-16" width="16" height="16">
145,147,0,0,0,0,0,0,0,0,0,0,0,0,0,0,
0,0,0,0,0,0,0,0,0,0,0,0,0,0,0,0,
0,0,0,0,0,0,0,0,0,0,0,0,0,0,0,0,
0,0,0,0,0,0,0,0,0,0,0,0,0,0,0,0,
0,0,0,0,0,0,0,0,0,0,0,0,0,0,0,0,
0,0,0,0,0,0,0,0,0,0,0,0,0,0,0,0,
0,0,0,0,0,0,0,0,0,0,0,0,0,0,0,0,
2147483772,0,0,0,0,0,0,0,0,0,0,0,0,0,121,123,
2147483793,0,0,0,0,0,0,0,0,0,0,0,0,0,145,147,
0,0,0,0,0,0,0,0,0,0,0,0,0,0,0,0,
0,0,0,0,0,0,0,0,0,0,0,0,0,0,0,0,
0,0,0,0,0,0,0,0,0,0,0,0,0,0,0,0,
0,0,0,0,0,121,123,0,0,0,0,0,0,0,0,0,
0,0,0,0,0,145,147,0,0,0,0,0,0,0,0,0,
0,0,0,0,0,0,0,0,0,0,0,0,0,0,0,0,
0,0,0,0,0,0,0,0,0,0,0,0,0,0,0,3221225595
</chunk>
   <chunk x="128" y="-16" width="16" height="16">
0,0,0,0,0,0,145,147,0,0,0,0,0,0,0,0,
0,0,0,0,0,0,0,0,0,0,0,0,0,0,0,0,
0,0,0,0,0,0,0,0,0,0,0,0,0,0,0,0,
0,0,0,0,0,0,0,0,0,0,0,0,0,0,0,0,
0,0,0,0,0,0,0,0,0,0,0,0,0,0,0,0,
0,0,0,0,0,0,0,0,0,0,0,0,0,0,0,0,
0,0,0,0,0,0,0,0,0,0,0,0,0,0,0,0,
0,0,0,0,0,145,146,146,124,0,0,0,0,3758096507,0,0,
0,0,0,0,0,0,0,0,133,0,0,0,0,3758096506,0,0,
0,0,0,0,0,0,0,0,133,0,0,0,0,3758096506,0,0,
0,0,0,0,0,0,0,0,145,0,0,0,0,113,123,0,
0,0,0,0,0,0,0,0,0,0,0,0,0,0,0,0,
0,0,0,0,0,0,0,0,0,0,0,0,0,0,0,0,
0,0,0,0,0,0,0,0,0,0,0,0,0,0,0,0,
0,0,0,0,0,3221225617,0,0,1073741969,0,0,0,0,0,0,0,
3221225585,0,0,0,0,3221225596,3221225617,1073741969,1073741948,0,0,0,0,0,0,0
</chunk>
   <chunk x="144" y="-16" width="16" height="16">
0,0,0,0,0,0,0,0,0,0,0,0,0,0,0,536871034,
0,0,0,0,0,0,0,0,0,0,0,0,0,0,0,536871034,
0,0,0,0,0,0,0,0,0,0,0,0,0,0,0,536871035,
0,0,0,0,0,0,0,0,0,0,0,0,0,0,0,0,
0,0,0,0,0,0,0,0,0,0,0,0,0,0,0,0,
0,0,0,0,0,0,0,0,0,0,0,0,0,0,0,0,
0,0,0,0,0,0,0,0,0,0,0,0,0,0,0,0,
0,0,0,0,0,0,0,0,0,0,0,0,0,0,0,145,
0,0,0,0,0,0,121,123,0,0,0,0,0,0,0,0,
0,0,0,0,0,121,112,113,123,0,0,0,0,0,0,0,
0,0,0,0,0,145,124,125,147,0,0,0,0,0,0,0,
0,0,0,0,0,0,145,147,0,0,0,0,0,0,0,0,
0,0,0,0,0,0,0,0,0,0,0,0,0,0,0,0,
0,0,0,0,0,0,0,0,0,0,0,0,0,0,0,0,
0,0,0,0,0,0,0,0,0,0,0,0,0,0,0,0,
0,0,0,0,0,0,0,0,0,0,0,0,0,0,0,0
</chunk>
   <chunk x="160" y="-16" width="16" height="16">
536871046,0,0,0,0,0,0,0,0,0,0,0,0,0,0,0,
536871046,0,0,0,0,0,0,0,0,0,0,0,0,0,0,0,
536871047,0,0,0,0,0,0,0,0,0,0,0,0,0,0,0,
0,0,0,0,0,0,0,0,0,0,0,0,0,0,0,0,
0,0,0,0,0,0,0,0,0,0,0,0,0,0,0,0,
0,0,0,0,0,0,0,0,0,0,0,0,0,0,0,0,
0,0,0,0,0,0,0,0,0,0,0,0,0,0,0,0,
124,0,0,0,0,0,121,123,0,0,0,0,0,0,0,0,
145,0,0,0,0,1610612883,145,147,0,0,0,0,0,0,0,0,
0,0,0,0,0,1610612861,1610612883,0,0,0,0,0,0,0,0,0,
0,0,0,0,0,125,1610612881,0,0,0,0,0,0,0,0,0,
0,0,0,0,0,1610612861,1610612883,0,0,0,0,0,0,0,0,0,
0,0,0,0,0,1610612860,1610612881,0,0,0,0,0,0,0,0,0,
0,0,0,0,0,1610612881,0,0,0,0,0,0,0,0,0,0,
0,0,0,0,0,0,0,0,0,0,0,0,0,0,0,0,
0,145,124,125,147,0,0,0,0,0,0,0,0,0,0,0
</chunk>
   <chunk x="-64" y="0" width="16" height="16">
0,0,0,0,0,0,0,0,0,0,0,0,0,0,0,0,
0,0,0,0,0,0,0,0,0,0,0,0,0,0,0,0,
0,0,0,0,0,0,0,0,0,0,0,0,0,0,0,0,
0,0,0,0,0,0,0,0,0,0,0,0,0,0,0,0,
0,0,0,0,0,0,0,0,0,0,0,0,0,0,0,0,
0,0,0,0,0,0,0,0,0,0,0,0,0,0,0,0,
0,0,0,0,0,0,0,0,0,0,0,0,0,0,0,0,
0,0,0,0,0,0,0,0,0,0,0,0,0,0,0,0,
0,0,0,0,0,0,0,0,0,0,0,0,0,0,0,0,
0,0,0,0,0,0,0,0,0,0,0,0,0,0,0,121,
0,0,0,0,0,0,0,0,0,0,0,0,0,0,0,133,
0,0,0,0,0,0,0,0,0,0,0,0,0,0,0,133,
0,0,0,0,0,0,0,0,0,0,0,0,0,0,0,145,
0,0,0,0,0,0,0,0,0,0,0,0,0,0,0,0,
0,0,0,0,0,0,0,0,0,0,0,0,0,0,0,0,
0,0,0,0,0,0,0,0,0,0,0,0,0,0,0,0
</chunk>
   <chunk x="-48" y="0" width="16" height="16">
0,0,0,0,0,0,0,0,0,0,0,0,0,0,0,0,
0,0,0,0,0,0,0,0,0,0,0,0,0,0,0,0,
0,0,0,0,0,0,0,0,0,0,0,0,0,0,0,0,
0,0,0,0,0,0,0,0,0,0,0,0,0,0,0,0,
0,0,0,0,0,0,0,121,123,0,0,0,0,0,0,0,
0,0,0,0,0,0,121,112,113,123,0,0,0,0,0,0,
0,0,0,0,0,121,112,125,124,113,123,0,0,0,0,0,
0,0,0,0,0,145,124,113,112,125,147,0,0,0,0,0,
0,0,0,0,0,0,145,124,125,147,0,0,0,0,0,0,
123,0,0,0,0,0,0,145,147,0,0,0,0,0,0,0,
135,0,0,0,0,0,0,0,0,0,0,0,0,0,0,0,
113,122,122,123,0,0,0,0,0,0,0,0,0,0,0,0,
146,124,125,147,0,0,0,0,0,0,0,0,0,0,0,0,
0,145,147,0,0,0,0,0,0,0,0,0,0,0,0,0,
0,0,121,123,0,0,0,0,0,0,0,0,0,0,0,0,
0,121,112,113,123,0,0,0,0,0,0,0,0,0,0,0
</chunk>
   <chunk x="0" y="0" width="16" height="16">
0,0,0,0,0,0,0,0,0,0,0,0,0,0,0,0,
0,0,0,0,0,0,0,0,0,0,0,0,0,0,0,0,
0,0,0,0,0,0,0,0,0,0,0,0,0,0,0,0,
0,0,0,0,0,0,0,0,0,0,0,0,0,0,0,0,
0,0,0,0,0,0,0,0,0,0,0,0,0,0,0,0,
0,0,0,0,0,0,0,0,0,0,0,0,0,0,0,0,
0,0,0,0,0,0,0,0,0,0,0,0,0,0,0,0,
0,0,0,0,0,0,0,0,0,0,0,0,0,0,0,0,
0,0,0,0,0,0,0,0,0,0,0,0,0,0,0,0,
0,0,0,0,0,0,0,0,0,0,0,0,0,0,0,0,
0,0,0,0,0,0,0,0,0,0,0,0,0,0,0,0,
0,0,0,0,0,0,0,0,0,0,0,0,0,0,0,0,
0,0,0,0,0,0,0,0,0,0,0,0,0,0,0,0,
49,50,51,0,0,0,0,0,0,0,0,0,0,0,0,0,
61,98,63,0,0,0,0,0,0,0,0,0,0,0,0,0,
73,74,75,0,0,0,0,0,0,0,0,0,0,0,0,0
</chunk>
   <chunk x="80" y="0" width="16" height="16">
0,0,0,0,0,0,0,0,0,0,0,0,0,135,0,0,
0,0,0,0,0,0,0,0,0,0,0,0,0,135,0,0,
0,0,0,0,0,0,0,0,0,0,0,0,0,135,0,0,
0,0,0,0,0,0,0,0,0,0,0,0,0,135,0,0,
0,0,0,0,0,0,0,0,0,0,0,0,0,135,0,0,
0,0,0,0,0,0,0,0,0,0,0,0,0,135,0,0,
0,0,0,0,0,0,0,0,0,0,0,0,0,135,0,0,
0,0,0,0,0,0,0,0,0,0,0,0,0,135,0,0,
0,0,0,0,0,0,0,0,0,0,0,0,0,135,0,0,
0,0,0,0,0,0,0,0,0,0,0,0,0,135,0,0,
0,0,0,0,0,0,0,0,0,0,0,0,0,113,122,123,
0,0,0,0,0,0,0,0,0,0,0,0,0,125,146,147,
0,0,0,0,0,0,0,0,0,0,0,0,0,147,0,0,
0,0,0,0,0,0,0,0,0,0,0,0,0,0,0,0,
0,0,0,0,0,0,0,0,0,0,0,0,0,0,0,0,
0,0,0,0,0,0,0,0,0,0,0,0,0,0,0,0
</chunk>
   <chunk x="96" y="0" width="16" height="16">
0,0,0,0,0,0,0,0,0,0,0,0,0,121,112,113,
0,0,0,0,0,0,0,0,0,0,0,0,0,145,124,125,
0,0,0,0,0,0,0,0,0,0,0,0,0,0,145,147,
0,0,0,0,0,0,0,0,0,0,0,0,0,0,0,0,
0,0,0,0,0,0,0,0,0,0,0,0,0,0,0,0,
0,0,0,0,0,0,0,0,0,0,0,0,0,0,0,0,
0,0,0,0,0,0,0,0,0,0,0,0,0,0,0,0,
0,0,0,1073741957,1073741958,1073741958,1073741958,1073741958,1073741958,1073741958,1073741958,1073741958,1073741958,1073741959,121,123,
0,0,0,1073741945,1073741946,1073741946,1073741946,1073741946,1073741946,1073741946,1073741946,1073741946,1073741946,1073741947,145,147,
121,123,0,0,0,0,0,0,0,0,0,0,0,0,2147483771,2147483770,
145,147,0,0,0,0,0,0,0,0,0,0,0,0,2147483783,2147483782,
0,0,0,0,0,0,0,0,0,0,0,0,0,0,0,0,
0,0,0,0,0,0,0,0,0,0,0,0,0,0,0,0,
0,0,0,0,0,0,0,0,0,0,0,0,0,0,0,0,
0,0,0,0,0,0,0,0,0,0,0,0,0,0,0,0,
0,0,0,0,0,0,0,0,0,0,0,0,0,0,0,0
</chunk>
   <chunk x="112" y="0" width="16" height="16">
123,0,0,0,0,0,0,0,0,0,0,0,0,0,0,0,
147,0,0,0,0,0,0,0,0,0,0,0,0,0,0,0,
0,0,0,0,0,0,0,0,0,0,0,0,0,0,0,0,
0,0,0,0,0,0,0,0,0,0,0,0,0,0,0,0,
0,0,0,0,0,0,0,0,0,0,0,0,0,0,0,0,
0,0,0,0,0,0,0,0,0,0,0,0,0,0,0,0,
0,0,0,0,0,0,0,0,0,0,0,0,0,0,121,122,
3221225619,3221225618,3221225617,0,0,0,0,145,124,0,0,0,0,0,145,146,
3221225595,3221225594,3221225593,0,0,0,0,0,145,0,0,0,0,0,0,0,
2147483770,2147483770,2147483770,2147483770,2147483770,2147483770,2147483770,2147483770,2147483769,0,0,0,0,0,0,0,
2147483782,2147483782,2147483782,2147483782,2147483782,2147483782,2147483782,2147483782,2147483781,0,0,0,0,0,0,0,
0,0,0,0,0,0,0,0,0,0,0,0,0,0,0,0,
0,0,0,0,0,0,0,0,0,0,0,0,0,0,0,0,
0,0,0,0,0,0,0,0,0,0,0,0,0,0,0,0,
0,0,0,0,0,0,0,0,0,0,0,0,0,0,0,0,
0,0,0,0,0,0,0,0,0,0,0,0,0,0,0,0
</chunk>
   <chunk x="128" y="0" width="16" height="16">
536871034,0,0,0,0,49,86,86,51,0,0,0,0,0,0,0,
536871034,0,0,0,0,97,98,98,99,0,0,0,0,0,0,0,
536871035,0,0,0,0,73,1073741910,1073741910,75,0,0,0,0,0,0,0,
0,0,0,0,0,0,0,0,0,0,0,0,0,0,0,0,
0,0,0,0,0,0,0,0,0,0,0,0,0,0,0,0,
0,0,0,0,0,0,0,0,0,0,0,0,0,0,0,0,
123,0,0,0,0,0,0,0,0,0,0,0,0,0,0,0,
147,0,0,0,0,0,0,0,0,0,0,0,0,0,0,0,
0,0,0,0,0,0,0,0,0,0,0,0,0,123,0,0,
0,0,0,0,0,0,0,0,0,0,0,0,0,135,0,0,
0,0,0,0,0,0,0,0,0,0,0,0,0,135,0,0,
0,0,0,0,0,0,0,0,0,0,0,0,0,135,0,0,
0,0,0,0,0,0,0,0,0,0,0,0,0,135,0,0,
0,0,0,0,0,0,0,0,0,0,0,0,0,135,0,0,
0,0,0,0,0,0,0,0,121,0,0,0,0,135,0,0,
0,0,0,0,121,123,0,0,145,146,146,146,146,147,0,0
</chunk>
   <chunk x="144" y="0" width="16" height="16">
0,0,0,121,123,0,0,0,0,0,0,0,0,0,0,0,
0,0,0,145,147,0,0,0,0,0,0,0,0,0,0,0,
121,122,122,122,122,122,122,122,122,122,122,122,123,0,0,0,
133,0,0,0,0,0,0,0,0,0,0,0,0,0,1073741969,1073741971,
133,0,0,0,0,0,0,0,0,0,0,0,0,1073741969,1073741948,1073741949,
133,0,0,0,0,0,0,0,0,0,0,0,0,536871024,536871037,1073741936,
133,0,0,0,0,0,0,0,0,0,0,0,0,536871047,536871059,1073741945,
133,0,0,0,0,0,0,0,0,0,0,0,0,0,0,0,
133,0,0,0,0,0,0,0,0,0,0,0,0,0,0,0,
145,0,0,0,0,0,0,0,0,0,0,0,0,0,0,0,
0,0,0,0,0,0,0,0,0,0,0,0,0,0,0,0,
0,0,0,0,0,0,0,0,0,0,0,0,0,0,0,0,
0,0,0,0,0,0,0,0,0,0,0,0,0,0,0,0,
0,0,0,0,0,0,0,0,0,0,0,0,0,0,0,0,
0,0,0,0,0,0,0,0,0,0,0,0,0,0,0,0,
0,0,0,0,0,0,0,0,0,0,0,0,0,0,0,0
</chunk>
   <chunk x="160" y="0" width="16" height="16">
0,0,145,147,0,0,0,0,0,0,0,0,0,0,0,0,
0,0,0,0,0,0,0,0,0,0,0,0,0,0,0,0,
0,0,0,0,0,0,0,0,0,0,0,0,0,0,0,0,
0,0,0,0,0,0,0,0,0,0,0,0,0,0,0,0,
1073741971,0,0,0,0,0,0,0,0,0,0,0,0,0,0,0,
1073741959,0,0,0,0,0,0,0,0,0,0,0,0,0,0,0,
1073741947,0,0,0,0,0,0,0,0,0,0,0,0,0,0,0,
0,0,0,0,0,0,0,0,0,0,0,0,0,0,0,0,
0,0,0,0,0,0,0,0,0,0,0,0,0,0,0,0,
0,0,0,0,0,0,0,0,0,0,0,0,0,0,0,0,
0,0,0,0,0,0,0,0,0,0,0,0,0,0,0,0,
0,0,0,0,0,0,0,0,0,0,0,0,0,0,0,0,
0,0,0,0,0,0,0,0,0,0,0,0,0,0,0,0,
0,0,0,0,0,0,0,0,0,0,0,0,0,0,0,0,
0,0,0,0,0,0,0,0,0,0,0,0,0,0,0,0,
0,0,0,0,121,123,0,0,0,0,0,0,0,0,0,0
</chunk>
   <chunk x="-64" y="16" width="16" height="16">
0,0,0,0,0,0,0,0,0,0,0,0,88,89,90,91,
0,0,0,0,0,0,0,0,0,0,0,0,100,101,102,103,
0,0,0,0,0,0,0,0,0,0,0,0,0,0,0,0,
0,0,0,0,0,0,0,0,0,0,0,0,0,0,0,0,
0,0,0,0,0,0,0,0,0,0,0,0,0,0,0,0,
0,0,0,0,0,0,0,0,0,0,0,0,0,0,0,0,
0,0,0,0,0,0,0,0,0,0,0,0,0,0,0,0,
0,0,0,0,0,0,0,0,0,0,0,0,0,0,0,0,
0,0,0,0,0,0,0,0,0,0,0,0,0,0,0,0,
0,0,0,0,0,0,0,0,0,0,0,0,0,0,0,0,
0,0,0,0,0,0,0,0,0,0,0,0,0,0,0,0,
0,0,0,0,0,0,0,0,0,0,0,0,0,0,0,0,
0,0,0,0,0,0,0,0,0,0,0,0,0,0,0,0,
0,0,0,0,0,0,0,0,0,0,0,0,0,0,0,0,
0,0,0,0,0,0,0,0,0,0,0,0,0,0,0,0,
0,0,0,0,0,0,0,0,0,0,0,0,0,0,0,0
</chunk>
   <chunk x="-48" y="16" width="16" height="16">
92,145,124,125,147,0,0,0,0,0,0,0,0,0,0,0,
104,0,145,147,0,0,0,0,0,0,0,0,0,0,0,0,
0,0,0,0,0,0,0,0,0,0,0,0,0,0,0,0,
0,0,0,0,0,0,0,0,0,0,0,0,0,0,0,0,
0,0,0,0,0,0,0,0,0,0,0,0,0,0,0,0,
0,0,0,0,0,0,0,0,0,0,0,0,0,0,0,0,
0,0,0,0,0,0,0,0,0,0,0,0,0,0,0,0,
0,0,0,0,0,0,0,0,0,0,0,0,0,0,0,0,
0,0,0,0,0,0,0,0,0,0,0,0,0,0,0,0,
0,0,0,0,0,0,0,0,0,0,0,0,0,0,0,0,
0,0,0,0,0,0,0,0,0,0,0,0,0,0,0,0,
0,0,0,0,0,0,0,0,0,0,0,0,0,0,0,0,
0,0,0,0,0,0,0,0,0,0,0,0,0,0,0,0,
0,0,0,0,0,0,0,0,0,0,0,0,0,0,0,0,
0,0,0,0,0,0,0,0,0,0,0,0,0,0,0,0,
0,0,0,0,0,0,0,0,0,0,0,0,0,0,0,0
</chunk>
   <chunk x="80" y="16" width="16" height="16">
0,0,0,0,0,0,0,0,0,0,0,0,0,0,0,0,
0,0,0,0,0,0,0,0,0,0,0,0,0,0,0,0,
0,0,0,0,0,0,0,0,0,0,0,0,0,0,0,0,
0,0,0,0,0,0,0,0,0,0,0,0,0,0,0,0,
0,0,0,0,0,0,0,0,0,0,0,0,0,0,0,0,
0,0,0,0,0,0,0,0,0,0,0,0,0,0,121,122,
0,0,0,0,0,0,0,0,0,0,0,0,0,0,145,146,
0,0,0,0,0,0,0,0,0,0,0,0,0,3758096519,3758096507,0,
0,0,0,0,0,0,0,0,0,0,0,0,0,3758096518,3758096506,0,
0,0,0,0,0,0,0,0,0,0,0,0,0,3758096518,3758096506,0,
0,0,0,0,0,0,0,0,0,0,0,0,0,134,113,123,
0,0,0,0,0,0,0,0,0,0,0,0,0,0,0,0,
0,0,0,0,0,0,0,0,0,0,0,0,0,0,0,0,
0,0,0,0,0,0,0,0,0,0,0,0,0,0,0,0,
0,0,0,0,0,0,0,0,0,0,0,0,0,0,0,0,
0,0,0,0,0,0,0,0,0,0,0,0,0,0,0,0
</chunk>
   <chunk x="96" y="16" width="16" height="16">
0,0,0,0,0,0,0,0,0,0,0,0,0,121,122,123,
0,0,0,0,0,0,0,0,0,0,0,0,0,145,146,147,
0,0,0,0,0,0,121,123,0,0,0,0,0,0,0,0,
0,0,0,0,0,121,112,113,123,0,0,0,0,0,0,0,
0,0,0,0,0,145,124,125,147,0,0,0,0,0,0,0,
123,0,0,0,0,0,145,147,0,0,0,0,0,0,0,0,
147,0,0,0,0,0,0,0,0,0,0,0,0,0,0,0,
0,0,0,0,0,3758096507,0,0,0,0,0,0,0,0,0,0,
0,0,0,0,0,3758096506,0,0,0,0,0,0,0,0,0,0,
0,0,0,0,0,3758096506,0,0,1610612859,0,0,0,0,0,0,0,
0,0,0,0,0,113,2147483770,2147483770,1610612849,0,0,0,0,0,0,0,
0,0,0,0,0,0,0,0,0,0,0,0,0,0,0,0,
0,0,0,0,0,0,0,0,0,0,0,0,0,0,121,123,
0,0,0,0,0,0,0,0,0,0,0,0,0,0,145,147,
0,0,0,0,0,0,0,0,0,0,0,0,0,0,0,0,
0,0,0,0,0,0,0,0,0,0,0,0,0,0,0,0
</chunk>
   <chunk x="112" y="16" width="16" height="16">
0,0,0,0,0,0,0,0,0,0,0,0,0,0,0,0,
0,0,0,0,0,0,0,0,0,0,0,0,0,0,0,0,
0,0,0,0,0,0,0,0,0,0,0,0,0,0,0,0,
0,0,0,0,0,0,0,0,0,0,0,0,0,0,0,0,
0,0,0,0,0,0,0,0,0,0,0,0,0,0,0,0,
0,0,0,0,0,0,0,0,0,0,0,0,0,0,0,0,
0,0,0,0,0,0,0,0,0,0,0,0,0,0,0,0,
0,0,0,0,0,125,146,146,124,0,0,0,0,0,0,0,
0,0,0,0,0,147,0,0,133,0,0,0,0,0,0,0,
0,0,0,0,0,0,0,0,133,0,0,0,0,0,0,0,
0,0,0,0,0,0,0,0,145,0,0,0,0,122,122,122,
0,0,0,0,0,0,0,0,0,0,0,0,0,0,0,0,
0,0,0,0,0,0,0,0,0,0,0,0,0,0,0,0,
0,0,0,0,0,0,0,0,0,0,0,0,0,0,0,0,
0,0,0,0,0,0,0,0,0,0,0,0,0,0,0,0,
0,0,0,0,0,0,0,0,0,0,0,0,0,0,0,0
</chunk>
   <chunk x="128" y="16" width="16" height="16">
0,0,0,0,145,147,0,0,0,0,0,0,0,0,121,122,
0,0,0,0,0,0,0,0,0,0,0,0,0,0,145,146,
0,0,0,0,0,0,0,0,0,0,0,0,0,0,0,0,
0,0,0,0,0,0,0,0,0,0,0,0,0,0,0,0,
0,0,0,0,0,0,0,0,0,0,0,0,0,0,0,0,
0,0,0,0,0,0,0,0,0,0,0,0,0,0,0,0,
0,0,0,0,0,0,0,0,0,0,0,0,0,0,0,0,
0,0,0,0,0,0,0,0,133,0,0,0,0,0,0,0,
0,0,0,0,0,0,0,0,133,0,0,0,0,0,0,0,
0,0,0,0,0,0,0,0,133,0,0,0,0,0,0,0,
122,122,122,122,122,122,2147483770,2147483770,1610612849,0,0,0,0,0,0,0,
0,0,0,0,0,0,0,0,0,0,0,0,0,0,0,0,
0,0,0,0,0,0,0,0,0,0,0,0,0,0,0,0,
0,0,0,0,0,0,0,0,0,0,0,0,0,0,121,123,
0,0,0,0,0,0,0,0,0,0,0,0,0,0,145,147,
0,0,0,0,0,1610612857,1610612869,1610612869,1610612869,1610612869,1610612869,1610612869,1610612881,0,0,0
</chunk>
   <chunk x="144" y="16" width="16" height="16">
123,0,0,0,0,0,0,0,0,0,0,0,0,0,0,0,
147,0,0,0,0,0,0,0,0,0,0,0,0,0,0,0,
0,0,0,0,0,0,0,0,0,0,0,0,0,0,0,0,
0,0,0,0,0,0,0,0,0,0,0,0,0,0,0,0,
0,0,0,0,0,0,0,0,0,0,0,0,0,0,0,0,
0,0,0,0,0,0,0,0,0,0,0,0,0,0,0,0,
0,0,0,0,0,0,0,0,0,0,0,0,0,0,0,0,
0,0,0,0,0,125,146,146,146,146,147,121,123,145,146,146,
0,0,0,0,0,135,0,0,0,121,123,133,113,122,122,122,
0,0,0,0,0,135,0,0,0,145,147,145,146,146,124,134,
0,0,0,0,0,113,122,122,122,122,122,122,122,123,145,146,
0,0,0,0,0,0,0,0,0,0,0,0,0,135,0,0,
0,0,0,0,0,0,0,0,0,0,0,0,0,135,0,0,
0,0,0,0,0,0,0,0,0,0,0,0,0,135,0,0,
0,0,0,0,0,0,0,0,0,0,0,0,0,135,0,0,
0,0,0,0,0,0,0,0,0,0,0,0,0,135,0,0
</chunk>
   <chunk x="160" y="16" width="16" height="16">
0,0,0,0,145,147,0,0,0,0,0,0,0,0,0,0,
0,0,0,0,0,0,0,0,0,0,0,0,0,0,0,0,
0,0,0,0,0,0,0,0,0,0,0,0,0,0,0,0,
0,0,0,0,0,0,0,0,0,0,0,0,0,0,0,0,
0,0,0,0,0,0,0,0,0,0,0,0,0,0,0,0,
0,0,0,0,0,0,0,0,0,0,0,0,0,0,0,0,
0,0,0,0,0,0,0,0,0,0,0,0,0,0,0,0,
146,0,0,0,0,0,0,0,0,0,0,0,0,0,0,0,
123,0,0,0,0,0,0,0,0,0,0,0,0,0,0,0,
135,0,0,0,0,0,0,0,0,0,0,0,0,0,0,0,
147,0,0,0,0,0,0,0,0,0,0,0,0,0,0,0,
0,0,0,0,0,0,0,0,0,0,0,0,0,0,0,0,
0,0,0,0,0,0,0,0,0,0,0,0,0,0,0,0,
0,0,0,0,0,0,0,0,0,0,0,0,0,0,0,0,
0,0,0,0,0,0,0,0,0,0,0,0,0,0,0,0,
0,0,0,0,0,0,0,0,0,0,0,0,0,0,0,0
</chunk>
   <chunk x="96" y="32" width="16" height="16">
0,0,0,0,0,0,0,0,121,122,123,0,0,0,0,0,
0,0,0,0,0,0,0,0,145,146,147,0,0,0,0,0,
0,0,0,0,0,0,0,0,0,0,0,0,0,2147483771,2147483770,2147483770,
0,0,0,0,0,0,0,0,0,0,0,0,0,0,0,0,
0,0,0,0,0,0,0,0,0,0,0,0,0,0,0,0,
0,0,0,0,0,0,0,0,0,0,0,0,0,0,0,0,
0,0,0,0,0,0,0,0,0,0,0,0,0,0,0,0,
0,0,0,0,0,0,0,0,0,0,0,0,0,0,0,0,
0,0,0,0,0,0,0,0,0,0,0,0,0,0,0,0,
0,0,0,0,0,0,0,0,0,0,0,0,0,0,0,0,
0,0,0,0,0,0,0,0,0,0,0,0,0,0,0,0,
0,0,0,0,0,0,0,0,0,0,0,0,0,0,0,0,
0,0,0,0,0,0,0,0,0,0,0,0,0,0,0,0,
0,0,0,0,0,0,0,0,0,0,0,0,0,0,0,0,
0,0,0,0,0,0,0,0,0,0,0,0,0,0,0,0,
0,0,0,0,0,0,0,0,0,0,0,0,0,0,0,0
</chunk>
   <chunk x="112" y="32" width="16" height="16">
0,0,0,0,0,0,0,0,0,0,0,0,0,0,0,0,
1610612859,0,0,0,0,0,0,0,0,0,0,0,0,0,0,0,
1610612849,0,0,0,0,0,0,0,0,0,0,0,0,0,0,0,
0,0,0,0,0,0,0,0,0,0,0,0,0,0,0,0,
0,0,0,0,0,0,0,0,0,0,0,0,0,0,0,0,
0,0,0,0,0,0,0,0,0,0,0,0,0,0,0,0,
0,0,0,0,0,0,0,0,0,0,0,0,0,0,0,0,
0,0,0,0,0,0,0,0,0,0,0,0,0,0,0,0,
0,0,0,0,0,0,0,0,0,0,0,0,0,0,0,0,
0,0,0,0,0,0,0,0,0,0,0,0,0,0,0,0,
0,0,0,0,0,0,0,0,0,0,0,0,0,0,0,0,
0,0,0,0,0,0,0,0,0,0,0,0,0,0,0,0,
0,0,0,0,0,0,0,0,0,0,0,0,0,0,0,0,
0,0,0,0,0,0,0,0,0,0,0,0,0,0,0,0,
0,0,0,0,0,0,0,0,0,0,0,0,0,0,0,0,
0,0,0,0,0,0,0,0,0,0,0,0,0,0,0,0
</chunk>
   <chunk x="128" y="32" width="16" height="16">
0,0,0,0,0,0,0,0,0,0,0,0,0,0,0,0,
121,123,0,0,0,0,0,0,0,0,0,0,0,0,0,0,
145,147,0,0,0,0,0,0,0,0,0,0,0,0,0,0,
0,0,0,0,0,0,0,0,0,0,0,0,0,0,0,0,
0,0,0,0,0,0,0,0,0,0,0,0,0,0,0,0,
0,0,0,0,0,0,0,0,0,0,0,0,0,0,0,0,
0,0,0,0,0,0,0,0,0,0,0,0,0,0,0,0,
0,0,0,0,0,0,0,0,0,0,0,0,0,0,0,0,
0,0,0,0,0,0,0,0,0,0,0,0,0,0,0,0,
0,0,0,0,0,0,0,0,0,0,0,0,0,0,0,0,
0,0,0,0,0,0,0,0,0,0,0,0,0,0,0,0,
0,0,0,0,0,0,0,0,0,0,0,0,0,0,0,0,
0,0,0,0,0,0,0,0,0,0,0,0,0,0,0,0,
0,0,0,0,0,0,0,0,0,0,0,0,0,0,0,0,
0,0,0,0,0,0,0,0,0,0,0,0,0,0,0,0,
0,0,0,0,0,0,0,0,0,0,0,0,0,0,0,0
</chunk>
   <chunk x="144" y="32" width="16" height="16">
0,0,0,0,0,0,0,0,0,0,0,0,0,135,0,0,
0,0,0,0,0,0,0,0,0,0,0,0,0,135,0,3221225619,
0,0,0,0,0,0,0,0,0,0,0,0,0,135,3221225619,3221225597,
0,0,0,0,0,0,0,0,0,0,0,0,0,0,0,0,
0,0,0,0,0,0,0,0,0,0,0,0,0,0,0,0,
0,0,0,0,0,0,0,0,0,0,0,0,0,0,0,0,
0,0,0,0,0,0,0,0,0,0,0,0,0,0,0,0,
0,0,0,0,0,0,0,0,0,0,0,0,0,0,0,0,
0,0,0,0,0,0,0,0,0,0,0,0,0,0,0,0,
0,0,0,0,0,0,0,0,0,0,0,0,0,0,0,0,
0,0,0,0,0,0,0,0,0,0,0,0,0,0,0,0,
0,0,0,0,0,0,0,0,0,0,0,0,0,0,0,0,
0,0,0,0,0,0,0,0,0,0,0,0,0,0,0,0,
0,0,0,0,0,0,0,0,0,0,0,0,0,0,0,0,
0,0,0,0,0,0,0,0,0,0,0,0,0,0,0,0,
0,0,0,0,0,0,0,0,0,0,0,0,0,0,0,0
</chunk>
   <chunk x="160" y="32" width="16" height="16">
0,0,0,0,0,121,123,0,0,0,0,0,0,0,0,0,
3221225617,3221225619,3221225617,0,0,145,147,0,0,0,0,0,0,0,0,0,
1610612861,3221225597,3221225596,3221225617,0,0,0,0,0,0,0,0,0,0,0,0,
0,0,0,0,0,0,0,0,0,0,0,0,0,0,0,0,
0,0,0,0,0,0,0,0,0,0,0,0,0,0,0,0,
0,0,0,0,0,0,0,0,0,0,0,0,0,0,0,0,
0,0,0,0,0,0,0,0,0,0,0,0,0,0,0,0,
0,0,0,0,0,0,0,0,0,0,0,0,0,0,0,0,
0,0,0,0,0,0,0,0,0,0,0,0,0,0,0,0,
0,0,0,0,0,0,0,0,0,0,0,0,0,0,0,0,
0,0,0,0,0,0,0,0,0,0,0,0,0,0,0,0,
0,0,0,0,0,0,0,0,0,0,0,0,0,0,0,0,
0,0,0,0,0,0,0,0,0,0,0,0,0,0,0,0,
0,0,0,0,0,0,0,0,0,0,0,0,0,0,0,0,
0,0,0,0,0,0,0,0,0,0,0,0,0,0,0,0,
0,0,0,0,0,0,0,0,0,0,0,0,0,0,0,0
</chunk>
  </data>
 </layer>
 <layer id="7" name="objects" width="30" height="20">
  <data encoding="csv">
   <chunk x="80" y="-48" width="16" height="16">
0,0,0,0,0,0,0,0,0,0,0,0,0,0,0,0,
0,0,0,0,0,0,0,0,0,0,0,0,0,0,0,0,
0,0,0,0,0,0,0,0,0,0,0,0,0,0,0,0,
0,0,0,0,0,0,0,0,0,0,0,0,0,0,0,0,
0,0,0,0,0,0,0,0,0,0,0,0,0,0,0,0,
0,0,0,0,0,0,0,0,0,0,0,0,0,0,0,0,
0,0,0,0,0,0,0,0,0,0,0,0,0,9,0,0,
0,0,0,0,0,0,0,0,0,0,0,0,0,21,76,77,
0,0,0,0,0,0,0,0,0,0,0,0,0,0,0,0,
0,0,0,0,0,0,0,0,0,0,0,0,0,0,0,0,
0,0,0,0,0,0,0,0,0,0,0,0,0,0,0,0,
0,0,0,0,0,0,0,0,0,0,0,0,0,0,0,0,
0,0,0,0,0,0,0,0,0,0,0,0,0,0,0,0,
0,0,0,0,0,0,0,0,0,0,0,0,0,0,0,0,
0,0,0,0,0,0,0,0,0,0,0,0,0,0,0,0,
0,0,0,0,0,0,0,0,0,0,0,0,0,0,0,0
</chunk>
   <chunk x="96" y="-48" width="16" height="16">
0,0,0,0,0,0,0,0,0,0,0,0,0,0,0,0,
0,0,0,0,0,0,0,0,0,0,0,0,0,0,0,0,
0,0,0,0,0,0,0,0,0,0,0,0,0,0,0,0,
0,0,0,0,0,0,0,0,0,0,0,0,0,0,0,0,
0,0,0,0,0,0,0,0,0,0,0,0,0,0,0,0,
0,0,0,0,0,0,0,0,0,0,0,0,0,0,0,0,
0,0,0,0,0,0,0,0,0,0,0,0,0,0,0,0,
0,0,0,0,0,0,0,0,0,0,0,0,0,0,0,0,
0,0,0,9,0,0,0,0,0,0,0,0,0,0,0,0,
0,0,0,21,0,0,0,0,0,0,0,0,0,0,0,0,
0,0,0,0,0,0,0,9,0,0,0,0,0,0,0,0,
0,0,0,0,0,0,0,21,0,0,0,0,0,0,0,0,
0,0,0,0,0,0,0,0,0,0,0,0,0,0,0,0,
0,0,0,0,0,0,0,0,0,0,0,0,0,0,0,0,
0,0,0,0,0,0,0,0,0,0,0,0,0,0,0,0,
0,0,0,0,0,0,0,0,0,0,0,0,0,0,0,0
</chunk>
   <chunk x="112" y="-48" width="16" height="16">
0,0,0,0,0,0,0,0,0,0,0,0,0,0,0,0,
0,0,0,0,0,0,0,0,0,0,0,0,0,0,0,0,
0,0,0,0,0,0,0,0,0,0,0,0,0,0,0,0,
0,0,0,0,0,0,0,0,0,0,0,0,0,0,0,0,
0,0,0,0,0,0,0,0,0,0,0,0,0,0,0,0,
0,0,0,0,0,0,0,0,0,0,0,0,0,0,0,0,
9,0,0,0,0,0,0,0,0,0,0,0,0,0,0,0,
21,0,0,0,0,0,0,0,0,0,0,0,0,0,0,0,
0,0,0,0,0,0,0,0,0,0,0,0,0,0,0,0,
0,0,9,0,0,0,0,52,53,0,0,0,0,0,0,0,
0,0,21,0,0,0,0,64,65,0,0,0,0,0,0,0,
0,0,0,0,0,0,0,0,0,0,0,0,0,0,0,0,
0,0,0,0,0,0,0,0,0,0,0,0,0,0,0,0,
0,0,0,0,0,0,0,0,0,0,0,0,0,0,0,0,
0,0,0,0,0,0,0,0,0,0,0,0,0,0,0,0,
0,0,0,0,0,0,0,0,0,0,0,0,0,0,0,0
</chunk>
   <chunk x="128" y="-48" width="16" height="16">
0,0,0,0,0,0,0,0,0,0,0,0,0,0,0,0,
0,0,0,0,0,0,0,0,0,0,0,0,0,0,0,0,
0,0,0,0,0,0,0,0,0,0,0,0,0,0,0,0,
0,0,0,0,0,0,0,0,0,0,0,0,0,0,0,0,
0,0,0,0,0,0,0,0,0,0,0,0,0,0,0,0,
0,0,0,0,0,0,0,0,0,0,0,0,0,0,0,0,
0,0,0,0,0,0,0,0,0,0,0,0,0,0,0,0,
0,0,0,0,0,0,0,0,0,0,0,0,0,18,19,19,
0,0,0,0,0,0,0,0,0,0,0,0,0,66,67,68,
0,0,0,0,0,0,0,0,0,0,0,0,0,78,79,80,
0,0,0,0,0,0,0,0,0,0,0,0,0,18,19,19,
0,0,0,0,0,0,0,0,0,0,0,0,0,0,0,0,
0,0,0,0,0,0,0,0,0,0,0,0,0,0,0,0,
0,0,0,0,0,0,0,0,0,0,0,0,0,0,0,0,
0,0,0,0,0,0,0,0,0,0,0,0,0,0,0,0,
0,0,0,0,0,0,0,0,0,0,0,0,0,0,0,0
</chunk>
   <chunk x="144" y="-48" width="16" height="16">
0,0,0,0,0,0,0,0,0,0,0,0,0,0,0,0,
0,0,0,0,0,0,0,0,0,0,0,0,0,0,0,0,
0,0,0,0,0,0,0,0,0,0,0,0,0,0,0,0,
0,0,0,0,0,0,0,0,0,0,0,0,0,0,0,0,
0,0,0,0,0,0,0,0,0,0,0,0,0,0,0,0,
0,0,0,0,0,0,0,0,0,0,0,0,0,0,0,0,
0,0,0,0,0,0,0,0,0,0,0,0,0,0,0,0,
19,20,0,0,0,0,0,0,0,0,0,0,0,0,0,0,
69,70,0,0,0,0,0,0,0,0,0,0,0,0,0,0,
81,82,0,0,0,0,0,0,0,0,0,0,0,0,0,0,
19,20,0,0,0,0,0,0,0,0,0,0,0,0,0,0,
0,0,0,0,0,0,0,0,0,0,0,0,0,0,0,0,
0,0,0,0,0,0,0,0,0,0,0,0,0,0,0,0,
0,0,0,0,0,0,0,0,0,0,0,0,0,0,0,0,
0,0,0,0,0,0,0,0,0,0,0,0,0,0,0,0,
0,0,0,0,0,0,0,0,0,0,0,0,0,0,0,0
</chunk>
   <chunk x="-48" y="-32" width="16" height="16">
0,0,0,0,0,0,0,0,0,0,0,0,0,0,0,0,
0,0,0,0,0,0,0,0,0,0,0,0,0,0,0,0,
0,0,0,0,0,0,0,0,0,0,0,0,0,0,0,0,
0,0,0,0,0,0,0,0,0,0,0,0,0,0,0,0,
0,0,0,0,0,0,0,0,0,0,0,0,0,0,0,0,
0,0,0,0,0,0,0,0,0,0,0,0,0,0,0,0,
0,0,0,0,0,0,0,0,0,0,9,0,0,0,0,0,
0,0,0,0,0,0,0,0,0,0,21,0,0,0,0,0,
0,0,0,0,0,0,0,0,0,0,0,0,0,0,0,0,
0,0,0,0,0,0,0,0,0,0,0,0,0,0,0,0,
0,0,0,0,0,0,0,0,0,0,0,0,0,0,0,0,
0,0,0,0,0,0,0,0,0,0,0,0,0,0,0,0,
0,0,0,0,0,0,0,0,0,0,0,0,0,0,0,0,
0,0,0,0,0,0,0,0,0,0,0,0,0,0,0,0,
0,0,0,0,0,0,0,0,0,0,0,0,0,0,0,0,
0,0,0,0,0,0,0,0,0,0,0,0,0,0,0,0
</chunk>
   <chunk x="-32" y="-32" width="16" height="16">
0,0,0,0,0,0,0,0,0,0,0,0,0,0,0,0,
0,0,0,0,0,0,0,0,0,0,0,0,0,0,0,0,
0,0,0,0,0,0,0,0,0,0,0,0,0,0,0,0,
0,0,0,0,0,0,0,0,0,0,0,0,0,0,0,0,
0,0,0,0,0,0,0,0,0,0,0,0,0,0,0,0,
0,0,0,0,0,0,0,0,0,0,0,0,0,0,0,0,
0,0,0,0,0,0,0,0,0,0,0,0,0,0,0,0,
0,0,0,0,0,0,0,0,0,0,0,0,0,0,0,0,
0,0,0,0,0,0,0,0,0,0,0,0,0,0,0,0,
0,0,0,0,0,0,0,0,0,0,0,0,0,0,0,0,
0,0,0,0,0,0,0,0,0,0,0,0,0,0,0,0,
0,0,0,0,0,0,0,0,0,0,0,0,0,0,0,0,
0,0,0,0,0,0,0,0,0,0,0,0,0,0,0,0,
0,0,0,0,0,0,0,0,0,0,0,0,0,0,0,0,
0,0,0,0,0,0,0,0,0,0,0,0,0,0,0,0,
0,0,0,9,0,0,0,0,0,0,0,0,0,0,0,0
</chunk>
   <chunk x="32" y="-32" width="16" height="16">
0,0,0,0,0,0,0,0,0,0,0,0,0,0,0,0,
0,0,0,0,0,0,0,0,0,0,0,0,0,0,0,0,
0,0,0,0,0,0,0,0,0,0,0,0,0,0,0,0,
0,0,0,0,0,0,0,0,0,0,0,0,0,0,0,0,
0,0,0,0,0,0,0,0,0,0,0,0,0,0,0,0,
0,0,0,0,0,0,0,0,0,0,0,0,0,0,0,0,
0,0,0,0,0,0,0,0,0,0,0,0,0,0,0,0,
0,0,0,0,0,0,0,0,0,0,0,0,0,0,0,0,
0,0,0,0,0,0,0,0,0,0,0,0,0,0,0,0,
0,0,0,0,0,0,0,0,0,0,0,0,0,0,0,0,
0,0,0,0,0,0,0,0,0,0,0,0,0,0,0,0,
0,0,0,0,0,0,9,0,0,0,0,0,0,0,0,0,
0,0,0,0,0,9,21,0,0,0,0,0,0,0,0,0,
0,0,0,0,0,21,1073741879,1073741879,1073741879,0,0,0,0,0,0,0,
0,0,0,0,0,0,55,43,43,1073741879,0,0,0,0,0,0,
0,0,0,0,0,0,0,55,55,43,1073741879,1073741879,0,0,0,0
</chunk>
   <chunk x="48" y="-32" width="16" height="16">
0,0,0,0,0,0,0,0,0,0,0,0,0,0,0,0,
0,0,0,0,0,0,0,0,0,0,0,0,0,0,0,0,
0,0,0,0,0,0,0,0,0,0,0,0,0,0,0,0,
0,0,0,0,0,0,0,0,0,0,0,0,0,0,0,0,
0,0,0,0,0,0,0,0,0,0,0,0,0,0,0,0,
0,0,0,0,0,0,0,0,0,0,0,0,0,0,0,0,
0,0,0,0,0,0,0,0,0,0,0,0,0,0,0,0,
0,0,0,0,0,0,0,0,0,0,0,0,0,0,0,0,
0,0,0,0,0,0,0,0,0,0,0,0,0,0,0,0,
0,0,0,0,0,0,0,0,0,0,0,0,0,0,0,0,
0,0,0,0,0,0,0,0,0,0,0,0,0,0,0,0,
0,0,0,0,0,0,0,9,0,0,0,0,0,0,0,0,
0,0,0,0,0,0,0,21,9,0,0,0,0,0,0,0,
0,0,0,0,0,1073741879,1073741879,1073741879,21,0,0,0,0,0,0,0,
0,0,0,0,1073741879,43,43,55,0,0,0,0,0,0,0,0,
0,0,1073741879,1073741879,43,55,55,0,0,0,0,0,0,0,0,0
</chunk>
   <chunk x="-32" y="-16" width="16" height="16">
0,0,0,21,0,0,0,0,0,0,0,0,0,0,0,0,
0,0,0,0,0,0,0,0,0,0,0,0,0,0,0,0,
0,0,0,0,0,0,0,0,0,0,0,0,0,0,0,0,
0,0,0,0,0,0,0,0,0,0,0,0,0,0,0,0,
0,0,0,0,0,0,0,0,0,0,0,0,0,0,0,0,
0,0,0,0,0,0,0,0,0,0,0,0,0,0,0,0,
0,0,0,0,0,0,0,0,0,0,0,0,0,0,0,0,
0,0,0,0,0,0,0,0,0,0,0,0,0,0,0,0,
0,0,0,0,0,0,0,0,0,0,0,0,0,0,0,0,
0,0,0,0,0,0,0,0,0,0,0,0,0,0,0,0,
0,0,0,0,0,0,0,0,0,0,0,0,0,0,0,0,
0,0,0,0,0,0,0,0,0,0,0,0,0,0,0,0,
0,0,0,0,0,0,0,0,0,0,0,0,0,0,0,0,
0,0,0,0,0,0,0,0,0,0,0,0,0,0,0,0,
0,0,0,0,0,0,0,0,0,0,0,0,0,0,0,0,
0,0,0,0,0,0,0,0,0,0,0,0,0,0,0,0
</chunk>
   <chunk x="32" y="-16" width="16" height="16">
0,0,0,0,0,0,0,0,0,55,55,43,1073741879,1073741879,0,0,
0,0,0,0,0,0,0,0,0,0,0,55,55,43,0,0,
0,0,0,0,0,0,0,0,0,0,0,0,0,55,0,0,
0,0,0,0,0,0,0,0,0,0,0,0,0,0,0,0,
0,0,0,0,0,0,0,0,0,0,0,0,0,0,0,0,
0,0,0,0,0,0,0,0,0,0,0,0,0,0,0,0,
0,0,0,0,0,0,0,0,0,0,0,0,0,0,0,0,
0,0,0,0,0,0,0,0,0,0,0,0,0,0,0,0,
0,0,0,0,0,0,0,0,0,0,0,0,0,0,0,0,
0,0,0,0,0,0,0,0,0,0,0,0,0,0,0,0,
0,0,0,0,0,0,0,0,0,0,0,0,0,0,0,0,
0,0,0,0,0,0,0,0,0,0,0,0,0,0,0,0,
0,0,0,0,0,0,0,0,0,0,0,0,0,0,0,0,
0,0,0,0,0,0,0,0,0,0,0,0,0,0,0,0,
0,0,0,0,0,0,0,0,0,0,0,0,0,0,0,0,
0,0,0,0,0,0,0,0,0,0,0,0,0,0,0,0
</chunk>
   <chunk x="48" y="-16" width="16" height="16">
1073741879,1073741879,43,55,55,0,0,0,0,0,0,0,0,0,0,0,
43,55,55,0,0,0,0,0,0,0,0,0,0,0,0,0,
55,0,0,0,0,0,0,0,0,0,0,0,0,0,0,0,
0,0,0,0,0,0,0,0,0,0,0,0,0,0,0,0,
0,0,0,0,0,0,0,0,0,0,0,0,0,0,0,0,
0,0,0,0,0,0,0,0,0,0,0,0,0,0,0,0,
0,0,0,0,0,0,0,0,0,0,0,0,0,0,0,0,
0,0,0,0,0,0,0,0,0,0,0,0,0,0,0,0,
0,0,0,0,0,0,0,0,0,0,0,0,0,0,0,0,
0,0,93,94,0,0,0,0,0,0,0,0,0,0,0,0,
0,9,107,108,0,0,0,0,0,0,0,0,0,0,0,0,
0,21,119,120,0,0,0,0,0,0,0,0,0,0,0,0,
0,0,0,0,0,0,0,0,0,0,0,0,0,0,0,0,
0,0,0,0,0,0,0,0,0,0,0,0,0,0,0,0,
0,0,0,0,0,0,0,0,0,0,0,0,0,0,0,0,
0,0,0,0,0,0,0,0,0,0,0,0,0,0,0,0
</chunk>
   <chunk x="128" y="-16" width="16" height="16">
0,0,0,0,0,0,0,0,0,0,0,0,0,0,0,0,
0,0,0,0,0,0,0,0,0,0,0,0,0,0,0,0,
0,0,0,0,0,0,0,0,0,0,0,0,0,0,0,0,
0,0,0,0,0,0,0,0,0,0,0,0,0,0,0,0,
0,0,0,0,0,0,0,0,0,0,0,0,0,0,0,0,
0,0,0,0,0,0,0,0,0,0,0,0,0,0,0,0,
0,0,0,0,0,0,0,0,0,0,0,0,0,0,0,0,
0,0,0,0,0,0,0,0,0,0,0,0,0,0,0,0,
0,0,0,0,0,0,0,0,0,0,0,0,0,0,0,0,
0,0,0,0,0,0,0,0,0,0,0,0,0,0,0,0,
0,0,0,0,0,0,0,0,0,0,0,0,0,0,0,0,
0,0,0,0,0,0,0,0,0,0,0,0,0,0,0,0,
0,0,0,0,0,0,0,0,0,0,0,0,0,0,0,0,
0,0,0,0,0,0,0,0,0,0,0,0,0,0,0,0,
0,0,0,0,0,9,0,0,9,0,0,0,0,0,0,0,
0,0,0,0,0,21,0,0,21,0,0,0,0,0,0,0
</chunk>
   <chunk x="-64" y="0" width="16" height="16">
0,0,0,0,0,0,0,0,0,0,0,0,0,0,0,0,
0,0,0,0,0,0,0,0,0,0,0,0,0,0,0,0,
0,0,0,0,0,0,0,0,0,0,0,0,0,0,0,0,
0,0,0,0,0,0,0,0,0,0,0,0,0,0,0,0,
0,0,0,0,0,0,0,0,0,0,0,0,0,0,0,0,
0,0,0,0,0,0,0,0,0,0,0,0,0,0,0,0,
0,0,0,0,0,0,0,0,0,0,0,0,0,0,0,0,
0,0,0,0,0,0,0,0,0,0,0,0,0,0,0,0,
0,0,0,0,0,0,0,0,0,0,0,0,0,0,0,0,
0,0,0,0,0,0,0,0,0,0,0,0,0,0,0,0,
0,0,0,0,0,0,0,0,0,0,52,53,0,0,0,0,
0,0,0,0,0,0,0,0,0,0,64,65,0,0,0,0,
0,0,0,0,0,0,0,0,0,0,95,96,0,0,0,0,
0,0,0,0,0,0,0,0,0,0,0,0,0,0,0,0,
0,0,0,0,0,0,0,0,0,0,0,0,0,0,0,0,
0,0,0,0,0,0,0,0,0,0,0,0,0,0,0,0
</chunk>
   <chunk x="-48" y="0" width="16" height="16">
0,0,0,0,0,0,0,0,0,0,0,0,0,0,9,32,
0,0,0,0,0,0,0,0,0,0,0,0,0,0,21,44,
0,0,0,0,0,0,0,0,0,0,0,0,0,0,0,56,
0,0,0,0,0,0,0,0,0,0,0,0,0,0,0,0,
0,0,0,0,0,0,0,0,0,0,0,0,0,0,0,0,
0,0,0,0,0,0,0,0,0,0,0,0,0,0,0,0,
0,0,0,0,0,0,0,0,0,0,0,0,0,0,0,0,
0,0,0,0,0,0,0,0,0,0,0,0,0,0,0,0,
0,0,0,0,0,0,0,0,0,0,0,0,0,0,0,0,
0,0,0,0,0,0,0,0,0,0,0,0,0,0,0,0,
0,0,0,0,0,0,0,0,0,0,0,0,0,0,0,0,
0,0,0,0,0,0,0,0,0,0,0,0,0,0,0,0,
0,0,0,0,0,0,0,0,0,0,0,0,0,0,0,0,
0,0,0,0,0,0,0,0,0,0,0,0,0,0,0,0,
0,0,0,0,0,0,0,0,0,0,0,0,0,0,0,0,
0,0,0,0,0,0,0,0,0,0,0,0,0,0,0,0
</chunk>
   <chunk x="-32" y="0" width="16" height="16">
33,0,0,0,0,0,0,0,0,0,0,0,0,0,0,0,
45,0,0,0,0,0,0,0,0,0,0,0,0,0,0,0,
57,0,9,0,0,0,0,0,0,0,0,0,0,0,0,0,
0,0,21,0,0,0,0,0,0,0,0,0,0,0,0,0,
0,0,0,0,0,0,0,0,0,0,0,0,0,0,0,0,
0,0,0,0,0,0,0,0,0,0,0,0,0,0,0,0,
0,0,0,0,0,0,0,0,0,0,0,0,0,0,0,0,
0,0,0,0,0,0,0,0,0,0,0,0,0,0,0,0,
0,0,0,0,0,0,0,0,0,0,0,0,0,0,0,0,
0,0,0,0,0,0,0,0,0,0,0,0,0,0,0,0,
0,0,0,0,0,0,0,0,0,0,0,0,0,0,0,0,
0,0,0,0,0,0,0,0,0,0,0,0,0,0,0,0,
0,0,0,0,0,0,0,0,0,0,0,0,0,0,0,0,
0,0,0,0,0,0,0,0,0,0,0,0,0,0,0,0,
0,0,0,0,0,0,0,0,0,0,0,0,0,0,0,0,
0,0,0,0,0,0,0,0,0,0,0,0,0,0,0,0
</chunk>
   <chunk x="144" y="0" width="16" height="16">
0,0,0,0,0,0,0,0,0,0,0,0,0,0,0,0,
0,0,0,0,0,0,0,0,0,0,0,0,0,0,0,0,
0,0,0,0,0,0,0,0,0,0,0,0,0,0,0,0,
0,0,0,0,0,0,0,0,0,0,0,0,0,0,0,0,
0,0,0,0,0,0,0,0,0,0,0,0,0,0,0,0,
0,0,0,0,0,0,0,0,0,0,0,0,0,0,0,0,
0,0,0,0,0,0,0,0,0,0,0,0,0,0,0,0,
0,0,0,0,0,0,0,0,0,0,0,0,0,0,0,0,
0,0,0,0,0,0,0,0,0,0,0,0,0,95,96,93,
0,0,0,0,0,0,0,0,0,0,0,0,0,107,108,105,
0,0,0,0,0,0,0,0,0,0,0,0,0,119,120,117,
0,0,0,0,0,0,0,0,0,0,0,0,0,0,0,0,
0,0,0,0,0,0,0,0,0,0,0,0,0,0,0,0,
0,0,0,0,0,0,0,0,0,0,0,0,0,0,0,0,
0,0,0,0,0,0,0,0,0,0,0,0,0,0,0,0,
0,0,0,0,0,0,0,0,0,0,0,0,0,0,0,0
</chunk>
   <chunk x="160" y="0" width="16" height="16">
0,0,0,0,0,0,0,0,0,0,0,0,0,0,0,0,
0,0,0,0,0,0,0,0,0,0,0,0,0,0,0,0,
0,0,0,0,0,0,0,0,0,0,0,0,0,0,0,0,
0,0,0,0,0,0,0,0,0,0,0,0,0,0,0,0,
0,0,0,0,0,0,0,0,0,0,0,0,0,0,0,0,
0,0,0,0,0,0,0,0,0,0,0,0,0,0,0,0,
0,0,0,0,0,0,0,0,0,0,0,0,0,0,0,0,
0,0,0,0,0,0,0,0,0,0,0,0,0,0,0,0,
94,0,0,0,0,0,0,0,0,0,0,0,0,0,0,0,
106,0,0,0,0,0,0,0,0,0,0,0,0,0,0,0,
118,0,0,0,0,0,0,0,0,0,0,0,0,0,0,0,
0,0,0,0,0,0,0,0,0,0,0,0,0,0,0,0,
0,0,0,0,0,0,0,0,0,0,0,0,0,0,0,0,
0,0,0,0,0,0,0,0,0,0,0,0,0,0,0,0,
0,0,0,0,0,0,0,0,0,0,0,0,0,0,0,0,
0,0,0,0,0,0,0,0,0,0,0,0,0,0,0,0
</chunk>
   <chunk x="-48" y="16" width="16" height="16">
0,0,0,0,0,0,0,0,0,0,0,0,0,0,0,0,
0,9,0,0,0,0,0,0,0,0,0,0,0,0,0,0,
0,21,0,0,0,0,0,0,0,0,0,0,0,0,0,0,
0,0,0,0,0,0,0,0,0,0,0,0,0,0,0,0,
0,0,0,0,0,0,0,0,0,0,0,0,0,0,0,0,
0,0,0,0,0,0,0,0,0,0,0,0,0,0,0,0,
0,0,0,0,0,0,0,0,0,0,0,0,0,0,0,0,
0,0,0,0,0,0,0,0,0,0,0,0,0,0,0,0,
0,0,0,0,0,0,0,0,0,0,0,0,0,0,0,0,
0,0,0,0,0,0,0,0,0,0,0,0,0,0,0,0,
0,0,0,0,0,0,0,0,0,0,0,0,0,0,0,0,
0,0,0,0,0,0,0,0,0,0,0,0,0,0,0,0,
0,0,0,0,0,0,0,0,0,0,0,0,0,0,0,0,
0,0,0,0,0,0,0,0,0,0,0,0,0,0,0,0,
0,0,0,0,0,0,0,0,0,0,0,0,0,0,0,0,
0,0,0,0,0,0,0,0,0,0,0,0,0,0,0,0
</chunk>
   <chunk x="144" y="16" width="16" height="16">
0,0,0,0,0,0,0,0,0,0,0,0,0,0,0,0,
0,0,0,0,0,0,0,0,0,0,0,0,0,0,0,0,
0,0,0,0,0,0,0,0,0,0,0,0,0,0,0,0,
0,0,0,0,0,0,0,0,0,0,0,0,0,0,0,0,
0,0,0,0,0,0,0,0,0,0,0,0,0,0,0,0,
0,0,0,0,0,0,0,0,0,0,0,0,0,0,0,0,
0,0,0,0,0,9,0,0,0,0,0,0,0,0,0,0,
0,0,0,0,0,21,0,0,0,0,0,0,0,0,0,0,
0,0,0,0,0,93,94,0,0,0,0,0,0,0,0,9,
0,0,0,0,0,105,106,0,0,0,0,0,0,0,0,21,
0,0,0,0,0,117,118,0,0,0,0,0,0,0,0,0,
0,0,0,0,0,0,0,0,0,0,0,0,0,0,0,0,
0,0,0,0,0,0,0,0,0,0,0,0,0,0,0,0,
0,0,0,0,0,0,0,0,0,0,0,0,0,0,0,0,
0,0,0,0,0,0,0,0,0,0,0,0,0,0,0,0,
0,0,0,0,0,0,0,0,0,0,0,0,0,0,0,0
</chunk>
  </data>
 </layer>
 <objectgroup id="8" name="collision">
  <object id="200" x="144" y="192" width="64"/>
  <object id="201" x="32" y="176" width="288" height="16"/>
  <object id="202" x="64" y="192" width="80" height="16"/>
  <object id="203" x="208" y="192" width="80" height="16"/>
  <object id="204" x="80" y="208" width="48" height="16"/>
  <object id="205" x="224" y="208" width="48" height="16"/>
  <object id="206" x="240" y="224" width="16" height="16"/>
  <object id="207" x="96" y="224" width="16" height="16"/>
  <object id="208" x="16" y="160" width="320" height="16"/>
  <object id="209" x="0" y="128" width="352" height="32"/>
  <object id="210" x="-32" y="112" width="432" height="16"/>
  <object id="211" x="384" y="112" width="32" height="32"/>
  <object id="212" x="400" y="128" width="16" height="48"/>
  <object id="213" x="416" y="160" width="16" height="80"/>
  <object id="214" x="400" y="224" width="32" height="16"/>
  <object id="215" x="384" y="240" width="32" height="16"/>
  <object id="216" x="368" y="256" width="32" height="16"/>
  <object id="217" x="352" y="272" width="32" height="16"/>
  <object id="218" x="336" y="288" width="32" height="16"/>
  <object id="219" x="320" y="304" width="32" height="16"/>
  <object id="220" x="288" y="320" width="48" height="16"/>
  <object id="221" x="256" y="336" width="48" height="16"/>
  <object id="222" x="224" y="352" width="48" height="16"/>
  <object id="223" x="208" y="368" width="32" height="16"/>
  <object id="224" x="-48" y="112" width="16" height="32"/>
  <object id="225" x="-64" y="128" width="16" height="48"/>
  <object id="226" x="-80" y="160" width="16" height="80"/>
  <object id="227" x="-64" y="224" width="16" height="32"/>
  <object id="228" x="-48" y="240" width="16" height="32"/>
  <object id="229" x="-32" y="256" width="16" height="32"/>
  <object id="230" x="-16" y="272" width="16" height="32"/>
  <object id="231" x="0" y="288" width="16" height="32"/>
  <object id="232" x="16" y="304" width="16" height="32"/>
  <object id="233" x="32" y="320" width="32" height="16"/>
  <object id="234" x="64" y="336" width="32" height="16"/>
  <object id="235" x="96" y="352" width="32" height="16"/>
  <object id="236" x="128" y="368" width="16" height="16"/>
  <object id="237" x="128" y="384" width="96" height="16"/>
  <object id="238" x="-608" y="32" width="32" height="32"/>
  <object id="239" x="-592" y="48" width="48" height="32"/>
  <object id="240" x="-576" y="64" width="48" height="48"/>
  <object id="241" x="-544" y="80" width="32" height="32"/>
  <object id="242" x="-592" y="112" width="48" height="16"/>
  <object id="243" x="-640" y="160" width="160" height="16"/>
  <object id="244" x="-496" y="144" width="16" height="32"/>
  <object id="245" x="-480" y="112" width="16" height="48"/>
  <object id="246" x="-464" y="96" width="16" height="32"/>
  <object id="249" x="-480" y="16" width="32" height="48"/>
  <object id="250" x="-496" y="0" width="32" height="16"/>
  <object id="251" x="-544" y="-16" width="64" height="16"/>
  <object id="252" x="-624" y="-32" width="96" height="16"/>
  <object id="253" x="-640" y="-32" width="16" height="32"/>
  <object id="254" x="-832" y="0" width="192" height="16"/>
  <object id="255" x="-864" y="16" width="240" height="48"/>
  <object id="256" x="-640" y="160" width="16" height="48"/>
  <object id="257" x="-656" y="192" width="32" height="16"/>
  <object id="258" x="-672" y="208" width="32" height="16"/>
  <object id="259" x="-672" y="208" width="16" height="80"/>
  <object id="260" x="-688" y="240" width="32" height="16"/>
  <object id="261" x="-704" y="272" width="48" height="16"/>
  <object id="262" x="-720" y="288" width="32" height="32"/>
  <object id="263" x="-752" y="304" width="32" height="16"/>
  <object id="264" x="-848" y="288" width="96" height="32"/>
  <object id="265" x="-864" y="272" width="16" height="32"/>
  <object id="266" x="-896" y="240" width="32" height="48"/>
  <object id="267" x="-928" y="224" width="32" height="32"/>
  <object id="268" x="-1024" y="208" width="96" height="32"/>
  <object id="269" x="-1040" y="192" width="32" height="16"/>
  <object id="270" x="-1056" y="176" width="16" height="32"/>
  <object id="271" x="-1088" y="160" width="32" height="32"/>
  <object id="272" x="-1120" y="144" width="32" height="32"/>
  <object id="273" x="-1136" y="128" width="16" height="32"/>
  <object id="274" x="-1152" y="96" width="16" height="48"/>
  <object id="275" x="-1168" y="80" width="16" height="32"/>
  <object id="276" x="-1184" y="48" width="16" height="48"/>
  <object id="277" x="-1200" y="-48" width="16" height="112"/>
  <object id="278" x="-1200" y="-80" width="32" height="32"/>
  <object id="279" x="-1168" y="-112" width="16" height="32"/>
  <object id="282" x="-1152" y="-128" width="16" height="32"/>
  <object id="284" x="-1152" y="-128" width="32" height="16"/>
  <object id="286" x="-1136" y="-144" width="48" height="16"/>
  <object id="287" x="-1104" y="-208" width="32" height="64"/>
  <object id="288" x="-1072" y="-192" width="16" height="32"/>
  <object id="289" x="-1072" y="64" width="416" height="16"/>
  <object id="290" x="-1056" y="80" width="368" height="16"/>
  <object id="291" x="-768" y="96" width="48" height="16"/>
  <object id="292" x="-1040" y="96" width="288" height="32"/>
  <object id="293" x="-784" y="112" width="16" height="32"/>
  <object id="296" x="-1008" y="128" width="160" height="16"/>
  <object id="297" x="-944" y="144" width="64" height="16"/>
  <object id="298" x="-1104" y="32" width="96" height="16"/>
  <object id="299" x="-1088" y="48" width="224" height="16"/>
  <object id="300" x="-880" y="32" width="16" height="16"/>
  <object id="301" x="-1120" y="-32" width="112" height="48"/>
  <object id="302" x="-1104" y="-48" width="176" height="48"/>
  <object id="303" x="-1088" y="-64" width="192" height="48"/>
  <object id="304" x="-1072" y="-80" width="192" height="48"/>
  <object id="305" x="-1056" y="-96" width="192" height="32"/>
  <object id="306" x="-1024" y="-112" width="176" height="16"/>
  <object id="307" x="-1008" y="-128" width="176" height="16"/>
  <object id="308" x="-992" y="-144" width="160" height="16"/>
  <object id="309" x="-944" y="-160" width="128" height="16"/>
  <object id="310" x="-912" y="-176" width="112" height="16"/>
  <object id="311" x="-880" y="-192" width="96" height="16"/>
  <object id="312" x="-848" y="-208" width="80" height="16"/>
  <object id="313" x="-832" y="-256" width="304" height="48"/>
  <object id="314" x="-720" y="-208" width="96" height="16"/>
  <object id="315" x="-560" y="-208" width="16" height="16"/>
  <object id="316" x="-544" y="-272" width="16" height="112"/>
  <object id="317" x="-560" y="-176" width="32" height="16"/>
  <object id="318" x="-752" y="-160" width="368" height="16"/>
  <object id="319" x="-720" y="-176" width="96" height="16"/>
  <object id="320" x="-768" y="-144" width="400" height="32"/>
  <object id="321" x="-784" y="-128" width="32" height="32"/>
  <object id="322" x="-800" y="-96" width="32" height="32"/>
  <object id="323" x="-816" y="-64" width="32" height="240"/>
  <object id="324" x="-816" y="-320" width="224" height="64"/>
  <object id="325" x="-592" y="-304" width="32" height="48"/>
  <object id="326" x="-560" y="-288" width="16" height="32"/>
  <object id="329" x="-528" y="-240" width="16" height="64"/>
  <object id="330" x="-512" y="-208" width="16" height="32"/>
  <object id="331" x="-496" y="-192" width="96" height="16"/>
  <object id="332" x="-416" y="-192" width="16" height="48"/>
  <object id="334" x="-368" y="-128" width="96" height="16"/>
  <object id="335" x="-240" y="-192" width="224" height="32"/>
  <object id="336" x="-32" y="-288" width="16" height="112"/>
  <object id="337" x="-240" y="-304" width="208" height="32"/>
  <object id="338" x="-240" y="-272" width="112" height="16"/>
  <object id="339" x="-144" y="-256" width="16" height="16"/>
  <object id="340" x="-224" y="-256" width="16" height="16"/>
  <object id="341" x="-192" y="-240" width="32" height="32"/>
  <object id="342" x="-144" y="-208" width="16" height="16"/>
  <object id="343" x="-224" y="-208" width="16" height="16"/>
  <object id="344" x="-256" y="-160" width="16" height="48"/>
  <object id="345" x="-272" y="-144" width="16" height="32"/>
  <object id="346" x="-1024" y="-240" width="112" height="16"/>
  <object id="347" x="-1040" y="-352" width="112" height="112"/>
  <object id="348" x="-928" y="-272" width="32" height="32"/>
  <object id="351" x="-896" y="-272" width="16" height="16"/>
  <object id="352" x="-1008" y="-224" width="48" height="16"/>
  <object id="356" x="-1008" y="-400" width="32" height="16"/>
  <object id="358" x="-1056" y="-336" width="16" height="48"/>
  <object id="359" x="-1024" y="-384" width="192" height="32"/>
  <object id="360" x="-928" y="-352" width="16" height="48"/>
  <object id="361" x="-912" y="-352" width="32" height="32"/>
  <object id="362" x="-880" y="-352" width="16" height="16"/>
  <object id="363" x="-864" y="-400" width="224" height="32"/>
  <object id="364" x="-848" y="-416" width="192" height="16"/>
  <object id="365" x="-784" y="-432" width="112" height="16"/>
  <object id="366" x="-736" y="-448" width="48" height="16"/>
  <object id="367" x="-784" y="-368" width="144" height="48"/>
  <object id="368" x="-800" y="-336" width="192" height="16"/>
  <object id="369" x="-640" y="-352" width="16" height="32"/>
  <object id="370" x="-736" y="-560" width="160" height="48"/>
  <object id="371" x="-704" y="-576" width="48" height="16"/>
  <object id="382" x="-784" y="-544" width="80" height="48"/>
  <object id="383" x="-672" y="-544" width="128" height="48"/>
  <object id="384" x="-640" y="-512" width="128" height="32"/>
  <object id="385" x="-832" y="-528" width="64" height="48"/>
  <object id="386" x="-864" y="-512" width="64" height="48"/>
  <object id="387" x="-896" y="-496" width="32" height="32"/>
  <object id="388" x="-944" y="-464" width="32" height="32"/>
  <object id="389" x="-912" y="-464" width="32" height="16"/>
  <object id="390" x="-624" y="-480" width="144" height="16"/>
  <object id="394" x="-512" y="-496" width="16" height="16"/>
  <object id="395" x="-608" y="-464" width="144" height="16"/>
  <object id="396" x="-592" y="-448" width="160" height="16"/>
  <object id="397" x="-576" y="-432" width="160" height="16"/>
  <object id="398" x="-560" y="-416" width="176" height="48"/>
  <object id="399" x="-544" y="-368" width="208" height="16"/>
  <object id="401" x="-512" y="-352" width="176" height="16"/>
  <object id="402" x="-496" y="-336" width="160" height="16"/>
  <object id="403" x="-480" y="-320" width="80" height="48"/>
  <object id="404" x="-384" y="-400" width="16" height="96"/>
  <object id="405" x="-400" y="-320" width="16" height="32"/>
  <object id="406" x="-464" y="-272" width="64" height="16"/>
  <object id="407" x="-368" y="-384" width="32" height="16"/>
  <object id="408" x="-304" y="-384" width="32" height="64"/>
  <object id="409" x="-288" y="-400" width="16" height="16"/>
  <object id="410" x="-272" y="-416" width="16" height="112"/>
  <object id="411" x="-256" y="-464" width="16" height="176"/>
  <object id="412" x="-288" y="-480" width="48" height="16"/>
  <object id="413" x="-272" y="-464" width="16" height="16"/>
  <object id="414" x="-304" y="-496" width="32" height="16"/>
  <object id="415" x="-336" y="-512" width="48" height="16"/>
  <object id="417" x="-352" y="-512" width="16" height="32"/>
  <object id="418" x="-400" y="-496" width="48" height="32"/>
  <object id="419" x="-448" y="-528" width="48" height="16"/>
  <object id="421" x="-416" y="-512" width="32" height="16"/>
  <object id="422" x="-480" y="-544" width="48" height="16"/>
  <object id="423" x="-496" y="-560" width="32" height="16"/>
  <object id="424" x="-512" y="-576" width="32" height="16"/>
  <object id="425" x="-528" y="-592" width="32" height="16"/>
  <object id="426" x="-560" y="-608" width="48" height="16"/>
  <object id="427" x="-592" y="-624" width="48" height="16"/>
  <object id="428" x="-768" y="-640" width="192" height="16"/>
  <object id="429" x="-800" y="-624" width="48" height="16"/>
  <object id="430" x="-816" y="-608" width="32" height="16"/>
  <object id="431" x="-848" y="-592" width="48" height="16"/>
  <object id="432" x="-896" y="-576" width="64" height="16"/>
  <object id="433" x="-928" y="-560" width="48" height="16"/>
  <object id="434" x="-960" y="-544" width="48" height="16"/>
  <object id="435" x="-992" y="-528" width="48" height="16"/>
  <object id="436" x="-1008" y="-512" width="32" height="16"/>
  <object id="437" x="-1040" y="-496" width="48" height="32"/>
  <object id="439" x="-1072" y="-464" width="48" height="16"/>
  <object id="440" x="-1088" y="-448" width="32" height="16"/>
  <object id="441" x="-1104" y="-432" width="32" height="16"/>
  <object id="442" x="-1120" y="-416" width="32" height="16"/>
  <object id="443" x="-1120" y="-416" width="16" height="64"/>
  <object id="444" x="-1136" y="-368" width="16" height="144"/>
  <object id="445" x="-1120" y="-240" width="16" height="48"/>
  <object id="575" x="-864" y="160" width="32" height="48"/>
  <object id="576" x="-752" y="272" width="16" height="32"/>
  <object id="578" x="-464" y="-272" width="16" height="32"/>
  <object id="612" x="-608" y="-416" width="16" height="32"/>
  <object id="614" x="-528" y="0" width="32" height="48"/>
  <object id="615" x="-544" y="0" width="16" height="32"/>
  <object id="618" x="752" y="-560" width="16" height="32"/>
  <object id="619" x="736" y="-496" width="16" height="16"/>
  <object id="620" x="832" y="-512" width="16" height="32"/>
  <object id="621" x="832" y="-592" width="16" height="32"/>
  <object id="622" x="848" y="-576" width="32" height="80"/>
  <object id="623" x="880" y="-528" width="32" height="16"/>
  <object id="624" x="896" y="-512" width="32" height="96"/>
  <object id="625" x="880" y="-448" width="16" height="48"/>
  <object id="626" x="928" y="-432" width="16" height="160"/>
  <object id="627" x="912" y="-368" width="16" height="128"/>
  <object id="628" x="896" y="-352" width="16" height="64"/>
  <object id="629" x="896" y="-256" width="16" height="144"/>
  <object id="630" x="880" y="-240" width="16" height="48"/>
  <object id="631" x="864" y="-224" width="16" height="16"/>
  <object id="632" x="880" y="-128" width="16" height="48"/>
  <object id="633" x="864" y="-96" width="16" height="32"/>
  <object id="634" x="848" y="-80" width="16" height="32"/>
  <object id="635" x="832" y="-64" width="16" height="32"/>
  <object id="636" x="816" y="-48" width="16" height="32"/>
  <object id="637" x="800" y="-32" width="16" height="32"/>
  <object id="638" x="784" y="-16" width="16" height="32"/>
  <object id="639" x="768" y="0" width="16" height="32"/>
  <object id="640" x="720" y="16" width="64" height="16"/>
  <object id="641" x="720" y="0" width="16" height="32"/>
  <object id="642" x="704" y="-16" width="16" height="32"/>
  <object id="643" x="688" y="-32" width="16" height="32"/>
  <object id="644" x="672" y="-48" width="16" height="32"/>
  <object id="645" x="656" y="-64" width="16" height="32"/>
  <object id="646" x="640" y="-80" width="16" height="32"/>
  <object id="647" x="624" y="-96" width="16" height="32"/>
  <object id="648" x="608" y="-128" width="16" height="48"/>
  <object id="649" x="592" y="-256" width="16" height="144"/>
  <object id="650" x="608" y="-240" width="16" height="48"/>
  <object id="651" x="624" y="-224" width="16" height="16"/>
  <object id="652" x="560" y="-448" width="16" height="176"/>
  <object id="653" x="576" y="-384" height="80"/>
  <object id="654" x="576" y="-384" width="16" height="144"/>
  <object id="655" x="592" y="-368" width="16" height="80"/>
  <object id="656" x="624" y="-528" width="16" height="96"/>
  <object id="657" x="560" y="-464" width="96" height="16"/>
  <object id="658" x="640" y="-448" width="16" height="32"/>
  <object id="659" x="640" y="-576" width="16" height="48"/>
  <object id="660" x="656" y="-592" width="16" height="32"/>
  <object id="661" x="672" y="-608" width="16" height="32"/>
  <object id="662" x="720" y="-656" width="16" height="160"/>
  <object id="663" x="736" y="-608" width="16" height="112"/>
  <object id="664" x="704" y="-608" width="16" height="64"/>
  <object id="665" x="688" y="-608" width="16" height="16"/>
  <object id="666" x="720" y="-672" width="64" height="16"/>
  <object id="667" x="768" y="-656" width="32" height="16"/>
  <object id="668" x="784" y="-656" width="16" height="32"/>
  <object id="669" x="800" y="-640" width="16" height="32"/>
  <object id="670" x="816" y="-624" width="16" height="32"/>
  <object id="671" x="608" y="-336" width="16" height="64"/>
  <object id="672" x="880" y="-336" width="16" height="64"/>
  <object id="673" x="848" y="-304" width="32" height="48"/>
  <object id="674" x="624" y="-304" width="32" height="48"/>
  <object id="675" x="656" y="-288" width="16" height="48"/>
  <object id="676" x="672" y="-272" width="32" height="32"/>
  <object id="677" x="800" y="-272" width="32" height="32"/>
  <object id="678" x="832" y="-288" width="16" height="48"/>
  <object id="679" x="688" y="-256" width="48" height="32"/>
  <object id="680" x="720" y="-224" width="16" height="16"/>
  <object id="681" x="768" y="-256" width="48" height="32"/>
  <object id="682" x="768" y="-224" width="16" height="16"/>
  <object id="683" x="800" y="-112" width="32" height="48"/>
  <object id="684" x="784" y="-96" width="16" height="32"/>
  <object id="1651" x="1424" y="-720" width="64" height="1344"/>
  <object id="1655" x="1488" y="-208" width="384" height="64"/>
  <object id="1656" x="1552" y="-144" width="64" height="256"/>
  <object id="1657" x="1680" y="-144" width="64" height="128"/>
  <object id="1658" x="1808" y="-144" width="64" height="128"/>
  <object id="1659" x="1616" y="48" width="384" height="64"/>
  <object id="1660" x="1936" y="48" width="64" height="192"/>
  <object id="1661" x="1552" y="176" width="576" height="64"/>
  <object id="1662" x="1552" y="304" width="64" height="192"/>
  <object id="1663" x="1680" y="304" width="64" height="192"/>
  <object id="1664" x="1488" y="432" width="256" height="64"/>
  <object id="1665" x="1808" y="304" width="64" height="320"/>
  <object id="1666" x="1808" y="304" width="192" height="64"/>
  <object id="1667" x="1936" y="304" width="64" height="192"/>
  <object id="1668" x="2064" y="304" width="192" height="64"/>
  <object id="1669" x="2192" y="304" width="64" height="192"/>
  <object id="1670" x="1936" y="432" width="320" height="64"/>
  <object id="1671" x="2320" y="304" width="320" height="64"/>
  <object id="1672" x="2320" y="432" width="192" height="64"/>
  <object id="1673" x="2576" y="368" width="64" height="128"/>
  <object id="1674" x="2320" y="368" width="64" height="64"/>
  <object id="1675" x="2448" y="496" width="64" height="64"/>
  <object id="1676" x="2576" y="48" width="64" height="192"/>
  <object id="1677" x="2320" y="48" width="64" height="192"/>
  <object id="1678" x="2448" y="48" width="64" height="192"/>
  <object id="1679" x="2384" y="48" width="64" height="64"/>
  <object id="1680" x="2512" y="128" width="64" height="112"/>
  <object id="1681" x="2640" y="48" width="64" height="64"/>
  <object id="1682" x="2576" y="-464" width="64" height="448"/>
  <object id="1683" x="2448" y="-208" width="64" height="192"/>
  <object id="1684" x="2448" y="-208" width="256" height="64"/>
  <object id="1685" x="2448" y="-592" width="64" height="320"/>
  <object id="1686" x="2448" y="-592" width="256" height="64"/>
  <object id="1687" x="2192" y="-656" width="64" height="128"/>
  <object id="1688" x="2064" y="-656" width="64" height="128"/>
  <object id="1689" x="2192" y="-592" width="192" height="64"/>
  <object id="1690" x="1680" y="-656" width="64" height="128"/>
  <object id="1691" x="1808" y="-592" width="64" height="192"/>
  <object id="1692" x="1936" y="-592" width="64" height="192"/>
  <object id="1693" x="1680" y="-592" width="320" height="64"/>
  <object id="1694" x="1680" y="-464" width="192" height="64"/>
  <object id="1695" x="1936" y="-464" width="448" height="64"/>
  <object id="1696" x="2192" y="-464" width="64" height="704"/>
  <object id="1697" x="2064" y="-208" width="192" height="64"/>
  <object id="1698" x="2320" y="-336" width="64" height="320"/>
  <object id="1699" x="2256" y="-80" width="64" height="64"/>
  <object id="1700" x="1936" y="-208" width="64" height="192"/>
  <object id="1701" x="2064" y="-80" width="64" height="192"/>
  <object id="1702" x="2128" y="48" width="64" height="64"/>
  <object id="1703" x="1984" y="-80" width="96" height="64"/>
  <object id="1704" x="1488" y="-592" width="128" height="64"/>
  <object id="1705" x="1552" y="-592" width="64" height="320"/>
  <object id="1706" x="1552" y="-336" width="576" height="64"/>
  <object id="1707" x="2256" y="-656" width="80" height="64"/>
  <object id="1719" x="2544" y="384" width="16" height="32"/>
  <object id="1720" x="2383.87" y="351.875" width="16" height="80"/>
  <object id="1721" x="2399.87" y="383.875" width="16" height="48"/>
  <object id="1722" x="2128" y="-32" width="16" height="32"/>
  <object id="1723" x="2176" y="-32" width="16" height="32"/>
  <object id="1724" x="1648" y="-608" width="16" height="32"/>
  <object id="1725" x="1584" y="-640" width="16" height="32"/>
  <object id="1726" x="1488" y="-672" width="48" height="32"/>
  <object id="1727" x="1792" y="-672" width="16" height="32"/>
  <object id="1728" x="1824" y="-624" width="16" height="32"/>
  <object id="1729" x="1904" y="-624" width="32" height="32"/>
  <object id="1733" x="-448" y="48" width="16" height="64"/>
  <object id="1734" x="1424" y="560" width="1344" height="64"/>
  <object id="1735" x="2704" y="-720" width="64" height="1344"/>
  <object id="1736" x="1424" y="-720" width="1344" height="64"/>
 </objectgroup>
 <objectgroup id="9" name="trigger_encounters">
  <object id="691" x="-649.5" y="69.5" width="19.75" height="85.75"/>
  <object id="692" x="-663.75" y="87.25" width="47.75" height="50.25"/>
  <object id="693" x="-680.25" y="103" width="81.5" height="19"/>
  <object id="694" x="-777.455" y="150.545" width="22.1818" height="50.9091"/>
  <object id="695" x="-776.545" y="181.455" width="68.1818" height="20.5455"/>
  <object id="696" x="-746.909" y="201.091" width="22.5455" height="17.0909"/>
  <object id="697" x="-760" y="-201" width="33" height="33"/>
  <object id="699" x="-1031" y="-202" width="50.3333" height="20.6667"/>
  <object id="700" x="-1003.67" y="-200.333" width="22.3333" height="31.6667"/>
  <object id="701" x="-617.75" y="-410" width="36" height="35.75"/>
  <object id="702" x="-443" y="-250.75" width="23" height="10.5"/>
  <object id="703" x="-443.75" y="-208.5" width="23.5" height="11.25"/>
  <object id="707" x="-616" y="-618.5" width="18" height="19"/>
  <object id="708" x="-648" y="-602.5" width="17.5" height="36"/>
  <object id="709" x="-651.5" y="-587.5" width="68.5" height="21.5"/>
  <object id="710" x="-569.5" y="-585" width="19.5" height="17.5"/>
  <object id="715" x="-856.75" y="-233.5" width="17.25" height="18.25"/>
  <object id="716" x="-824.75" y="-137.5" width="17.5" height="17.75"/>
  <object id="717" x="-793" y="-153" width="18.25" height="17"/>
  <object id="719" x="-825" y="-90" width="18.25" height="19.5"/>
  <object id="720" x="-729.333" y="231.667" width="19" height="49.6667"/>
  <object id="721" x="-746.667" y="246.667" width="52.3333" height="18.3333"/>
  <object id="1370" x="1927" y="-634" width="19.5" height="19"/>
  <object id="1371" x="1813" y="-656.5" width="52" height="25.5"/>
  <object id="1372" x="1863" y="-616.5" width="41" height="23.5"/>
  <object id="1373" x="1767.5" y="-649" width="16" height="50"/>
  <object id="1374" x="1750" y="-634.5" width="51" height="19"/>
  <object id="1375" x="1557.75" y="-636.25" width="67.5" height="37.5"/>
  <object id="1376" x="1558.75" y="-648.75" width="19.75" height="12"/>
  <object id="1377" x="1588.5" y="-656.25" width="23" height="10.25"/>
  <object id="1378" x="1620.75" y="-657" width="60" height="12"/>
  <object id="1379" x="1667.5" y="-655.25" width="13.25" height="41.75"/>
  <object id="1380" x="1638.5" y="-635.25" width="19.75" height="20.75"/>
  <object id="1381" x="1639" y="-601.25" width="33.75" height="34.5"/>
  <object id="1382" x="1615" y="-587.25" width="10" height="37.5"/>
  <object id="1383" x="1639.5" y="-490" width="33.75" height="19.25"/>
  <object id="1384" x="1493.5" y="-528.5" width="59" height="10.5"/>
  <object id="1385" x="1539.5" y="-523.5" width="12" height="53.75"/>
  <object id="1386" x="1510" y="-362" width="18.5" height="19.75"/>
  <object id="1387" x="1541.5" y="-378" width="11" height="115.25"/>
  <object id="1388" x="1540.75" y="-273" width="68.5" height="11"/>
  <object id="1389" x="1797.25" y="-267" width="22" height="22.75"/>
  <object id="1390" x="1719.25" y="-395" width="18" height="21.5"/>
  <object id="1391" x="1871.5" y="-524.75" width="11.75" height="118.25"/>
  <object id="1392" x="1909.75" y="-529" width="26" height="13"/>
  <object id="1393" x="1924.25" y="-517" width="12" height="16"/>
  <object id="1394" x="1925.25" y="-475.75" width="11.5" height="84.5"/>
  <object id="1395" x="1927.5" y="-400.75" width="131.75" height="10.5"/>
  <object id="1396" x="2149.66" y="-364.33" width="20.3333" height="24"/>
  <object id="1397" x="2127.33" y="-300.33" width="27.3333" height="22.6667"/>
  <object id="1398" x="2134" y="-285" width="52" height="21.6667"/>
  <object id="1399" x="2166.33" y="-299" width="20.3333" height="17"/>
  <object id="1400" x="2147.66" y="-266.67" width="23.6667" height="20.6667"/>
  <object id="1401" x="2004.66" y="-273" width="117.667" height="13"/>
  <object id="1402" x="1524.5" y="-145.5" width="28.5" height="12"/>
  <object id="1403" x="1541" y="-142.5" width="11.5" height="23.5"/>
  <object id="1404" x="1488" y="-140" width="10.5" height="344"/>
  <object id="1405" x="1496.72" y="163.45" width="34.1818" height="25.4545"/>
  <object id="1406" x="1540.54" y="148.73" width="22.5455" height="23.8182"/>
  <object id="1407" x="1588.25" y="112" width="167" height="27.25"/>
  <object id="1408" x="1765.5" y="117.75" width="20.25" height="19.75"/>
  <object id="1409" x="1798.75" y="116.75" width="35.25" height="21.5"/>
  <object id="1410" x="1909" y="111" width="28" height="11.5"/>
  <object id="1411" x="1924" y="119.5" width="12.75" height="19.5"/>
  <object id="1412" x="1766.5" y="149.25" width="162.5" height="27.25"/>
  <object id="1413" x="1750.66" y="260.67" width="35.3333" height="21.3333"/>
  <object id="1414" x="1637.66" y="292.67" width="21.3333" height="55.3333"/>
  <object id="1415" x="1622.33" y="309.33" width="49.6667" height="21"/>
  <object id="1416" x="1510.33" y="340.333" width="34.3333" height="22.3333"/>
  <object id="1417" x="1488" y="372.333" width="27" height="59"/>
  <object id="1418" x="1508.33" y="419.667" width="22" height="12.6667"/>
  <object id="1419" x="1615.66" y="372.667" width="11.6667" height="59.3333"/>
  <object id="1420" x="1620.66" y="418.667" width="59.6667" height="13.6667"/>
  <object id="1421" x="1669" y="406.333" width="12" height="11.6667"/>
  <object id="1422" x="1767.25" y="453.25" width="18.25" height="21.5"/>
  <object id="1423" x="1669" y="518" width="38.5" height="19.5"/>
  <object id="1424" x="1747.75" y="548" width="59.5" height="12"/>
  <object id="1425" x="1797.25" y="532.25" width="10.5" height="16"/>
  <object id="1426" x="1871" y="366.333" width="12.6667" height="28.3333"/>
  <object id="1427" x="1872.33" y="367.333" width="65" height="12"/>
  <object id="1428" x="1926.33" y="368.667" width="10" height="57.6667"/>
  <object id="1429" x="2000" y="420.333" width="192" height="11"/>
  <object id="1430" x="2180.66" y="367.667" width="11" height="56"/>
  <object id="1431" x="2132.66" y="496" width="118" height="10.3333"/>
  <object id="1432" x="2053.33" y="532" width="20" height="23"/>
  <object id="1433" x="2279" y="468.667" width="18.6667" height="22"/>
  <object id="1434" x="2276.66" y="260.67" width="40" height="24.6667"/>
  <object id="1435" x="2255.66" y="132.67" width="11.6667" height="117.667"/>
  <object id="1436" x="2182.66" y="238.67" width="84.6667" height="13.3333"/>
  <object id="1437" x="2180.33" y="229" width="11.6667" height="19"/>
  <object id="1438" x="2118.66" y="246" width="19.3333" height="18.6667"/>
  <object id="1439" x="2358.66" y="6" width="20" height="19"/>
  <object id="1440" x="2309" y="39.33" width="11.6667" height="115"/>
  <object id="1441" x="2311" y="32.33" width="196" height="16.3333"/>
  <object id="1442" x="2513" y="84" width="23.3333" height="22"/>
  <object id="1443" x="2518.32" y="70.67" width="51" height="20"/>
  <object id="1444" x="2549.67" y="89" width="21" height="17.3333"/>
  <object id="1445" x="2534" y="55" width="21.3333" height="18.6667"/>
  <object id="1446" x="2579.67" y="-17.33" width="56.3333" height="12.3333"/>
  <object id="1447" x="2597.32" y="-10.33" width="22" height="19.6667"/>
  <object id="1448" x="2638.67" y="-123.67" width="11.3333" height="85.6667"/>
  <object id="1449" x="2645.67" y="-76.67" width="21" height="23.3333"/>
  <object id="1450" x="2650" y="-107.67" width="15" height="23.6667"/>
  <object id="1451" x="2661" y="-139" width="22.3333" height="23"/>
  <object id="1452" x="2548.67" y="-144.33" width="29" height="11.6667"/>
  <object id="1453" x="2563.67" y="-143.67" width="11.6667" height="27"/>
  <object id="1454" x="2406.73" y="-122.91" width="19.0909" height="54.1818"/>
  <object id="1455" x="2388.72" y="-106.55" width="54.3636" height="21.6364"/>
  <object id="1456" x="2255.75" y="-139.5" width="11.5" height="61.25"/>
  <object id="1457" x="2259.75" y="-91" width="24.25" height="11"/>
  <object id="1458" x="2127.63" y="-27.45" width="12.5455" height="27.8182"/>
  <object id="1459" x="2127.27" y="-11.64" width="25.4545" height="11.0909"/>
  <object id="1460" x="2167.09" y="-10.36" width="25.2727" height="10"/>
  <object id="1461" x="2178.54" y="-28.36" width="14.3636" height="18.5455"/>
  <object id="1462" x="2133.45" y="-144" width="59.2727" height="11.2727"/>
  <object id="1463" x="2181.27" y="-144.55" width="11.0909" height="60.3636"/>
  <object id="1464" x="2022" y="-139.75" width="20" height="23"/>
  <object id="1465" x="1878" y="-58.25" width="20.75" height="20.5"/>
  <object id="1466" x="2037.5" y="-16.75" width="27.5" height="11.75"/>
  <object id="1467" x="2052.25" y="-16" width="11.75" height="59.5"/>
  <object id="1468" x="2022.5" y="101.5" width="35.25" height="20.5"/>
  <object id="1469" x="1766.72" y="-11.09" width="19.4545" height="54"/>
  <object id="1470" x="1750" y="6.18" width="51.4545" height="18.9091"/>
  <object id="1471" x="1750" y="-106.73" width="20.5455" height="22"/>
  <object id="1472" x="1744" y="-144.18" width="63.8182" height="11.4545"/>
  <object id="1473" x="1749.81" y="-144" width="21.6364" height="27.4545"/>
  <object id="1474" x="1782" y="-143.64" width="21.2727" height="27.6364"/>
  <object id="1475" x="1615.63" y="-144.36" width="27.8182" height="12.5455"/>
  <object id="1476" x="1615.45" y="-144.36" width="12.1818" height="60.7273"/>
  <object id="1477" x="2630.18" y="246.36" width="20.9091" height="20.1818"/>
  <object id="1478" x="2644.25" y="514.75" width="23.25" height="24.75"/>
  <object id="1479" x="2533.75" y="547.75" width="85.25" height="13"/>
  <object id="1480" x="2550.75" y="533.5" width="19.25" height="20.5"/>
  <object id="1481" x="2583.75" y="532.5" width="18.25" height="20"/>
  <object id="1482" x="2416.25" y="421" width="106.75" height="12"/>
  <object id="1483" x="2512" y="429" width="10.75" height="130"/>
  <object id="1484" x="2400" y="367.25" width="75.25" height="11.75"/>
  <object id="1485" x="2486.25" y="373.5" width="22" height="35.75"/>
  <object id="1486" x="2502.75" y="388" width="66.75" height="22.25"/>
  <object id="1487" x="2534.5" y="407.75" width="34.75" height="16.25"/>
  <object id="1488" x="2454.25" y="389" width="19.25" height="20.25"/>
  <object id="1489" x="2516.75" y="368.5" width="60.5" height="10.25"/>
  <object id="1490" x="2533.67" y="-394.67" width="20" height="20"/>
  <object id="1491" x="2550" y="-266" width="26.3333" height="52.3333"/>
  <object id="1492" x="2564.32" y="-473.33" width="11.6667" height="215.333"/>
  <object id="1493" x="2567.32" y="-475.67" width="84.3333" height="13"/>
  <object id="1494" x="2639.32" y="-464.67" width="11.3333" height="76"/>
  <object id="1495" x="2663.32" y="-491.33" width="19.3333" height="21"/>
  <object id="1496" x="2661.67" y="-411.67" width="22" height="37.6667"/>
  <object id="1497" x="2645.32" y="-364" width="20.6667" height="22"/>
  <object id="1498" x="2676.32" y="-364" width="22.6667" height="38.3333"/>
  <object id="1499" x="2383.33" y="-460.33" width="11.3333" height="70.3333"/>
  <object id="1500" x="2324.33" y="-400.67" width="63.3333" height="11.3333"/>
  <object id="1501" x="2261.66" y="-400.33" width="52" height="25"/>
  <object id="1502" x="2437" y="-379.33" width="11" height="115.667"/>
  <object id="1503" x="2442" y="-272.67" width="66.6667" height="9"/>
  <object id="1504" x="2278.66" y="-315" width="20.3333" height="20"/>
  <object id="1505" x="2278" y="-283.33" width="35" height="21.3333"/>
  <object id="1506" x="2166" y="-650.67" width="21" height="21"/>
  <object id="1507" x="2134.66" y="-522.33" width="19" height="19.3333"/>
  <object id="1508" x="2261" y="-528.33" width="120" height="11.6667"/>
  <object id="1509" x="2533.32" y="-619" width="20.3333" height="21"/>
  <object id="1510" x="2629.32" y="-657" width="26.6667" height="12"/>
  <object id="1511" x="2645.67" y="-644.33" width="8.66667" height="14.6667"/>
 </objectgroup>
 <objectgroup id="11" name="trigger_p_1_2">
  <object id="1512" x="16" y="224" width="16" height="16"/>
 </objectgroup>
 <objectgroup id="12" name="trigger_p_2_fake">
  <object id="1513" x="-448" y="-240" width="32" height="32"/>
 </objectgroup>
 <objectgroup id="14" name="trigger_p_2_3">
  <object id="1514" x="-336" y="-448" width="32" height="32"/>
 </objectgroup>
 <objectgroup id="16" name="trigger_p_3_2">
  <object id="1516" x="2144" y="0" width="32" height="48"/>
  <object id="1517" x="2128" y="16" width="64" height="16"/>
 </objectgroup>
 <objectgroup id="15" name="trigger_p_3_4">
  <object id="1515" x="2656" y="-640" width="48" height="32"/>
 </objectgroup>
 <objectgroup id="18" name="trigger_p_4_3">
  <object id="1519" x="848" y="-176" width="48" height="32"/>
 </objectgroup>
 <objectgroup id="19" name="trigger_battle_boss">
  <object id="1522" x="688" y="-384" width="128" height="80"/>
 </objectgroup>
 <objectgroup id="20" name="trigger_spec_item">
  <object id="1525" x="747.75" y="-642.75" width="16.5" height="26.75"/>
 </objectgroup>
 <objectgroup id="21" name="trigger_battle_rusty_key">
  <object id="1731" x="-877" y="-316.5" width="41.5" height="70.75"/>
 </objectgroup>
</map>
