<?xml version="1.0" encoding="UTF-8"?>
<map version="1.10" tiledversion="1.12.0" orientation="orthogonal" renderorder="right-down" width="75" height="39" tilewidth="16" tileheight="16" infinite="1" nextlayerid="8" nextobjectid="1">
 <tileset firstgid="1" source="../example/Resources/tutorial.tsx"/>
 <tileset firstgid="33" source="../example/Resources/First Asset pack.tsx"/>
 <tileset firstgid="609" source="../example/Resources/icon.tsx"/>
 <tileset firstgid="717" source="../example/Resources/XP.tsx"/>
 <tileset firstgid="10692" source="tutorial.tsx"/>
 <layer id="1" name="Tile Layer 1" width="75" height="39">
  <data encoding="csv"/>
 </layer>
 <layer id="2" name="background" width="75" height="39">
  <data encoding="csv">
   <chunk x="0" y="0" width="16" height="16">
6323,6324,6325,6326,6327,6328,6329,6330,6331,6332,6333,6334,6335,6336,6337,6338,
6398,6399,6400,6401,6402,6403,6404,6405,6406,6407,6408,6409,6410,6411,6412,6413,
6473,6474,6475,6476,6477,6478,6479,6480,6481,6482,6483,6484,6485,6486,6487,6488,
6548,6549,6550,6551,6552,6553,6554,6555,6556,6557,6558,6559,6560,6561,6562,6563,
6623,6624,6625,6626,6627,6628,6629,6630,6631,6632,6633,6634,6635,6636,6637,6638,
6698,6699,6700,6701,6702,6703,6704,6705,6706,6707,6708,6709,6710,6711,6712,6713,
6773,6774,6775,6776,6777,6778,6779,6780,6781,6782,6783,6784,6785,6786,6787,6788,
6848,6849,6850,6851,6852,6853,6854,6855,6856,6857,6858,6859,6860,6861,6862,6863,
6923,6924,6925,6926,6927,6928,6929,6930,6931,6932,6933,6934,6935,6936,6937,6938,
6998,6999,7000,7001,7002,7003,7004,7005,7006,7007,7008,7009,7010,7011,7012,7013,
7073,7074,7075,7076,7077,7078,7079,7080,7081,7082,7083,7084,7085,7086,7087,7088,
7148,7149,7150,7151,7152,7153,7154,7155,7156,7157,7158,7159,7160,7161,7162,7163,
7223,7224,7225,7226,7227,7228,7229,7230,7231,7232,7233,7234,7235,7236,7237,7238,
7298,7299,7300,7301,7302,7303,7304,7305,7306,7307,7308,7309,7310,7311,7312,7313,
7373,7374,7375,7376,7377,7378,7379,7380,7381,7382,7383,7384,7385,7386,7387,7388,
7448,7449,7450,7451,7452,7453,7454,7455,7456,7457,7458,7459,7460,7461,7462,7463
</chunk>
   <chunk x="16" y="0" width="16" height="16">
6339,6340,6342,6343,6344,6345,6346,6347,6348,6349,6350,6351,6352,6353,6354,6355,
6414,6415,6417,6418,6419,6420,6421,6422,6423,6424,6425,6426,6427,6428,6429,6430,
6489,6490,6492,6493,6494,6495,6496,6497,6498,6499,6500,6501,6502,6503,6504,6505,
6564,6565,6567,6568,6569,6570,6571,6572,6573,6574,6575,6576,6577,6578,6579,6580,
6639,6640,6642,6643,6644,6645,6646,6647,6648,6649,6650,6651,6652,6653,6654,6655,
6714,6715,6717,6718,6719,6720,6721,6722,6723,6724,6725,6726,6727,6728,6729,6730,
6789,6790,6792,6793,6794,6795,6796,6797,6798,6799,6800,6801,6802,6803,6804,6805,
6864,6865,6867,6868,6869,6870,6871,6872,6873,6874,6875,6876,6877,6878,6879,6880,
6939,6940,6942,6943,6944,6945,6946,6947,6948,6949,6950,6951,6952,6953,6954,6955,
7014,7015,7017,7018,7019,7020,7021,7022,7023,7024,7025,7026,7027,7028,7029,7030,
7089,7090,7092,7093,7094,7095,7096,7097,7098,7099,7100,7101,7102,7103,7104,7105,
7164,7165,7167,7168,7169,7170,7171,7172,7173,7174,7175,7176,7177,7178,7179,7180,
7239,7240,7242,7243,7244,7245,7246,7247,7248,7249,7250,7251,7252,7253,7254,7255,
7314,7315,7317,7318,7319,7320,7321,7322,7323,7324,7325,7326,7327,7328,7329,7330,
7389,7390,7392,7393,7394,7395,7396,7397,7398,7399,7400,7401,7402,7403,7404,7405,
7464,7465,7467,7468,7469,7470,7471,7472,7473,7474,7475,7476,7477,7478,7479,7480
</chunk>
   <chunk x="32" y="0" width="16" height="16">
6356,6357,6358,6359,6360,6361,6362,6363,6364,6365,6366,6367,6368,6369,6370,6371,
6431,6432,6433,6434,6435,6436,6437,6438,6439,6440,6441,6442,6443,6444,6445,6446,
6506,6507,6508,6509,6510,6511,6512,6513,6514,6515,6516,6517,6518,6519,6520,6521,
6581,6582,6583,6584,6585,6586,6587,6588,6589,6590,6591,6592,6593,6594,6595,6596,
6656,6657,6658,6659,6660,6661,6662,6663,6664,6665,6666,6667,6668,6669,6670,6671,
6731,6732,6733,6734,6735,6736,6737,6738,6739,6740,6741,6742,6743,6744,6745,6746,
6806,6807,6808,6809,6810,6811,6812,6813,6814,6815,6816,6817,6818,6819,6820,6821,
6881,6882,6883,6884,6885,6886,6887,6888,6889,6890,6891,6892,6893,6894,6895,6896,
6956,6957,6958,6959,6960,6961,6962,6963,6964,6965,6966,6967,6968,6969,6970,6971,
7031,7032,7033,7034,7035,7036,7037,7038,7039,7040,7041,7042,7043,7044,7045,7046,
7106,7107,7108,7109,7110,7111,7112,7113,7114,7115,7116,7117,7118,7119,7120,7121,
7181,7182,7183,7184,7185,7186,7187,7188,7189,7190,7191,7192,7193,7194,7195,7196,
7256,7257,7258,7259,7260,7261,7262,7263,7264,7265,7266,7267,7268,7269,7270,7271,
7331,7332,7333,7334,7335,7336,7337,7338,7339,7340,7341,7342,7343,7344,7345,7346,
7406,7407,7408,7409,7410,7411,7412,7413,7414,7415,7416,7417,7418,7419,7420,7421,
7481,7482,7483,7484,7485,7486,7487,7488,7489,7490,7491,7492,7493,7494,7495,7496
</chunk>
   <chunk x="48" y="0" width="16" height="16">
6372,6373,6374,6375,6376,6377,6378,6379,6380,6381,6382,6383,6384,6385,6386,6387,
6447,6448,6449,6450,6451,6452,6453,6454,6455,6456,6457,6458,6459,6460,6461,6462,
6522,6523,6524,6525,6526,6527,6528,6529,6530,6531,6532,6533,6534,6535,6536,6537,
6597,6598,6599,6600,6601,6602,6603,6604,6605,6606,6607,6608,6609,6610,6611,6612,
6672,6673,6674,6675,6676,6677,6678,6679,6680,6681,6682,6683,6684,6685,6686,6687,
6747,6748,6749,6750,6751,6752,6753,6754,6755,6756,6757,6758,6759,6760,6761,6762,
6822,6823,6824,6825,6826,6827,6828,6829,6830,6831,6832,6833,6834,6835,6836,6837,
6897,6898,6899,6900,6901,6902,6903,6904,6905,6906,6907,6908,6909,6910,6911,6912,
6972,6973,6974,6975,6976,6977,6978,6979,6980,6981,6982,6983,6984,6985,6986,6987,
7047,7048,7049,7050,7051,7052,7053,7054,7055,7056,7057,7058,7059,7060,7061,7062,
7122,7123,7124,7125,7126,7127,7128,7129,7130,7131,7132,7133,7134,7135,7136,7137,
7197,7198,7199,7200,7201,7202,7203,7204,7205,7206,7207,7208,7209,7210,7211,7212,
7272,7273,7274,7275,7276,7277,7278,7279,7280,7281,7282,7283,7284,7285,7286,7287,
7347,7348,7349,7350,7351,7352,7353,7354,7355,7356,7357,7358,7359,7360,7361,7362,
7422,7423,7424,7425,7426,7427,7428,7429,7430,7431,7432,7433,7434,7435,7436,7437,
7497,7498,7499,7500,7501,7502,7503,7504,7505,7506,7507,7508,7509,7510,7511,7512
</chunk>
   <chunk x="64" y="0" width="16" height="16">
6388,6389,6390,6391,6392,6393,6394,6395,6396,6397,6398,6399,6400,6401,6402,6403,
6463,6464,6465,6466,6467,6468,6469,6470,6471,6472,6473,6474,6475,6476,6477,6478,
6538,6539,6540,6541,6542,6543,6544,6545,6546,6547,6548,6549,6550,6551,6552,6553,
6613,6614,6615,6616,6617,6618,6619,6620,6621,6622,6623,6624,6625,6626,6627,6628,
6688,6689,6690,6691,6692,6693,6694,6695,6696,6697,6698,6699,6700,6701,6702,6703,
6763,6764,6765,6766,6767,6768,6769,6770,6771,6772,6773,6774,6775,6776,6777,6778,
6838,6839,6840,6841,6842,6843,6844,6845,6846,6847,6848,6849,6850,6851,6852,6853,
6913,6914,6915,6916,6917,6918,6919,6920,6921,6922,6923,6924,6925,6926,6927,6928,
6988,6989,6990,6991,6992,6993,6994,6995,6996,6997,6998,6999,7000,7001,7002,7003,
7063,7064,7065,7066,7067,7068,7069,7070,7071,7072,7073,7074,7075,7076,7077,7078,
7138,7139,7140,7141,7142,7143,7144,7145,7146,7147,7148,7149,7150,7151,7152,7153,
7213,7214,7215,7216,7217,7218,7219,7220,7221,7222,7223,7224,7225,7226,7227,7228,
7288,7289,7290,7291,7292,7293,7294,7295,7296,7297,7298,7299,7300,7301,7302,7303,
7363,7364,7365,7366,7367,7368,7369,7370,7371,7372,7373,7374,7375,7376,7377,7378,
7438,7439,7440,7441,7442,7443,7444,7445,7446,7447,7448,7449,7450,7451,7452,7453,
7513,7514,7515,7516,7517,7518,7519,7520,7521,7522,7523,7524,7525,7526,7527,7528
</chunk>
   <chunk x="80" y="0" width="16" height="16">
6404,6405,6406,6407,6408,6409,6410,6411,6412,6413,6414,6415,6342,0,0,0,
6479,6480,6481,6482,6483,6484,6485,6486,6487,6488,6489,6490,6417,0,0,0,
6554,6555,6556,6557,6558,6559,6560,6561,6562,6563,6564,6565,6492,0,0,0,
6629,6630,6631,6632,6633,6634,6635,6636,6637,6638,6639,6640,6567,0,0,0,
6704,6705,6706,6707,6708,6709,6710,6711,6712,6713,6714,6715,6642,0,0,0,
6779,6780,6781,6782,6783,6784,6785,6786,6787,6788,6789,6790,6717,0,0,0,
6854,6855,6856,6857,6858,6859,6860,6861,6862,6863,6864,6865,6792,0,0,0,
6929,6930,6931,6932,6933,6934,6935,6936,6937,6938,6939,6940,6867,0,0,0,
7004,7005,7006,7007,7008,7009,7010,7011,7012,7013,7014,7015,6942,0,0,0,
7079,7080,7081,7082,7083,7084,7085,7086,7087,7088,7089,7090,7017,0,0,0,
7154,7155,7156,7157,7158,7159,7160,7161,7162,7163,7164,7165,7092,0,0,0,
7229,7230,7231,7232,7233,7234,7235,7236,7237,7238,7239,7240,7167,0,0,0,
7304,7305,7306,7307,7308,7309,7310,7311,7312,7313,7314,7315,7242,0,0,0,
7379,7380,7381,7382,7383,7384,7385,7386,7387,7388,7389,7390,7317,0,0,0,
7454,7455,7456,7457,7458,7459,7460,7461,7462,7463,7464,7465,7392,0,0,0,
7529,7530,7531,7532,7533,7534,7535,7536,7537,7538,7539,7540,7467,0,0,0
</chunk>
   <chunk x="0" y="16" width="16" height="16">
7523,7524,7525,7526,7527,7528,7529,7530,7531,7532,7533,7534,7535,7536,7537,7538,
7598,7599,7600,7601,7602,7603,7604,7605,7606,7607,7608,7609,7610,7611,7612,7613,
7673,7674,7675,7676,7677,7678,7679,7680,7681,7682,7683,7684,7685,7686,7687,7688,
1747,1748,1749,1750,1751,1752,1753,1754,1755,1756,1757,1758,1759,1760,1761,1762,
1822,1823,1824,1825,1826,1827,1828,1829,1830,1831,1832,1833,1834,1835,1836,1837,
1897,1898,1899,1900,1901,1902,1903,1904,1905,1906,1907,1908,1909,1910,1911,1912,
1972,1973,1974,1975,1976,1977,1978,1979,1980,1981,1982,1983,1984,1985,1986,1987,
2047,2048,2049,2050,2051,2052,2053,2054,2055,2056,2057,2058,2059,2060,2061,2062,
2122,2123,2124,2125,2126,2127,2128,2129,2130,2131,2132,2133,2134,2135,2136,2137,
2197,2198,2199,2200,2201,2202,2203,2204,2205,2206,2207,2208,2209,2210,2211,2212,
2272,2273,2274,2275,2276,2277,2278,2279,2280,2281,2282,2283,2284,2285,2286,2287,
2347,2348,2349,2350,2351,2352,2353,2354,2355,2356,2357,2358,2359,2360,2361,2362,
2422,2423,2424,2425,2426,2427,2428,2429,2430,2431,2432,2433,2434,2435,2436,2437,
2497,2498,2499,2500,2501,2502,2503,2504,2505,2506,2507,2508,2509,2510,2511,2512,
2572,2573,2574,2575,2576,2577,2578,2579,2580,2581,2582,2583,2584,2585,2586,2587,
2647,2648,2649,2650,2651,2652,2653,2654,2655,2656,2657,2658,2659,2660,2661,2662
</chunk>
   <chunk x="16" y="16" width="16" height="16">
7539,7540,7542,7543,7544,7545,7546,7547,7548,7549,7550,7551,7552,7553,7554,7555,
7614,7615,7617,7618,7619,7620,7621,7622,7623,7624,7625,7626,7627,7628,7629,7630,
7689,7690,0,0,0,0,0,0,0,0,0,0,0,0,0,0,
1763,1764,1765,1692,1693,1694,1695,1696,1697,1698,1699,1700,1701,1702,1703,1704,
1838,1839,1840,1767,1768,1769,1770,1771,1772,1773,1774,1775,1776,1777,1778,1779,
1913,1914,1915,1842,1843,1844,1845,1846,1847,1848,1849,1850,1851,1852,1853,1854,
1988,1989,1990,1917,1918,1919,1920,1921,1922,1923,1924,1925,1926,1927,1928,1929,
2063,2064,2065,1992,1993,1994,1995,1996,1997,1998,1999,2000,2001,2002,2003,2004,
2138,2139,2140,2067,2068,2069,2070,2071,2072,2073,2074,2075,2076,2077,2078,2079,
2213,2214,2215,2142,2143,2144,2145,2146,2147,2148,2149,2150,2151,2152,2153,2154,
2288,2289,2290,2217,2218,2219,2220,2221,2222,2223,2224,2225,2226,2227,2228,2229,
2363,2364,2365,2292,2293,2294,2295,2296,2297,2298,2299,2300,2301,2302,2303,2304,
2438,2439,2440,2367,2368,2369,2370,2371,2372,2373,2374,2375,2376,2377,2378,2379,
2513,2514,2515,2442,2443,2444,2445,2446,2447,2448,2449,2450,2451,2452,2453,2454,
2588,2589,2590,2517,2518,2519,2520,2521,2522,2523,2524,2525,2526,2527,2528,2529,
2663,2664,2665,2592,2593,2594,2595,2596,2597,2598,2599,2600,2601,2602,2603,2604
</chunk>
   <chunk x="32" y="16" width="16" height="16">
7556,7557,7558,7559,7560,7561,7562,7563,7564,7565,7566,7567,7568,7569,7570,7571,
7631,7632,7633,7634,7635,7636,7637,7638,7639,7640,7641,7642,7643,7644,7645,7646,
0,0,0,0,0,0,0,0,0,0,0,0,0,0,0,0,
1705,1706,1707,1708,1709,1710,1711,1712,1713,1714,1715,1716,1717,1718,1719,1720,
1780,1781,1782,1783,1784,1785,1786,1787,1788,1789,1790,1791,1792,1793,1794,1795,
1855,1856,1857,1858,1859,1860,1861,1862,1863,1864,1865,1866,1867,1868,1869,1870,
1930,1931,1932,1933,1934,1935,1936,1937,1938,1939,1940,1941,1942,1943,1944,1945,
2005,2006,2007,2008,2009,2010,2011,2012,2013,2014,2015,2016,2017,2018,2019,2020,
2080,2081,2082,2083,2084,2085,2086,2087,2088,2089,2090,2091,2092,2093,2094,2095,
2155,2156,2157,2158,2159,2160,2161,2162,2163,2164,2165,2166,2167,2168,2169,2170,
2230,2231,2232,2233,2234,2235,2236,2237,2238,2239,2240,2241,2242,2243,2244,2245,
2305,2306,2307,2308,2309,2310,2311,2312,2313,2314,2315,2316,2317,2318,2319,2320,
2380,2381,2382,2383,2384,2385,2386,2387,2388,2389,2390,2391,2392,2393,2394,2395,
2455,2456,2457,2458,2459,2460,2461,2462,2463,2464,2465,2466,2467,2468,2469,2470,
2530,2531,2532,2533,2534,2535,2536,2537,2538,2539,2540,2541,2542,2543,2544,2545,
2605,2606,2607,2608,2609,2610,2611,2612,2613,2614,2615,2616,2617,2618,2619,2620
</chunk>
   <chunk x="48" y="16" width="16" height="16">
7572,7573,7574,7575,7576,7577,7578,7579,7580,7581,7582,7583,7584,7585,7586,7587,
7647,7648,7649,7650,7651,7652,7653,7654,7655,7656,7657,7658,7659,7660,7661,7662,
0,0,0,0,0,0,0,0,0,0,0,0,0,0,0,0,
1721,1722,1723,1724,1725,1726,1727,1728,1729,1730,1731,1732,1733,1734,1735,1736,
1796,1797,1798,1799,1800,1801,1802,1803,1804,1805,1806,1807,1808,1809,1810,1811,
1871,1872,1873,1874,1875,1876,1877,1878,1879,1880,1881,1882,1883,1884,1885,1886,
1946,1947,1948,1949,1950,1951,1952,1953,1954,1955,1956,1957,1958,1959,1960,1961,
2021,2022,2023,2024,2025,2026,2027,2028,2029,2030,2031,2032,2033,2034,2035,2036,
2096,2097,2098,2099,2100,2101,2102,2103,2104,2105,2106,2107,2108,2109,2110,2111,
2171,2172,2173,2174,2175,2176,2177,2178,2179,2180,2181,2182,2183,2184,2185,2186,
2246,2247,2248,2249,2250,2251,2252,2253,2254,2255,2256,2257,2258,2259,2260,2261,
2321,2322,2323,2324,2325,2326,2327,2328,2329,2330,2331,2332,2333,2334,2335,2336,
2396,2397,2398,2399,2400,2401,2402,2403,2404,2405,2406,2407,2408,2409,2410,2411,
2471,2472,2473,2474,2475,2476,2477,2478,2479,2480,2481,2482,2483,2484,2485,2486,
2546,2547,2548,2549,2550,2551,2552,2553,2554,2555,2556,2557,2558,2559,2560,2561,
2621,2622,2623,2624,2625,2626,2627,2628,2629,2630,2631,2632,2633,2634,2635,2636
</chunk>
   <chunk x="64" y="16" width="16" height="16">
7588,7589,7590,7591,7592,7593,7594,7595,7596,7597,7598,7599,7600,7601,7602,7603,
7663,7664,7665,7666,7667,7668,7669,7670,7671,7672,7673,7674,7675,7676,7677,7678,
0,0,0,0,0,0,0,0,0,0,0,0,0,0,0,0,
1737,1738,1739,1740,1741,1742,1743,1744,1745,1746,1747,1748,1749,1750,1751,1752,
1812,1813,1814,1815,1816,1817,1818,1819,1820,1821,1822,1823,1824,1825,1826,1827,
1887,1888,1889,1890,1891,1892,1893,1894,1895,1896,1897,1898,1899,1900,1901,1902,
1962,1963,1964,1965,1966,1967,1968,1969,1970,1971,1972,1973,1974,1975,1976,1977,
2037,2038,2039,2040,2041,2042,2043,2044,2045,2046,2047,2048,2049,2050,2051,2052,
2112,2113,2114,2115,2116,2117,2118,2119,2120,2121,2122,2123,2124,2125,2126,2127,
2187,2188,2189,2190,2191,2192,2193,2194,2195,2196,2197,2198,2199,2200,2201,2202,
2262,2263,2264,2265,2266,2267,2268,2269,2270,2271,2272,2273,2274,2275,2276,2277,
2337,2338,2339,2340,2341,2342,2343,2344,2345,2346,2347,2348,2349,2350,2351,2352,
2412,2413,2414,2415,2416,2417,2418,2419,2420,2421,2422,2423,2424,2425,2426,2427,
2487,2488,2489,2490,2491,2492,2493,2494,2495,2496,2497,2498,2499,2500,2501,2502,
2562,2563,2564,2565,2566,2567,2568,2569,2570,2571,2572,2573,2574,2575,2576,2577,
2637,2638,2639,2640,2641,2642,2643,2644,2645,2646,2647,2648,2649,2650,2651,2652
</chunk>
   <chunk x="80" y="16" width="16" height="16">
7604,7605,7606,7607,7608,7609,7610,7611,7612,7613,7614,7615,7542,0,0,0,
7679,7680,7681,7682,7683,7684,7685,7686,7687,7688,7689,7690,7617,0,0,0,
0,0,0,0,0,0,0,0,0,0,0,0,0,0,0,0,
1753,1754,1755,1756,1757,1758,1759,1760,1761,1762,1763,1764,1765,0,0,0,
1828,1829,1830,1831,1832,1833,1834,1835,1836,1837,1838,1839,1840,0,0,0,
1903,1904,1905,1906,1907,1908,1909,1910,1911,1912,1913,1914,1915,0,0,0,
1978,1979,1980,1981,1982,1983,1984,1985,1986,1987,1988,1989,1990,0,0,0,
2053,2054,2055,2056,2057,2058,2059,2060,2061,2062,2063,2064,2065,0,0,0,
2128,2129,2130,2131,2132,2133,2134,2135,2136,2137,2138,2139,2140,0,0,0,
2203,2204,2205,2206,2207,2208,2209,2210,2211,2212,2213,2214,2215,0,0,0,
2278,2279,2280,2281,2282,2283,2284,2285,2286,2287,2288,2289,2290,0,0,0,
2353,2354,2355,2356,2357,2358,2359,2360,2361,2362,2363,2364,2365,0,0,0,
2428,2429,2430,2431,2432,2433,2434,2435,2436,2437,2438,2439,2440,0,0,0,
2503,2504,2505,2506,2507,2508,2509,2510,2511,2512,2513,2514,2515,0,0,0,
2578,2579,2580,2581,2582,2583,2584,2585,2586,2587,2588,2589,2590,0,0,0,
2653,2654,2655,2656,2657,2658,2659,2660,2661,2662,2663,2664,2665,0,0,0
</chunk>
   <chunk x="0" y="32" width="16" height="16">
2722,2723,2724,2725,2726,2727,2728,2729,2730,2731,2732,2733,2734,2735,2736,2737,
2797,2798,2799,2800,2801,2802,2803,2804,2805,2806,2807,2808,2809,2810,2811,2812,
2872,2873,2874,2875,2876,2877,2878,2879,2880,2881,2882,2883,2884,2885,2886,2887,
2947,2948,2949,2950,2951,2952,2953,2954,2955,2956,2957,2958,2959,2960,2961,2962,
3022,3023,3024,3025,3026,3027,3028,3029,3030,3031,3032,3033,3034,3035,3036,3037,
3097,3098,3099,3100,3101,3102,3103,3104,3105,3106,3107,3108,3109,3110,3111,3112,
3172,3173,3174,3175,3176,3177,3178,3179,3180,3181,3182,3183,3184,3185,3186,3187,
3247,3248,3249,3250,3251,3252,3253,3254,3255,3256,3257,3258,3259,3260,3261,3262,
3322,3323,3324,3325,3326,3327,3328,3329,3330,3331,3332,3333,3334,3335,3336,3337,
3397,3398,3399,3400,3401,3402,3403,3404,3405,3406,3407,3408,3409,3410,3411,3412,
3472,3473,3474,3475,3476,3477,3478,3479,3480,3481,3482,3483,3484,3485,3486,3487,
3547,3548,3549,3550,3551,3552,3553,3554,3555,3556,3557,3558,3559,3560,3561,3562,
3622,3623,3624,3625,3626,3627,3628,3629,3630,3631,3632,3633,3634,3635,3636,3637,
3697,3698,3699,3700,3701,3702,3703,3704,3705,3706,3707,3708,3709,3710,3711,3712,
3772,3773,3774,3775,3776,3777,3778,3779,3780,3781,3782,3783,3784,3785,3786,3787,
3847,3848,3849,3850,3851,3852,3853,3854,3855,3856,3857,3858,3859,3860,3861,3862
</chunk>
   <chunk x="16" y="32" width="16" height="16">
2738,2739,2740,2667,2668,2669,2670,2671,2672,2673,2674,2675,2676,2677,2678,2679,
2813,2814,2815,2742,2743,2744,2745,2746,2747,2748,2749,2750,2751,2752,2753,2754,
2888,2889,2890,2817,2818,2819,2820,2821,2822,2823,2824,2825,2826,2827,2828,2829,
2963,2964,2965,2892,2893,2894,2895,2896,2897,2898,2899,2900,2901,2902,2903,2904,
3038,3039,3040,2967,2968,2969,2970,2971,2972,2973,2974,2975,2976,2977,2978,2979,
3113,3114,3115,3042,3043,3044,3045,3046,3047,3048,3049,3050,3051,3052,3053,3054,
3188,3189,3190,3117,3118,3119,3120,3121,3122,3123,3124,3125,3126,3127,3128,3129,
3263,3264,3265,3192,3193,3194,3195,3196,3197,3198,3199,3200,3201,3202,3203,3204,
3338,3339,3340,3267,3268,3269,3270,3271,3272,3273,3274,3275,3276,3277,3278,3279,
3413,3414,3415,3342,3343,3344,3345,3346,3347,3348,3349,3350,3351,3352,3353,3354,
3488,3489,3490,3417,3418,3419,3420,3421,3422,3423,3424,3425,3426,3427,3428,3429,
3563,3564,3565,3492,3493,3494,3495,3496,3497,3498,3499,3500,3501,3502,3503,3504,
3638,3639,3640,3567,3568,3569,3570,3571,3572,3573,3574,3575,3576,3577,3578,3579,
3713,3714,3715,3642,3643,3644,3645,3646,3647,3648,3649,3650,3651,3652,3653,3654,
3788,3789,3790,3717,3718,3719,3720,3721,3722,3723,3724,3725,3726,3727,3728,3729,
3863,3864,3865,3792,3793,3794,3795,3796,3797,3798,3799,3800,3801,3802,3803,3804
</chunk>
   <chunk x="32" y="32" width="16" height="16">
2680,2681,2682,2683,2684,2685,2686,2687,2688,2689,2690,2691,2692,2693,2694,2695,
2755,2756,2757,2758,2759,2760,2761,2762,2763,2764,2765,2766,2767,2768,2769,2770,
2830,2831,2832,2833,2834,2835,2836,2837,2838,2839,2840,2841,2842,2843,2844,2845,
2905,2906,2907,2908,2909,2910,2911,2912,2913,2914,2915,2916,2917,2918,2919,2920,
2980,2981,2982,2983,2984,2985,2986,2987,2988,2989,2990,2991,2992,2993,2994,2995,
3055,3056,3057,3058,3059,3060,3061,3062,3063,3064,3065,3066,3067,3068,3069,3070,
3130,3131,3132,3133,3134,3135,3136,3137,3138,3139,3140,3141,3142,3143,3144,3145,
3205,3206,3207,3208,3209,3210,3211,3212,3213,3214,3215,3216,3217,3218,3219,3220,
3280,3281,3282,3283,3284,3285,3286,3287,3288,3289,3290,3291,3292,3293,3294,3295,
3355,3356,3357,3358,3359,3360,3361,3362,3363,3364,3365,3366,3367,3368,3369,3370,
3430,3431,3432,3433,3434,3435,3436,3437,3438,3439,3440,3441,3442,3443,3444,3445,
3505,3506,3507,3508,3509,3510,3511,3512,3513,3514,3515,3516,3517,3518,3519,3520,
3580,3581,3582,3583,3584,3585,3586,3587,3588,3589,3590,3591,3592,3593,3594,3595,
3655,3656,3657,3658,3659,3660,3661,3662,3663,3664,3665,3666,3667,3668,3669,3670,
3730,3731,3732,3733,3734,3735,3736,3737,3738,3739,3740,3741,3742,3743,3744,3745,
3805,3806,3807,3808,3809,3810,3811,3812,3813,3814,3815,3816,3817,3818,3819,3820
</chunk>
   <chunk x="48" y="32" width="16" height="16">
2696,2697,2698,2699,2700,2701,2702,2703,2704,2705,2706,2707,2708,2709,2710,2711,
2771,2772,2773,2774,2775,2776,2777,2778,2779,2780,2781,2782,2783,2784,2785,2786,
2846,2847,2848,2849,2850,2851,2852,2853,2854,2855,2856,2857,2858,2859,2860,2861,
2921,2922,2923,2924,2925,2926,2927,2928,2929,2930,2931,2932,2933,2934,2935,2936,
2996,2997,2998,2999,3000,3001,3002,3003,3004,3005,3006,3007,3008,3009,3010,3011,
3071,3072,3073,3074,3075,3076,3077,3078,3079,3080,3081,3082,3083,3084,3085,3086,
3146,3147,3148,3149,3150,3151,3152,3153,3154,3155,3156,3157,3158,3159,3160,3161,
3221,3222,3223,3224,3225,3226,3227,3228,3229,3230,3231,3232,3233,3234,3235,3236,
3296,3297,3298,3299,3300,3301,3302,3303,3304,3305,3306,3307,3308,3309,3310,3311,
3371,3372,3373,3374,3375,3376,3377,3378,3379,3380,3381,3382,3383,3384,3385,3386,
3446,3447,3448,3449,3450,3451,3452,3453,3454,3455,3456,3457,3458,3459,3460,3461,
3521,3522,3523,3524,3525,3526,3527,3528,3529,3530,3531,3532,3533,3534,3535,3536,
3596,3597,3598,3599,3600,3601,3602,3603,3604,3605,3606,3607,3608,3609,3610,3611,
3671,3672,3673,3674,3675,3676,3677,3678,3679,3680,3681,3682,3683,3684,3685,3686,
3746,3747,3748,3749,3750,3751,3752,3753,3754,3755,3756,3757,3758,3759,3760,3761,
3821,3822,3823,3824,3825,3826,3827,3828,3829,3830,3831,3832,3833,3834,3835,3836
</chunk>
   <chunk x="64" y="32" width="16" height="16">
2712,2713,2714,2715,2716,2717,2718,2719,2720,2721,2722,2723,2724,2725,2726,2727,
2787,2788,2789,2790,2791,2792,2793,2794,2795,2796,2797,2798,2799,2800,2801,2802,
2862,2863,2864,2865,2866,2867,2868,2869,2870,2871,2872,2873,2874,2875,2876,2877,
2937,2938,2939,2940,2941,2942,2943,2944,2945,2946,2947,2948,2949,2950,2951,2952,
3012,3013,3014,3015,3016,3017,3018,3019,3020,3021,3022,3023,3024,3025,3026,3027,
3087,3088,3089,3090,3091,3092,3093,3094,3095,3096,3097,3098,3099,3100,3101,3102,
3162,3163,3164,3165,3166,3167,3168,3169,3170,3171,3172,3173,3174,3175,3176,3177,
3237,3238,3239,3240,3241,3242,3243,3244,3245,3246,3247,3248,3249,3250,3251,3252,
3312,3313,3314,3315,3316,3317,3318,3319,3320,3321,3322,3323,3324,3325,3326,3327,
3387,3388,3389,3390,3391,3392,3393,3394,3395,3396,3397,3398,3399,3400,3401,3402,
3462,3463,3464,3465,3466,3467,3468,3469,3470,3471,3472,3473,3474,3475,3476,3477,
3537,3538,3539,3540,3541,3542,3543,3544,3545,3546,3547,3548,3549,3550,3551,3552,
3612,3613,3614,3615,3616,3617,3618,3619,3620,3621,3622,3623,3624,3625,3626,3627,
3687,3688,3689,3690,3691,3692,3693,3694,3695,3696,3697,3698,3699,3700,3701,3702,
3762,3763,3764,3765,3766,3767,3768,3769,3770,3771,3772,3773,3774,3775,3776,3777,
3837,3838,3839,3840,3841,3842,3843,3844,3845,3846,3847,3848,3849,3850,3851,3852
</chunk>
   <chunk x="80" y="32" width="16" height="16">
2728,2729,2730,2731,2732,2733,2734,2735,2736,2737,2738,2739,2740,0,0,0,
2803,2804,2805,2806,2807,2808,2809,2810,2811,2812,2813,2814,2815,0,0,0,
2878,2879,2880,2881,2882,2883,2884,2885,2886,2887,2888,2889,2890,0,0,0,
2953,2954,2955,2956,2957,2958,2959,2960,2961,2962,2963,2964,2965,0,0,0,
3028,3029,3030,3031,3032,3033,3034,3035,3036,3037,3038,3039,3040,0,0,0,
3103,3104,3105,3106,3107,3108,3109,3110,3111,3112,3113,3114,3115,0,0,0,
3178,3179,3180,3181,3182,3183,3184,3185,3186,3187,3188,3189,3190,0,0,0,
3253,3254,3255,3256,3257,3258,3259,3260,3261,3262,3263,3264,3265,0,0,0,
3328,3329,3330,3331,3332,3333,3334,3335,3336,3337,3338,3339,3340,0,0,0,
3403,3404,3405,3406,3407,3408,3409,3410,3411,3412,3413,3414,3415,0,0,0,
3478,3479,3480,3481,3482,3483,3484,3485,3486,3487,3488,3489,3490,0,0,0,
3553,3554,3555,3556,3557,3558,3559,3560,3561,3562,3563,3564,3565,0,0,0,
3628,3629,3630,3631,3632,3633,3634,3635,3636,3637,3638,3639,3640,0,0,0,
3703,3704,3705,3706,3707,3708,3709,3710,3711,3712,3713,3714,3715,0,0,0,
3778,3779,3780,3781,3782,3783,3784,3785,3786,3787,3788,3789,3790,0,0,0,
3853,3854,3855,3856,3857,3858,3859,3860,3861,3862,3863,3864,3865,0,0,0
</chunk>
   <chunk x="0" y="48" width="16" height="16">
3922,3923,3924,3925,3926,3927,3928,3929,3930,3931,3932,3933,3934,3935,3936,3937,
3997,3998,3999,4000,4001,4002,4003,4004,4005,4006,4007,4008,4009,4010,4011,4012,
4072,4073,4074,4075,4076,4077,4078,4079,4080,4081,4082,4083,4084,4085,4086,4087,
0,0,0,0,0,0,0,0,0,0,0,0,0,0,0,0,
0,0,0,0,0,0,0,0,0,0,0,0,0,0,0,0,
0,0,0,0,0,0,0,0,0,0,0,0,0,0,0,0,
0,0,0,0,0,0,0,0,0,0,0,0,0,0,0,0,
0,0,0,0,0,0,0,0,0,0,0,0,0,0,0,0,
0,0,0,0,0,0,0,0,0,0,0,0,0,0,0,0,
0,0,0,0,0,0,0,0,0,0,0,0,0,0,0,0,
0,0,0,0,0,0,0,0,0,0,0,0,0,0,0,0,
0,0,0,0,0,0,0,0,0,0,0,0,0,0,0,0,
0,0,0,0,0,0,0,0,0,0,0,0,0,0,0,0,
0,0,0,0,0,0,0,0,0,0,0,0,0,0,0,0,
0,0,0,0,0,0,0,0,0,0,0,0,0,0,0,0,
0,0,0,0,0,0,0,0,0,0,0,0,0,0,0,0
</chunk>
   <chunk x="16" y="48" width="16" height="16">
3938,3939,3940,3867,3868,3869,3870,3871,3872,3873,3874,3875,3876,3877,3878,3879,
4013,4014,4015,3942,3943,3944,3945,3946,3947,3948,3949,3950,3951,3952,3953,3954,
4088,4089,4090,4017,4018,4019,4020,4021,4022,4023,4024,4025,4026,4027,4028,4029,
0,0,0,0,0,0,0,0,0,0,0,0,0,0,0,0,
0,0,0,0,0,0,0,0,0,0,0,0,0,0,0,0,
0,0,0,0,0,0,0,0,0,0,0,0,0,0,0,0,
0,0,0,0,0,0,0,0,0,0,0,0,0,0,0,0,
0,0,0,0,0,0,0,0,0,0,0,0,0,0,0,0,
0,0,0,0,0,0,0,0,0,0,0,0,0,0,0,0,
0,0,0,0,0,0,0,0,0,0,0,0,0,0,0,0,
0,0,0,0,0,0,0,0,0,0,0,0,0,0,0,0,
0,0,0,0,0,0,0,0,0,0,0,0,0,0,0,0,
0,0,0,0,0,0,0,0,0,0,0,0,0,0,0,0,
0,0,0,0,0,0,0,0,0,0,0,0,0,0,0,0,
0,0,0,0,0,0,0,0,0,0,0,0,0,0,0,0,
0,0,0,0,0,0,0,0,0,0,0,0,0,0,0,0
</chunk>
   <chunk x="32" y="48" width="16" height="16">
3880,3881,3882,3883,3884,3885,3886,3887,3888,3889,3890,3891,3892,3893,3894,3895,
3955,3956,3957,3958,3959,3960,3961,3962,3963,3964,3965,3966,3967,3968,3969,3970,
4030,4031,4032,4033,4034,4035,4036,4037,4038,4039,4040,4041,4042,4043,4044,4045,
0,0,0,0,0,0,0,0,0,0,0,0,0,0,0,0,
0,0,0,0,0,0,0,0,0,0,0,0,0,0,0,0,
0,0,0,0,0,0,0,0,0,0,0,0,0,0,0,0,
0,0,0,0,0,0,0,0,0,0,0,0,0,0,0,0,
0,0,0,0,0,0,0,0,0,0,0,0,0,0,0,0,
0,0,0,0,0,0,0,0,0,0,0,0,0,0,0,0,
0,0,0,0,0,0,0,0,0,0,0,0,0,0,0,0,
0,0,0,0,0,0,0,0,0,0,0,0,0,0,0,0,
0,0,0,0,0,0,0,0,0,0,0,0,0,0,0,0,
0,0,0,0,0,0,0,0,0,0,0,0,0,0,0,0,
0,0,0,0,0,0,0,0,0,0,0,0,0,0,0,0,
0,0,0,0,0,0,0,0,0,0,0,0,0,0,0,0,
0,0,0,0,0,0,0,0,0,0,0,0,0,0,0,0
</chunk>
   <chunk x="48" y="48" width="16" height="16">
3896,3897,3898,3899,3900,3901,3902,3903,3904,3905,3906,3907,3908,3909,3910,3911,
3971,3972,3973,3974,3975,3976,3977,3978,3979,3980,3981,3982,3983,3984,3985,3986,
4046,4047,4048,4049,4050,4051,4052,4053,4054,4055,4056,4057,4058,4059,4060,4061,
0,0,0,0,0,0,0,0,0,0,0,0,0,0,0,0,
0,0,0,0,0,0,0,0,0,0,0,0,0,0,0,0,
0,0,0,0,0,0,0,0,0,0,0,0,0,0,0,0,
0,0,0,0,0,0,0,0,0,0,0,0,0,0,0,0,
0,0,0,0,0,0,0,0,0,0,0,0,0,0,0,0,
0,0,0,0,0,0,0,0,0,0,0,0,0,0,0,0,
0,0,0,0,0,0,0,0,0,0,0,0,0,0,0,0,
0,0,0,0,0,0,0,0,0,0,0,0,0,0,0,0,
0,0,0,0,0,0,0,0,0,0,0,0,0,0,0,0,
0,0,0,0,0,0,0,0,0,0,0,0,0,0,0,0,
0,0,0,0,0,0,0,0,0,0,0,0,0,0,0,0,
0,0,0,0,0,0,0,0,0,0,0,0,0,0,0,0,
0,0,0,0,0,0,0,0,0,0,0,0,0,0,0,0
</chunk>
   <chunk x="64" y="48" width="16" height="16">
3912,3913,3914,3915,3916,3917,3918,3919,3920,3921,3922,3923,3924,3925,3926,3927,
3987,3988,3989,3990,3991,3992,3993,3994,3995,3996,3997,3998,3999,4000,4001,4002,
4062,4063,4064,4065,4066,4067,4068,4069,4070,4071,4072,4073,4074,4075,4076,4077,
0,0,0,0,0,0,0,0,0,0,0,0,0,0,0,0,
0,0,0,0,0,0,0,0,0,0,0,0,0,0,0,0,
0,0,0,0,0,0,0,0,0,0,0,0,0,0,0,0,
0,0,0,0,0,0,0,0,0,0,0,0,0,0,0,0,
0,0,0,0,0,0,0,0,0,0,0,0,0,0,0,0,
0,0,0,0,0,0,0,0,0,0,0,0,0,0,0,0,
0,0,0,0,0,0,0,0,0,0,0,0,0,0,0,0,
0,0,0,0,0,0,0,0,0,0,0,0,0,0,0,0,
0,0,0,0,0,0,0,0,0,0,0,0,0,0,0,0,
0,0,0,0,0,0,0,0,0,0,0,0,0,0,0,0,
0,0,0,0,0,0,0,0,0,0,0,0,0,0,0,0,
0,0,0,0,0,0,0,0,0,0,0,0,0,0,0,0,
0,0,0,0,0,0,0,0,0,0,0,0,0,0,0,0
</chunk>
   <chunk x="80" y="48" width="16" height="16">
3928,3929,3930,3931,3932,3933,3934,3935,3936,3937,3938,3939,3940,0,0,0,
4003,4004,4005,4006,4007,4008,4009,4010,4011,4012,4013,4014,4015,0,0,0,
4078,4079,4080,4081,4082,4083,4084,4085,4086,4087,4088,4089,4090,0,0,0,
0,0,0,0,0,0,0,0,0,0,0,0,0,0,0,0,
0,0,0,0,0,0,0,0,0,0,0,0,0,0,0,0,
0,0,0,0,0,0,0,0,0,0,0,0,0,0,0,0,
0,0,0,0,0,0,0,0,0,0,0,0,0,0,0,0,
0,0,0,0,0,0,0,0,0,0,0,0,0,0,0,0,
0,0,0,0,0,0,0,0,0,0,0,0,0,0,0,0,
0,0,0,0,0,0,0,0,0,0,0,0,0,0,0,0,
0,0,0,0,0,0,0,0,0,0,0,0,0,0,0,0,
0,0,0,0,0,0,0,0,0,0,0,0,0,0,0,0,
0,0,0,0,0,0,0,0,0,0,0,0,0,0,0,0,
0,0,0,0,0,0,0,0,0,0,0,0,0,0,0,0,
0,0,0,0,0,0,0,0,0,0,0,0,0,0,0,0,
0,0,0,0,0,0,0,0,0,0,0,0,0,0,0,0
</chunk>
  </data>
 </layer>
 <layer id="3" name="chi tiết nền" width="75" height="39">
  <data encoding="csv">
   <chunk x="0" y="0" width="16" height="16">
0,0,0,0,0,0,0,0,0,0,0,0,0,0,0,0,
0,0,0,0,0,0,0,0,0,0,0,0,0,0,0,0,
0,0,0,0,0,0,0,0,0,0,0,0,0,0,0,0,
0,0,0,0,0,0,0,0,0,0,0,0,0,0,0,0,
0,0,0,0,0,0,0,0,0,0,0,0,0,0,0,0,
0,0,0,0,0,0,0,0,0,0,0,0,0,0,0,0,
0,0,0,0,0,0,0,0,0,0,0,0,0,0,0,0,
0,0,0,0,0,0,0,0,0,0,0,0,0,0,0,0,
0,0,0,0,0,0,0,0,0,0,0,0,0,0,0,0,
0,0,0,0,0,0,0,0,0,371,371,371,371,371,371,371,
0,0,0,0,0,0,0,0,0,371,371,371,371,371,371,371,
0,0,0,0,0,0,0,0,0,371,371,371,371,371,371,371,
0,0,0,0,0,0,0,0,0,371,371,371,371,371,371,371,
0,0,0,0,0,0,0,0,0,371,371,371,371,371,371,371,
0,0,0,0,0,0,0,0,0,371,371,371,371,371,371,371,
0,0,0,0,0,0,0,0,0,371,371,371,371,371,371,371
</chunk>
   <chunk x="16" y="0" width="16" height="16">
0,0,0,0,0,0,0,0,0,0,0,0,0,0,0,0,
0,0,0,0,0,0,0,0,0,0,0,0,0,0,0,0,
0,0,0,0,0,0,0,0,0,0,0,0,0,0,0,0,
0,0,0,0,0,0,0,0,0,0,0,0,0,0,0,0,
0,0,0,0,0,0,0,0,0,0,0,0,0,0,0,0,
0,0,0,0,0,0,0,0,0,0,0,0,0,0,0,0,
0,0,0,0,0,0,0,0,0,0,0,0,0,0,0,0,
0,0,0,0,0,0,0,0,0,0,0,0,0,0,0,0,
0,0,0,0,0,0,0,0,0,0,0,0,0,0,0,0,
371,371,371,371,371,371,371,371,371,371,371,371,371,371,371,371,
371,371,371,371,371,371,371,371,371,371,371,371,371,371,371,371,
371,371,371,371,371,371,371,371,371,371,371,371,371,371,371,371,
371,371,371,371,371,371,371,371,371,371,371,371,371,371,371,371,
371,371,371,371,371,371,371,371,371,371,371,371,371,371,371,371,
371,371,371,371,371,371,371,371,371,371,371,371,371,371,371,371,
371,371,371,371,371,371,371,371,371,371,371,371,371,371,371,371
</chunk>
   <chunk x="32" y="0" width="16" height="16">
0,0,0,0,0,0,0,0,0,0,0,0,0,0,0,0,
0,0,0,0,0,0,0,0,0,0,0,0,0,0,0,0,
0,0,0,0,0,0,0,0,0,0,0,0,0,0,0,0,
0,0,0,0,0,0,0,0,0,0,0,0,0,0,0,0,
0,0,0,0,0,0,0,0,0,0,0,0,0,0,0,0,
0,0,0,0,0,0,0,0,0,0,0,0,0,0,0,0,
0,0,0,0,0,0,0,0,0,0,0,0,0,0,0,0,
0,0,0,0,0,0,0,0,0,0,0,0,0,0,0,0,
0,0,0,0,0,0,0,0,0,0,0,0,0,0,0,0,
371,371,371,371,371,371,371,371,371,371,371,371,371,371,371,371,
371,371,371,371,371,371,371,371,371,371,371,371,371,371,371,371,
371,371,371,371,371,371,371,371,371,371,371,371,371,371,371,371,
371,371,371,371,371,371,371,371,371,371,371,371,371,371,371,371,
371,371,371,371,371,371,371,371,371,371,371,371,371,371,371,371,
371,371,371,371,371,371,371,371,371,371,371,371,371,371,371,371,
371,371,371,371,371,371,371,371,371,371,371,371,371,371,371,371
</chunk>
   <chunk x="48" y="0" width="16" height="16">
0,0,0,0,0,0,0,0,0,0,0,0,0,0,0,0,
0,0,0,0,0,0,0,0,0,0,0,0,0,0,0,0,
0,0,0,0,0,0,0,0,0,0,0,0,0,0,0,0,
0,0,0,0,0,0,0,0,0,0,0,0,0,0,0,0,
0,0,0,0,0,0,0,0,0,0,0,0,0,0,0,0,
0,0,0,0,0,0,0,0,0,0,0,0,0,0,0,0,
0,0,0,0,0,0,0,0,0,0,0,0,0,0,0,0,
0,0,0,0,0,0,0,0,0,0,0,0,0,0,0,0,
0,0,0,0,0,0,0,0,0,0,0,0,0,0,0,0,
371,371,371,371,371,371,371,371,371,371,371,371,371,371,371,371,
371,371,371,371,371,371,371,371,371,371,371,371,371,371,371,371,
371,371,371,371,371,371,371,371,371,371,371,371,371,371,371,371,
371,371,371,371,371,371,371,371,371,371,371,371,371,371,371,371,
371,371,371,371,371,371,371,371,371,371,371,371,371,371,371,371,
371,371,371,371,371,371,371,371,371,371,371,371,371,371,371,371,
371,371,371,371,371,371,371,371,371,371,371,371,371,371,371,371
</chunk>
   <chunk x="64" y="0" width="16" height="16">
0,0,0,0,0,0,0,0,0,0,0,0,0,0,0,0,
0,0,0,0,0,0,0,0,0,0,0,0,0,0,0,0,
0,0,0,0,0,0,0,0,0,0,0,0,0,0,0,0,
0,0,0,0,0,0,0,0,0,0,0,0,0,0,0,0,
0,0,0,0,0,0,0,0,0,0,0,0,0,0,0,0,
0,0,0,0,0,0,0,0,0,0,0,0,0,0,0,0,
0,0,0,0,0,0,0,0,0,0,0,0,0,0,0,0,
0,0,0,0,0,0,0,0,0,0,0,0,0,0,0,0,
0,0,0,0,0,0,0,0,0,0,0,0,0,0,0,0,
371,371,371,371,371,371,371,371,371,371,371,371,371,371,371,371,
371,371,371,371,371,371,371,371,371,371,371,371,371,371,371,371,
371,371,371,371,371,371,371,371,371,371,371,371,371,371,371,371,
371,371,371,371,371,371,371,371,371,371,371,371,371,371,371,371,
371,371,371,371,371,371,371,371,371,371,371,371,371,371,371,371,
371,371,371,371,371,371,371,371,371,371,371,371,371,371,371,371,
371,371,371,371,371,371,371,371,371,371,371,371,371,371,371,371
</chunk>
   <chunk x="80" y="0" width="16" height="16">
0,0,0,0,0,0,0,0,0,0,0,0,0,0,0,0,
0,0,0,0,0,0,0,0,0,0,0,0,0,0,0,0,
0,0,0,0,0,0,0,0,0,0,0,0,0,0,0,0,
0,0,0,0,0,0,0,0,0,0,0,0,0,0,0,0,
0,0,0,0,0,0,0,0,0,0,0,0,0,0,0,0,
0,0,0,0,0,0,0,0,0,0,0,0,0,0,0,0,
0,0,0,0,0,0,0,0,0,0,0,0,0,0,0,0,
0,0,0,0,0,0,0,0,0,0,0,0,0,0,0,0,
0,0,0,0,0,0,0,0,0,0,0,0,0,0,0,0,
371,371,371,371,371,371,371,371,371,371,0,0,0,0,0,0,
371,371,371,371,371,371,371,371,371,371,0,0,0,0,0,0,
371,371,371,371,371,371,371,371,371,371,0,0,0,0,0,0,
371,371,371,371,371,371,371,371,371,371,0,0,0,0,0,0,
371,371,371,371,371,371,371,371,371,371,0,0,0,0,0,0,
371,371,371,371,371,371,371,371,371,371,0,0,0,0,0,0,
371,371,371,371,371,371,371,371,371,371,0,0,0,0,0,0
</chunk>
   <chunk x="0" y="16" width="16" height="16">
0,0,0,0,0,0,0,0,0,371,371,371,371,371,371,371,
0,0,0,0,0,0,0,0,0,371,371,371,371,371,371,371,
0,0,0,0,0,0,0,0,0,371,371,371,371,371,371,371,
0,0,0,0,0,0,0,0,0,371,371,371,371,371,371,371,
0,0,0,0,0,0,0,0,0,371,371,371,371,371,371,371,
0,0,0,0,0,0,0,0,0,371,371,371,371,371,371,371,
0,0,0,0,0,0,0,0,0,371,371,371,371,371,371,371,
0,0,0,0,0,0,0,0,0,371,371,371,371,371,371,371,
0,0,0,0,0,0,0,0,0,371,371,371,371,371,371,371,
0,0,0,0,0,0,0,0,0,371,371,371,371,371,371,371,
0,0,0,0,0,0,0,0,0,371,371,371,371,371,371,371,
0,0,0,0,0,0,0,0,0,371,371,371,371,371,371,371,
0,0,0,0,0,0,0,0,0,371,371,371,371,371,371,371,
0,0,0,0,0,0,0,0,0,371,371,371,371,371,371,371,
0,0,0,0,0,0,0,0,0,371,371,371,371,371,371,371,
0,0,0,0,0,0,0,0,0,371,371,371,371,371,371,371
</chunk>
   <chunk x="16" y="16" width="16" height="16">
371,371,371,371,371,371,371,371,371,371,371,371,371,371,371,371,
371,371,371,371,371,371,371,371,371,371,371,371,371,371,371,371,
371,371,371,371,371,371,371,371,371,371,371,371,371,371,371,371,
371,371,371,371,371,371,371,371,371,371,371,371,371,371,371,371,
371,371,371,371,371,371,371,371,371,371,371,371,371,371,371,371,
371,371,371,371,371,371,371,371,371,371,371,371,371,371,371,371,
371,371,371,371,371,371,371,371,371,371,371,371,371,371,371,371,
371,371,371,371,371,371,371,371,371,371,371,371,371,371,371,371,
371,371,371,371,371,371,371,371,371,371,371,371,371,371,371,371,
371,371,371,371,371,371,371,371,371,371,371,371,371,371,371,371,
371,371,371,371,371,371,371,371,371,371,371,371,371,371,371,371,
371,371,371,371,371,371,371,371,371,371,371,371,371,371,371,371,
371,371,371,371,371,371,371,371,371,371,371,371,371,371,371,371,
371,371,371,371,371,371,371,371,371,371,371,371,371,371,371,371,
371,371,371,371,371,371,371,371,371,371,371,371,371,371,371,371,
371,371,371,371,371,371,371,371,371,371,371,371,371,371,371,371
</chunk>
   <chunk x="32" y="16" width="16" height="16">
371,371,371,371,371,371,371,371,371,371,371,371,371,371,371,371,
371,371,371,371,371,371,371,371,371,371,371,371,371,371,371,371,
371,371,371,371,371,371,371,371,371,371,371,371,371,371,371,371,
371,371,371,371,371,371,371,371,371,371,371,371,371,371,371,371,
371,371,371,371,371,371,371,371,371,371,371,371,371,371,371,371,
371,371,371,371,371,371,371,371,371,371,371,371,371,371,371,371,
371,371,371,371,371,371,371,371,371,371,371,371,371,371,371,371,
371,371,371,371,371,371,371,371,371,371,371,371,371,371,371,371,
371,371,371,371,371,371,371,371,371,371,371,371,371,371,371,371,
371,371,371,371,371,371,371,371,371,371,371,371,371,371,371,371,
371,371,371,371,371,371,371,371,371,371,371,371,371,371,371,371,
371,371,371,371,371,371,371,371,371,371,371,371,371,371,371,371,
371,371,371,371,371,371,371,371,371,371,371,371,371,371,371,371,
371,371,371,371,371,371,371,371,371,371,371,371,371,371,371,371,
371,371,371,371,371,371,371,371,371,371,371,371,371,371,371,371,
371,371,371,371,371,371,371,371,371,371,371,371,371,371,371,371
</chunk>
   <chunk x="48" y="16" width="16" height="16">
371,371,371,371,371,371,371,371,371,371,371,371,371,371,371,371,
371,371,371,371,371,371,371,371,371,371,371,371,371,371,371,371,
371,371,371,371,371,371,371,371,371,371,371,371,371,371,371,371,
371,371,371,371,371,371,371,371,371,371,371,371,371,371,371,371,
371,371,371,371,371,371,371,371,371,371,371,371,371,371,371,371,
371,371,371,371,371,371,371,371,371,371,371,371,371,371,371,371,
371,371,371,371,371,371,371,371,371,371,371,371,371,371,371,371,
371,371,371,371,371,371,371,371,371,371,371,371,371,371,371,371,
371,371,371,371,371,371,371,371,371,371,371,371,371,371,371,371,
371,371,371,371,371,371,371,371,371,371,371,371,371,371,371,371,
371,371,371,371,371,371,371,371,371,371,371,371,371,371,371,371,
371,371,371,371,371,371,371,371,371,371,371,371,371,371,371,371,
371,371,371,371,371,371,371,371,371,371,371,371,371,371,371,371,
371,371,371,371,371,371,371,371,371,371,371,371,371,371,371,371,
371,371,371,371,371,371,371,371,371,371,371,371,371,371,371,371,
371,371,371,371,371,371,371,371,371,371,371,371,371,371,371,371
</chunk>
   <chunk x="64" y="16" width="16" height="16">
371,371,371,371,371,371,371,371,371,371,371,371,371,371,371,371,
371,371,371,371,371,371,371,371,371,371,371,371,371,371,371,371,
371,371,371,371,371,371,371,371,371,371,371,371,371,371,371,371,
371,371,371,371,371,371,371,371,371,371,371,371,371,371,371,371,
371,371,371,371,371,371,371,371,371,371,371,371,371,371,371,371,
371,371,371,371,371,371,371,371,371,371,371,371,371,371,371,371,
371,371,371,371,371,371,371,371,371,371,371,371,371,371,371,371,
371,371,371,371,371,371,371,371,371,371,371,371,371,371,371,371,
371,371,371,371,371,371,371,371,371,371,371,371,371,371,371,371,
371,371,371,371,371,371,371,371,371,371,371,371,371,371,371,371,
371,371,371,371,371,371,371,371,371,371,371,371,371,371,371,371,
371,371,371,371,371,371,371,371,371,371,371,371,371,371,371,371,
371,371,371,371,371,371,371,371,371,371,371,371,371,371,371,371,
371,371,371,371,371,371,371,371,371,371,371,371,371,371,371,371,
371,371,371,371,371,371,371,371,371,371,371,371,371,371,371,371,
371,371,371,371,371,371,371,371,371,371,371,371,371,371,371,371
</chunk>
   <chunk x="80" y="16" width="16" height="16">
371,371,371,371,371,371,371,371,371,371,0,0,0,0,0,0,
371,371,371,371,371,371,371,371,371,371,0,0,0,0,0,0,
371,371,371,371,371,371,371,371,371,371,0,0,0,0,0,0,
371,371,371,371,371,371,371,371,371,371,0,0,0,0,0,0,
371,371,371,371,371,371,371,371,371,371,0,0,0,0,0,0,
371,371,371,371,371,371,371,371,371,371,0,0,0,0,0,0,
371,371,371,371,371,371,371,371,371,371,0,0,0,0,0,0,
371,371,371,371,371,371,371,371,371,371,0,0,0,0,0,0,
371,371,371,371,371,371,371,371,371,371,0,0,0,0,0,0,
371,371,371,371,371,371,371,371,371,371,0,0,0,0,0,0,
371,371,371,371,371,371,371,371,371,371,0,0,0,0,0,0,
371,371,371,371,371,371,371,371,371,371,0,0,0,0,0,0,
371,371,371,371,371,371,371,371,371,371,0,0,0,0,0,0,
371,371,371,371,371,371,371,371,371,371,0,0,0,0,0,0,
371,371,371,371,371,371,371,371,371,371,0,0,0,0,0,0,
371,371,371,371,371,371,371,371,371,371,0,0,0,0,0,0
</chunk>
   <chunk x="0" y="32" width="16" height="16">
0,0,0,0,0,0,0,0,0,371,371,371,371,371,371,371,
0,0,0,0,0,0,0,0,0,371,371,371,371,371,371,371,
0,0,0,0,0,0,0,0,0,371,371,371,371,371,371,371,
0,0,0,0,0,0,0,0,0,371,371,371,371,371,371,371,
0,0,0,0,0,0,0,0,0,371,371,371,371,371,371,371,
0,0,0,0,0,0,0,0,0,371,371,371,371,371,371,371,
0,0,0,0,0,0,0,0,0,371,371,371,371,371,371,371,
0,0,0,0,0,0,0,0,0,371,371,371,371,371,371,371,
0,0,0,0,0,0,0,0,0,371,371,371,371,371,371,371,
0,0,0,0,0,0,0,0,0,371,371,371,371,371,371,371,
0,0,0,0,0,0,0,0,0,371,371,371,371,371,371,371,
0,0,0,0,0,0,0,0,0,371,371,371,371,371,371,371,
0,0,0,0,0,0,0,0,0,371,371,371,371,371,371,371,
0,0,0,0,0,0,0,0,0,371,371,371,371,371,371,371,
0,0,0,0,0,0,0,0,0,371,371,371,371,371,371,371,
0,0,0,0,0,0,0,0,0,371,371,371,371,371,371,371
</chunk>
   <chunk x="16" y="32" width="16" height="16">
371,371,371,371,371,371,371,371,371,371,371,371,371,371,371,371,
371,371,371,371,371,371,371,371,371,371,371,371,371,371,371,371,
371,371,371,371,371,371,371,371,371,371,371,371,371,371,371,371,
371,371,371,371,371,371,371,371,371,371,371,371,371,371,371,371,
371,371,371,371,371,371,371,371,371,371,371,371,371,371,371,371,
371,371,371,371,371,371,371,371,371,371,371,371,371,371,371,371,
371,371,371,371,371,371,371,371,371,371,371,371,371,371,371,371,
371,371,371,371,371,371,371,371,371,371,371,371,371,371,371,371,
371,371,371,371,371,371,371,371,371,371,371,371,371,371,371,371,
371,371,371,371,371,371,371,371,371,371,371,371,371,371,371,371,
371,371,371,371,371,371,371,371,371,371,371,371,371,371,371,371,
371,371,371,371,371,371,371,371,371,371,371,371,371,371,371,371,
371,371,371,371,371,371,371,371,371,371,371,371,371,371,371,371,
371,371,371,371,371,371,371,371,371,371,371,371,371,371,371,371,
371,371,371,371,371,371,371,371,371,371,371,371,371,371,371,371,
371,371,371,371,371,371,371,371,371,371,371,371,371,371,371,371
</chunk>
   <chunk x="32" y="32" width="16" height="16">
371,371,371,371,371,371,371,371,371,371,371,371,371,371,371,371,
371,371,371,371,371,371,371,371,371,371,371,371,371,371,371,371,
371,371,371,371,371,371,371,371,371,371,371,371,371,371,371,371,
371,371,371,371,371,371,371,371,371,371,371,371,371,371,371,371,
371,371,371,371,371,371,371,371,371,371,371,371,371,371,371,371,
371,371,371,371,371,371,371,371,371,371,371,371,371,371,371,371,
371,371,371,371,371,371,371,371,371,371,371,371,371,371,371,371,
371,371,371,371,371,371,371,371,371,371,371,371,371,371,371,371,
371,371,371,371,371,371,371,371,371,371,371,371,371,371,371,371,
371,371,371,371,371,371,371,371,371,371,371,371,371,371,371,371,
371,371,371,371,371,371,371,371,371,371,371,371,371,371,371,371,
371,371,371,371,371,371,371,371,371,371,371,371,371,371,371,371,
371,371,371,371,371,371,371,371,371,371,371,371,371,371,371,371,
371,371,371,371,371,371,371,371,371,371,371,371,371,371,371,371,
371,371,371,371,371,371,371,371,371,371,371,371,371,371,371,371,
371,371,371,371,371,371,371,371,371,371,371,371,371,371,371,371
</chunk>
   <chunk x="48" y="32" width="16" height="16">
371,371,371,371,371,371,371,371,371,371,371,371,371,371,371,371,
371,371,371,371,371,371,371,371,371,371,371,371,371,371,371,371,
371,371,371,371,371,371,371,371,371,371,371,371,371,371,371,371,
371,371,371,371,371,371,371,371,371,371,371,371,371,371,371,371,
371,371,371,371,371,371,371,371,371,371,371,371,371,371,371,371,
371,371,371,371,371,371,371,371,371,371,371,371,371,371,371,371,
371,371,371,371,371,371,371,371,371,371,371,371,371,371,371,371,
371,371,371,371,371,371,371,371,371,371,371,371,371,371,371,371,
371,371,371,371,371,371,371,371,371,371,371,371,371,371,371,371,
371,371,371,371,371,371,371,371,371,371,371,371,371,371,371,371,
371,371,371,371,371,371,371,371,371,371,371,371,371,371,371,371,
371,371,371,371,371,371,371,371,371,371,371,371,371,371,371,371,
371,371,371,371,371,371,371,371,371,371,371,371,371,371,371,371,
371,371,371,371,371,371,371,371,371,371,371,371,371,371,371,371,
371,371,371,371,371,371,371,371,371,371,371,371,371,371,371,371,
371,371,371,371,371,371,371,371,371,371,371,371,371,371,371,371
</chunk>
   <chunk x="64" y="32" width="16" height="16">
371,371,371,371,371,371,371,371,371,371,371,371,371,371,371,371,
371,371,371,371,371,371,371,371,371,371,371,371,371,371,371,371,
371,371,371,371,371,371,371,371,371,371,371,371,371,371,371,371,
371,371,371,371,371,371,371,371,371,371,371,371,371,371,371,371,
371,371,371,371,371,371,371,371,371,371,371,371,371,371,371,371,
371,371,371,371,371,371,371,371,371,371,371,371,371,371,371,371,
371,371,371,371,371,371,371,371,371,371,371,371,371,371,371,371,
371,371,371,371,371,371,371,371,371,371,371,371,371,371,371,371,
371,371,371,371,371,371,371,371,371,371,371,371,371,371,371,371,
371,371,371,371,371,371,371,371,371,371,371,371,371,371,371,371,
371,371,371,371,371,371,371,371,371,371,371,371,371,371,371,371,
371,371,371,371,371,371,371,371,371,371,371,371,371,371,371,371,
371,371,371,371,371,371,371,371,371,371,371,371,371,371,371,371,
371,371,371,371,371,371,371,371,371,371,371,371,371,371,371,371,
371,371,371,371,371,371,371,371,371,371,371,371,371,371,371,371,
371,371,371,371,371,371,371,371,371,371,371,371,371,371,371,371
</chunk>
   <chunk x="80" y="32" width="16" height="16">
371,371,371,371,371,371,371,371,371,371,0,0,0,0,0,0,
371,371,371,371,371,371,371,371,371,371,0,0,0,0,0,0,
371,371,371,371,371,371,371,371,371,371,0,0,0,0,0,0,
371,371,371,371,371,371,371,371,371,371,0,0,0,0,0,0,
371,371,371,371,371,371,371,371,371,371,0,0,0,0,0,0,
371,371,371,371,371,371,371,371,371,371,0,0,0,0,0,0,
371,371,371,371,371,371,371,371,371,371,0,0,0,0,0,0,
371,371,371,371,371,371,371,371,371,371,0,0,0,0,0,0,
371,371,371,371,371,371,371,371,371,371,0,0,0,0,0,0,
371,371,371,371,371,371,371,371,371,371,0,0,0,0,0,0,
371,371,371,371,371,371,371,371,371,371,0,0,0,0,0,0,
371,371,371,371,371,371,371,371,371,371,0,0,0,0,0,0,
371,371,371,371,371,371,371,371,371,371,0,0,0,0,0,0,
371,371,371,371,371,371,371,371,371,371,0,0,0,0,0,0,
371,371,371,371,371,371,371,371,371,371,0,0,0,0,0,0,
371,371,371,371,371,371,371,371,371,371,0,0,0,0,0,0
</chunk>
   <chunk x="0" y="48" width="16" height="16">
0,0,0,0,0,0,0,0,0,371,371,371,371,371,371,371,
0,0,0,0,0,0,0,0,0,0,0,0,0,0,0,0,
0,0,0,0,0,0,0,0,0,0,0,0,0,0,0,0,
0,0,0,0,0,0,0,0,0,0,0,0,0,0,0,0,
0,0,0,0,0,0,0,0,0,0,0,0,0,0,0,0,
0,0,0,0,0,0,0,0,0,0,0,0,0,0,0,0,
0,0,0,0,0,0,0,0,0,0,0,0,0,0,0,0,
0,0,0,0,0,0,0,0,0,0,0,0,0,0,0,0,
0,0,0,0,0,0,0,0,0,0,0,0,0,0,0,0,
0,0,0,0,0,0,0,0,0,0,0,0,0,0,0,0,
0,0,0,0,0,0,0,0,0,0,0,0,0,0,0,0,
0,0,0,0,0,0,0,0,0,0,0,0,0,0,0,0,
0,0,0,0,0,0,0,0,0,0,0,0,0,0,0,0,
0,0,0,0,0,0,0,0,0,0,0,0,0,0,0,0,
0,0,0,0,0,0,0,0,0,0,0,0,0,0,0,0,
0,0,0,0,0,0,0,0,0,0,0,0,0,0,0,0
</chunk>
   <chunk x="16" y="48" width="16" height="16">
371,371,371,371,371,371,371,371,371,371,371,371,371,371,371,371,
0,0,0,0,0,0,0,0,0,0,0,0,0,0,0,0,
0,0,0,0,0,0,0,0,0,0,0,0,0,0,0,0,
0,0,0,0,0,0,0,0,0,0,0,0,0,0,0,0,
0,0,0,0,0,0,0,0,0,0,0,0,0,0,0,0,
0,0,0,0,0,0,0,0,0,0,0,0,0,0,0,0,
0,0,0,0,0,0,0,0,0,0,0,0,0,0,0,0,
0,0,0,0,0,0,0,0,0,0,0,0,0,0,0,0,
0,0,0,0,0,0,0,0,0,0,0,0,0,0,0,0,
0,0,0,0,0,0,0,0,0,0,0,0,0,0,0,0,
0,0,0,0,0,0,0,0,0,0,0,0,0,0,0,0,
0,0,0,0,0,0,0,0,0,0,0,0,0,0,0,0,
0,0,0,0,0,0,0,0,0,0,0,0,0,0,0,0,
0,0,0,0,0,0,0,0,0,0,0,0,0,0,0,0,
0,0,0,0,0,0,0,0,0,0,0,0,0,0,0,0,
0,0,0,0,0,0,0,0,0,0,0,0,0,0,0,0
</chunk>
   <chunk x="32" y="48" width="16" height="16">
371,371,371,371,371,371,371,371,371,371,371,371,371,371,371,371,
0,0,0,0,0,0,0,0,0,0,0,0,0,0,0,0,
0,0,0,0,0,0,0,0,0,0,0,0,0,0,0,0,
0,0,0,0,0,0,0,0,0,0,0,0,0,0,0,0,
0,0,0,0,0,0,0,0,0,0,0,0,0,0,0,0,
0,0,0,0,0,0,0,0,0,0,0,0,0,0,0,0,
0,0,0,0,0,0,0,0,0,0,0,0,0,0,0,0,
0,0,0,0,0,0,0,0,0,0,0,0,0,0,0,0,
0,0,0,0,0,0,0,0,0,0,0,0,0,0,0,0,
0,0,0,0,0,0,0,0,0,0,0,0,0,0,0,0,
0,0,0,0,0,0,0,0,0,0,0,0,0,0,0,0,
0,0,0,0,0,0,0,0,0,0,0,0,0,0,0,0,
0,0,0,0,0,0,0,0,0,0,0,0,0,0,0,0,
0,0,0,0,0,0,0,0,0,0,0,0,0,0,0,0,
0,0,0,0,0,0,0,0,0,0,0,0,0,0,0,0,
0,0,0,0,0,0,0,0,0,0,0,0,0,0,0,0
</chunk>
   <chunk x="48" y="48" width="16" height="16">
371,371,371,371,371,371,371,371,371,371,371,371,371,371,371,371,
0,0,0,0,0,0,0,0,0,0,0,0,0,0,0,0,
0,0,0,0,0,0,0,0,0,0,0,0,0,0,0,0,
0,0,0,0,0,0,0,0,0,0,0,0,0,0,0,0,
0,0,0,0,0,0,0,0,0,0,0,0,0,0,0,0,
0,0,0,0,0,0,0,0,0,0,0,0,0,0,0,0,
0,0,0,0,0,0,0,0,0,0,0,0,0,0,0,0,
0,0,0,0,0,0,0,0,0,0,0,0,0,0,0,0,
0,0,0,0,0,0,0,0,0,0,0,0,0,0,0,0,
0,0,0,0,0,0,0,0,0,0,0,0,0,0,0,0,
0,0,0,0,0,0,0,0,0,0,0,0,0,0,0,0,
0,0,0,0,0,0,0,0,0,0,0,0,0,0,0,0,
0,0,0,0,0,0,0,0,0,0,0,0,0,0,0,0,
0,0,0,0,0,0,0,0,0,0,0,0,0,0,0,0,
0,0,0,0,0,0,0,0,0,0,0,0,0,0,0,0,
0,0,0,0,0,0,0,0,0,0,0,0,0,0,0,0
</chunk>
   <chunk x="64" y="48" width="16" height="16">
371,371,371,371,371,371,371,371,371,371,371,371,371,371,371,371,
0,0,0,0,0,0,0,0,0,0,0,0,0,0,0,0,
0,0,0,0,0,0,0,0,0,0,0,0,0,0,0,0,
0,0,0,0,0,0,0,0,0,0,0,0,0,0,0,0,
0,0,0,0,0,0,0,0,0,0,0,0,0,0,0,0,
0,0,0,0,0,0,0,0,0,0,0,0,0,0,0,0,
0,0,0,0,0,0,0,0,0,0,0,0,0,0,0,0,
0,0,0,0,0,0,0,0,0,0,0,0,0,0,0,0,
0,0,0,0,0,0,0,0,0,0,0,0,0,0,0,0,
0,0,0,0,0,0,0,0,0,0,0,0,0,0,0,0,
0,0,0,0,0,0,0,0,0,0,0,0,0,0,0,0,
0,0,0,0,0,0,0,0,0,0,0,0,0,0,0,0,
0,0,0,0,0,0,0,0,0,0,0,0,0,0,0,0,
0,0,0,0,0,0,0,0,0,0,0,0,0,0,0,0,
0,0,0,0,0,0,0,0,0,0,0,0,0,0,0,0,
0,0,0,0,0,0,0,0,0,0,0,0,0,0,0,0
</chunk>
   <chunk x="80" y="48" width="16" height="16">
371,371,371,371,371,371,371,371,371,371,0,0,0,0,0,0,
0,0,0,0,0,0,0,0,0,0,0,0,0,0,0,0,
0,0,0,0,0,0,0,0,0,0,0,0,0,0,0,0,
0,0,0,0,0,0,0,0,0,0,0,0,0,0,0,0,
0,0,0,0,0,0,0,0,0,0,0,0,0,0,0,0,
0,0,0,0,0,0,0,0,0,0,0,0,0,0,0,0,
0,0,0,0,0,0,0,0,0,0,0,0,0,0,0,0,
0,0,0,0,0,0,0,0,0,0,0,0,0,0,0,0,
0,0,0,0,0,0,0,0,0,0,0,0,0,0,0,0,
0,0,0,0,0,0,0,0,0,0,0,0,0,0,0,0,
0,0,0,0,0,0,0,0,0,0,0,0,0,0,0,0,
0,0,0,0,0,0,0,0,0,0,0,0,0,0,0,0,
0,0,0,0,0,0,0,0,0,0,0,0,0,0,0,0,
0,0,0,0,0,0,0,0,0,0,0,0,0,0,0,0,
0,0,0,0,0,0,0,0,0,0,0,0,0,0,0,0,
0,0,0,0,0,0,0,0,0,0,0,0,0,0,0,0
</chunk>
  </data>
 </layer>
 <layer id="4" name="lớp dưới" width="75" height="39">
  <data encoding="csv">
   <chunk x="0" y="0" width="16" height="16">
0,0,0,0,0,0,0,0,0,0,0,0,0,0,0,0,
0,0,0,0,0,0,0,0,0,0,0,0,0,0,0,0,
0,0,0,0,0,0,0,0,0,0,0,0,0,0,0,0,
0,0,0,0,0,0,0,0,0,0,0,0,0,0,0,0,
492,492,492,492,492,492,492,492,492,492,492,492,492,492,492,492,
492,492,492,492,492,492,492,492,492,492,492,492,492,492,492,492,
492,492,492,492,492,492,492,492,492,492,492,492,492,492,492,492,
492,492,492,492,492,492,492,492,492,492,492,492,492,492,492,492,
492,492,492,492,492,492,492,492,492,492,492,492,492,492,492,492,
492,492,492,492,492,492,492,492,492,492,492,492,492,492,492,492,
492,492,492,492,492,492,492,492,492,492,492,492,492,492,492,492,
492,492,492,492,492,492,492,492,492,492,492,492,492,492,492,492,
492,492,492,492,492,492,492,492,492,492,492,492,492,492,492,492,
492,492,492,492,492,492,492,492,492,492,492,492,492,492,492,492,
492,492,492,492,492,492,492,492,492,492,492,492,492,492,492,492,
492,492,492,492,492,492,492,492,492,492,492,492,492,492,492,492
</chunk>
   <chunk x="16" y="0" width="16" height="16">
0,0,0,0,0,0,0,0,0,0,0,0,0,0,0,0,
0,0,0,0,0,0,0,0,0,0,0,0,0,0,0,0,
0,0,0,0,0,0,0,0,0,0,0,0,0,0,0,0,
0,0,0,0,0,0,0,0,0,0,0,0,0,0,0,0,
492,492,492,492,492,492,492,492,492,492,492,492,492,492,492,492,
492,492,492,492,492,492,492,492,492,492,492,492,492,492,492,492,
492,492,492,492,492,492,492,492,492,492,492,492,492,492,492,492,
492,492,492,492,492,492,492,492,492,492,492,492,492,492,492,492,
492,492,492,492,492,492,492,492,492,492,492,492,492,492,492,492,
492,492,492,492,492,492,492,492,492,492,492,492,492,492,492,492,
492,492,492,492,492,492,492,492,492,492,492,492,492,492,492,492,
492,492,492,492,492,492,492,492,492,492,492,492,492,492,492,492,
492,492,492,492,492,492,492,492,492,492,492,492,492,492,492,492,
492,492,492,492,492,492,492,492,492,492,492,492,492,492,492,492,
492,492,492,492,492,492,492,492,492,492,492,492,492,492,492,492,
492,492,492,492,492,492,492,492,492,492,492,492,492,492,492,492
</chunk>
   <chunk x="32" y="0" width="16" height="16">
0,0,0,0,0,492,492,492,492,492,492,492,492,492,492,492,
0,0,0,0,0,492,492,492,492,492,492,492,492,492,492,492,
0,0,0,0,0,492,492,492,492,492,492,492,492,492,492,492,
0,0,0,0,0,492,492,492,492,492,492,492,492,492,492,492,
492,492,492,492,492,492,492,492,492,492,492,492,492,492,492,492,
492,492,492,492,492,492,492,492,492,492,492,492,492,492,492,492,
492,492,492,492,492,492,492,492,492,492,492,492,492,492,492,492,
492,492,492,492,492,492,492,492,492,492,492,492,492,492,492,492,
492,492,492,492,492,492,492,492,492,492,492,492,492,492,492,492,
492,492,492,492,492,492,492,492,492,492,492,492,492,492,492,492,
492,492,492,492,492,492,492,492,492,492,492,492,492,492,492,492,
492,492,492,492,492,492,492,492,492,492,492,492,492,492,492,492,
492,492,492,492,492,492,492,492,492,492,492,492,492,492,492,492,
492,492,492,492,492,492,492,492,492,492,492,492,492,492,492,492,
492,492,492,492,492,492,492,492,492,492,492,492,492,492,492,492,
492,492,492,492,492,492,492,492,492,492,492,492,492,492,492,492
</chunk>
   <chunk x="48" y="0" width="16" height="16">
492,492,492,492,492,492,492,492,492,492,387,0,0,0,0,0,
492,492,492,492,492,492,492,492,492,492,387,0,0,0,0,0,
492,492,492,492,492,492,492,492,492,492,387,0,0,0,0,0,
492,492,492,492,492,492,492,492,492,492,387,0,0,0,0,0,
492,492,492,492,492,492,492,492,492,492,387,0,0,0,0,0,
492,492,492,492,492,492,492,492,492,492,387,0,0,0,0,0,
492,492,492,492,492,492,492,492,492,492,387,0,0,0,0,0,
492,492,492,492,492,492,492,492,492,492,387,0,0,0,0,0,
492,492,492,492,492,492,492,492,492,492,387,0,0,0,0,0,
492,492,492,492,492,492,492,492,492,492,387,0,0,0,0,0,
492,492,492,492,492,492,492,492,492,492,387,0,0,0,0,0,
492,492,492,492,492,492,492,492,492,492,387,0,0,0,0,0,
492,492,492,492,492,492,492,492,492,492,387,0,0,0,0,0,
492,492,492,492,492,492,492,492,492,492,387,0,0,0,0,0,
492,492,492,492,492,492,492,492,492,492,387,476,0,0,0,0,
492,492,492,492,492,492,492,492,492,363,546,548,0,0,0,0
</chunk>
   <chunk x="0" y="16" width="16" height="16">
492,492,492,492,492,492,492,492,492,492,492,492,492,492,492,492,
492,492,492,492,492,492,492,492,492,492,492,492,492,492,492,492,
523,523,523,523,523,523,523,523,523,523,523,523,523,523,523,523,
547,543,543,543,547,543,543,547,547,543,543,543,547,543,547,543,
0,0,0,0,0,0,0,0,0,0,0,0,0,0,0,0,
0,0,0,0,0,0,0,0,0,0,0,0,0,0,0,0,
0,0,0,0,0,0,0,0,0,0,0,0,0,0,0,0,
0,0,0,0,0,0,0,0,0,0,0,0,0,0,0,0,
0,0,0,0,0,0,0,0,0,0,0,0,0,0,0,0,
0,0,0,0,0,0,0,0,0,0,0,0,0,0,0,0,
0,0,0,0,0,0,0,0,0,0,0,0,0,0,0,0,
0,0,0,0,0,0,0,0,0,0,0,0,0,0,0,0,
0,0,0,0,0,0,0,0,0,0,0,0,0,0,0,0,
0,0,0,0,0,0,0,0,0,0,0,0,0,0,0,0,
0,0,0,0,0,0,0,0,0,0,0,0,0,0,0,0,
0,0,0,0,0,0,0,0,0,0,0,0,0,0,0,0
</chunk>
   <chunk x="16" y="16" width="16" height="16">
492,492,492,492,492,492,492,492,492,492,492,492,492,492,492,492,
492,492,492,492,492,492,492,492,492,492,492,492,492,492,492,492,
523,523,523,523,523,523,523,523,523,523,523,523,523,523,523,523,
547,547,543,543,547,543,543,547,547,547,543,543,543,543,543,547,
0,0,0,0,0,0,0,0,0,0,0,0,0,0,0,0,
0,0,0,0,0,0,0,0,0,0,0,0,0,0,0,0,
0,0,0,0,0,0,0,0,0,0,0,0,0,0,0,0,
0,0,0,0,0,0,0,0,0,0,0,0,0,0,0,0,
0,0,0,0,0,0,0,0,0,0,0,0,0,0,0,0,
0,0,0,0,0,0,0,0,0,0,0,0,0,0,0,0,
0,0,0,0,0,0,0,0,0,0,0,0,0,0,0,0,
0,0,0,0,0,0,0,0,0,0,0,0,0,0,0,0,
0,0,0,0,0,0,0,0,0,0,0,0,0,0,0,0,
0,0,0,0,0,0,0,0,0,0,0,0,0,0,0,0,
0,0,0,0,0,0,0,0,0,0,0,0,0,0,0,0,
0,0,0,0,0,0,0,0,0,0,0,0,0,0,0,0
</chunk>
   <chunk x="32" y="16" width="16" height="16">
492,492,492,492,492,492,492,492,492,492,492,492,492,492,492,492,
492,492,492,492,492,492,492,492,492,492,492,492,492,492,492,492,
523,523,523,523,523,523,523,523,523,523,523,523,523,523,523,523,
543,543,543,543,543,543,547,543,543,547,547,547,547,547,543,543,
0,0,0,0,0,0,0,0,0,0,0,0,0,0,0,0,
0,0,0,0,0,0,0,0,0,0,0,0,0,0,0,0,
0,0,0,0,0,0,0,0,0,0,0,0,0,0,0,0,
0,0,0,0,0,0,0,0,0,0,0,0,0,0,0,0,
0,0,0,0,0,0,0,0,0,0,0,0,0,0,0,0,
0,0,0,0,0,0,0,0,0,0,0,0,0,0,0,0,
0,0,0,0,0,0,0,0,0,0,0,0,0,0,0,0,
0,0,0,0,0,0,0,0,0,0,0,0,0,0,0,0,
0,0,0,0,0,0,0,0,0,0,0,0,0,0,0,0,
0,0,0,0,0,0,0,0,0,0,0,0,0,0,0,0,
0,0,0,0,0,0,0,0,0,0,0,0,0,0,0,0,
0,0,0,0,0,0,0,0,0,0,0,0,0,0,0,0
</chunk>
   <chunk x="48" y="16" width="16" height="16">
492,492,492,492,492,492,492,492,522,519,524,0,0,0,0,0,
492,492,492,492,492,492,359,545,546,543,548,0,0,0,0,0,
523,523,523,523,523,523,524,569,570,0,0,0,0,0,0,0,
543,547,543,547,547,547,548,0,0,0,0,0,0,0,0,0,
0,0,0,0,0,0,0,0,0,0,0,0,0,0,0,0,
0,0,0,0,0,0,0,0,0,0,0,0,0,0,0,0,
0,0,0,0,0,0,0,0,0,0,0,0,0,0,0,0,
0,0,0,0,0,0,0,0,0,0,0,0,0,0,0,0,
0,0,0,0,0,0,0,0,0,0,0,0,0,0,0,0,
0,0,0,0,0,0,0,0,0,0,0,0,0,0,0,0,
0,0,0,0,0,0,0,0,0,0,0,0,0,0,0,0,
0,0,0,0,0,0,0,0,0,0,0,0,0,0,0,0,
0,0,0,0,0,0,0,0,0,0,0,0,0,0,0,0,
0,0,0,0,0,0,0,0,0,0,0,0,0,0,0,0,
0,0,0,0,0,0,0,0,0,0,0,0,0,0,0,0,
0,0,0,0,0,0,0,0,0,0,0,0,0,0,0,0
</chunk>
  </data>
 </layer>
 <layer id="5" name="chi tiết phụ" width="75" height="39" visible="0">
  <data encoding="csv">
   <chunk x="0" y="0" width="16" height="16">
7,7,7,7,7,7,7,7,7,7,7,7,7,7,7,7,
7,0,0,0,0,0,0,0,0,0,0,0,0,0,0,0,
7,0,0,0,0,0,0,0,0,0,0,0,0,0,0,0,
7,0,0,0,0,0,0,0,0,0,0,0,0,0,0,0,
7,0,0,0,0,0,0,0,0,0,0,0,0,0,0,0,
7,0,0,0,0,0,0,0,0,0,0,0,0,0,0,0,
7,0,0,0,0,0,0,0,0,0,0,0,0,0,0,0,
7,0,0,0,0,0,0,0,0,0,0,0,0,0,0,0,
7,0,0,0,0,0,0,0,0,0,0,0,0,0,0,0,
7,0,0,0,0,0,0,0,0,0,0,0,0,0,0,0,
7,0,0,0,0,0,0,0,0,0,0,0,0,0,0,0,
7,0,0,0,0,0,0,0,0,0,0,0,0,0,0,0,
7,0,0,0,0,0,0,0,0,0,0,0,0,0,0,0,
7,0,0,0,0,0,0,0,0,0,0,0,0,0,0,0,
7,0,0,0,0,0,0,0,0,0,0,0,0,0,0,0,
7,0,0,0,0,0,0,0,0,0,0,0,0,0,0,0
</chunk>
   <chunk x="16" y="0" width="16" height="16">
7,7,7,7,7,7,7,7,7,7,7,7,7,7,7,7,
0,0,0,0,0,0,0,0,0,0,0,0,0,0,0,0,
0,0,0,0,0,0,0,0,0,0,0,0,0,0,0,0,
0,0,0,0,0,0,0,0,0,0,0,0,0,0,0,0,
0,0,0,0,0,0,0,0,0,0,0,0,0,0,0,0,
0,0,0,0,0,0,0,0,0,0,0,0,0,0,0,0,
0,0,0,0,0,0,0,0,0,0,0,0,0,0,0,0,
0,0,0,0,0,0,0,0,0,0,0,0,0,0,0,0,
0,0,0,0,0,0,0,0,0,0,0,0,0,0,0,0,
0,0,0,0,0,0,0,0,0,0,0,0,0,0,0,0,
0,0,0,0,0,0,0,0,0,0,0,0,0,0,0,0,
0,0,0,0,0,0,0,0,0,0,0,0,0,0,0,0,
0,0,0,0,0,0,0,0,0,0,0,0,0,0,0,0,
0,0,0,0,0,0,0,0,0,0,0,0,0,0,0,0,
0,0,0,0,0,0,0,0,0,0,0,0,0,0,0,0,
0,0,0,0,0,0,0,0,0,0,0,0,0,0,0,0
</chunk>
   <chunk x="32" y="0" width="16" height="16">
7,7,7,7,7,7,7,7,7,7,7,7,7,7,7,7,
0,0,0,0,0,0,0,0,0,0,0,0,0,0,0,0,
0,0,0,0,0,0,0,0,0,0,0,0,0,0,0,0,
0,0,0,0,0,0,0,0,0,0,0,0,0,0,0,0,
0,0,0,0,0,0,0,0,0,0,0,0,0,0,0,0,
0,0,0,0,0,0,0,0,0,0,0,0,0,0,0,0,
0,0,0,0,0,0,0,0,0,0,0,0,0,0,0,0,
0,0,0,0,0,0,0,0,0,0,0,0,0,0,0,0,
0,0,0,0,0,0,0,0,0,0,0,0,0,0,0,0,
0,0,0,0,0,0,0,0,0,0,0,0,0,0,0,0,
0,0,0,0,0,0,0,0,0,0,0,0,0,0,0,0,
0,0,0,0,0,0,0,0,0,0,0,0,0,0,0,0,
0,0,0,0,0,0,0,0,0,0,0,0,0,0,0,0,
0,0,0,0,0,0,0,0,0,0,0,0,0,0,0,0,
0,0,0,0,0,0,0,0,0,0,0,0,0,0,0,0,
0,0,0,0,0,0,0,0,0,0,0,0,0,0,0,0
</chunk>
   <chunk x="48" y="0" width="16" height="16">
7,7,7,7,7,7,7,7,7,7,7,7,7,7,7,7,
0,0,0,0,0,0,0,0,0,0,0,0,0,0,0,0,
0,0,0,0,0,0,0,0,0,0,0,0,0,0,0,0,
0,0,0,0,0,0,0,0,0,0,0,0,0,0,0,0,
0,0,0,0,0,0,0,0,0,0,0,0,0,0,0,0,
0,0,0,0,0,0,0,0,0,0,0,0,0,0,0,0,
0,0,0,0,0,0,0,0,0,0,0,0,0,0,0,0,
0,0,0,0,0,0,0,0,0,0,0,0,0,0,0,0,
0,0,0,0,0,0,0,0,0,0,0,0,0,0,0,0,
0,0,0,0,0,0,0,0,0,0,0,0,0,0,0,0,
0,0,0,0,0,0,0,0,0,0,0,0,0,0,0,0,
0,0,0,0,0,0,0,0,0,0,0,0,0,0,0,0,
0,0,0,0,0,0,0,0,0,0,0,0,0,0,0,0,
0,0,0,0,0,0,0,0,0,0,0,0,0,0,0,0,
0,0,0,0,0,0,0,0,0,0,407,0,0,0,0,0,
0,0,0,0,0,0,0,0,0,0,0,0,0,0,0,0
</chunk>
   <chunk x="64" y="0" width="16" height="16">
7,7,7,7,7,7,7,7,7,7,7,7,7,7,7,7,
0,0,0,0,0,0,0,0,0,0,0,0,0,0,0,0,
0,0,0,0,0,0,0,0,0,0,0,0,0,0,0,0,
0,0,0,0,0,0,0,0,0,0,0,0,0,0,0,0,
0,0,0,0,0,0,0,0,0,0,0,0,0,0,0,0,
0,0,0,0,0,0,0,0,0,0,0,0,0,0,0,0,
0,0,0,0,0,0,0,0,0,0,0,0,0,0,0,0,
0,0,0,0,0,0,0,0,0,0,0,0,0,0,0,0,
0,0,0,0,0,0,0,0,0,0,0,0,0,0,0,0,
0,0,0,0,0,0,0,0,0,0,0,0,0,0,0,0,
0,0,0,0,0,0,0,0,0,0,0,0,0,0,0,0,
0,0,0,0,0,0,0,0,0,0,0,0,0,0,0,0,
0,0,0,0,0,0,0,0,0,0,0,0,0,0,0,0,
0,0,0,0,0,0,0,0,0,0,0,0,0,0,0,0,
0,0,0,0,0,0,0,0,0,0,0,0,0,0,0,0,
0,0,0,0,0,0,0,0,0,0,0,0,0,0,0,0
</chunk>
   <chunk x="80" y="0" width="16" height="16">
7,7,7,7,7,7,7,7,7,7,7,7,7,0,0,0,
0,0,0,0,0,0,0,0,0,0,0,0,7,0,0,0,
0,0,0,0,0,0,0,0,0,0,0,0,7,0,0,0,
0,0,0,0,0,0,0,0,0,0,0,0,7,0,0,0,
0,0,0,0,0,0,0,0,0,0,0,0,7,0,0,0,
0,0,0,0,0,0,0,0,0,0,0,0,7,0,0,0,
0,0,0,0,0,0,0,0,0,0,0,0,7,0,0,0,
0,0,0,0,0,0,0,0,0,0,0,0,7,0,0,0,
0,0,0,0,0,0,0,0,0,0,0,0,7,0,0,0,
0,0,0,0,0,0,0,0,0,0,0,0,7,0,0,0,
0,0,0,0,0,0,0,0,0,0,0,0,7,0,0,0,
0,0,0,0,0,0,0,0,0,0,0,0,7,0,0,0,
0,0,0,0,0,0,0,0,0,0,0,0,7,0,0,0,
0,0,0,0,0,0,0,0,0,0,0,0,7,0,0,0,
0,0,0,0,0,0,0,0,0,0,0,0,7,0,0,0,
0,0,0,0,0,0,0,0,0,0,0,0,7,0,0,0
</chunk>
   <chunk x="0" y="16" width="16" height="16">
7,0,0,0,0,0,0,0,0,0,0,0,0,0,0,0,
7,0,0,0,0,0,0,0,0,0,0,0,0,0,0,0,
7,0,0,0,0,0,0,0,0,0,0,0,0,0,0,0,
7,0,0,0,0,0,0,0,0,0,0,0,0,0,0,0,
7,0,0,0,0,0,0,0,0,0,0,0,0,0,0,0,
7,0,0,0,0,0,0,0,0,0,0,0,0,0,0,0,
7,0,0,0,0,0,0,0,0,0,0,0,0,0,0,0,
7,0,0,0,0,0,0,0,0,0,0,0,0,0,0,0,
7,0,0,0,0,0,0,0,0,0,0,0,0,0,0,0,
7,0,0,0,0,0,0,0,0,0,0,0,0,0,0,0,
7,0,0,0,0,0,0,0,0,0,0,0,0,0,0,0,
7,0,0,0,0,0,0,0,0,0,0,0,0,0,0,0,
7,0,0,0,0,0,0,0,0,0,0,0,0,0,0,0,
7,0,0,0,0,0,0,0,0,0,0,0,0,0,0,0,
7,0,0,0,0,0,0,0,0,0,0,0,0,0,0,0,
7,0,0,0,0,0,0,0,0,0,0,0,0,0,0,0
</chunk>
   <chunk x="80" y="16" width="16" height="16">
0,0,0,0,0,0,0,0,0,0,0,0,7,0,0,0,
0,0,0,0,0,0,0,0,0,0,0,0,7,0,0,0,
0,0,0,0,0,0,0,0,0,0,0,0,7,0,0,0,
0,0,0,0,0,0,0,0,0,0,0,0,7,0,0,0,
0,0,0,0,0,0,0,0,0,0,0,0,7,0,0,0,
0,0,0,0,0,0,0,0,0,0,0,0,7,0,0,0,
0,0,0,0,0,0,0,0,0,0,0,0,7,0,0,0,
0,0,0,0,0,0,0,0,0,0,0,0,7,0,0,0,
0,0,0,0,0,0,0,0,0,0,0,0,7,0,0,0,
0,0,0,0,0,0,0,0,0,0,0,0,7,0,0,0,
0,0,0,0,0,0,0,0,0,0,0,0,7,0,0,0,
0,0,0,0,0,0,0,0,0,0,0,0,7,0,0,0,
0,0,0,0,0,0,0,0,0,0,0,0,7,0,0,0,
0,0,0,0,0,0,0,0,0,0,0,0,7,0,0,0,
0,0,0,0,0,0,0,0,0,0,0,0,7,0,0,0,
0,0,0,0,0,0,0,0,0,0,0,0,7,0,0,0
</chunk>
   <chunk x="0" y="32" width="16" height="16">
7,0,0,0,0,0,0,0,0,0,0,0,0,0,0,0,
7,0,0,0,0,0,0,0,0,0,0,0,0,0,0,0,
7,0,0,0,0,0,0,0,0,0,0,0,0,0,0,0,
7,0,0,0,0,0,0,0,0,0,0,0,0,0,0,0,
7,0,0,0,0,0,0,0,0,0,0,0,0,0,0,0,
7,0,0,0,0,0,0,0,0,0,0,0,0,0,0,0,
7,0,0,0,0,0,0,0,0,0,0,0,0,0,0,0,
7,0,0,0,0,0,0,0,0,0,0,0,0,0,0,0,
7,0,0,0,0,0,0,0,0,0,0,0,0,0,0,0,
7,0,0,0,0,0,0,0,0,0,0,0,0,0,0,0,
7,0,0,0,0,0,0,0,0,0,0,0,0,0,0,0,
7,0,0,0,0,0,0,0,0,0,0,0,0,0,0,0,
7,0,0,0,0,0,0,0,0,0,0,0,0,0,0,0,
7,0,0,0,0,0,0,0,0,0,0,0,0,0,0,0,
7,0,0,0,0,0,0,0,0,0,0,0,0,0,0,0,
7,0,0,0,0,0,0,0,0,0,0,0,0,0,0,0
</chunk>
   <chunk x="80" y="32" width="16" height="16">
0,0,0,0,0,0,0,0,0,0,0,0,7,0,0,0,
0,0,0,0,0,0,0,0,0,0,0,0,7,0,0,0,
0,0,0,0,0,0,0,0,0,0,0,0,7,0,0,0,
0,0,0,0,0,0,0,0,0,0,0,0,7,0,0,0,
0,0,0,0,0,0,0,0,0,0,0,0,7,0,0,0,
0,0,0,0,0,0,0,0,0,0,0,0,7,0,0,0,
0,0,0,0,0,0,0,0,0,0,0,0,7,0,0,0,
0,0,0,0,0,0,0,0,0,0,0,0,7,0,0,0,
0,0,0,0,0,0,0,0,0,0,0,0,7,0,0,0,
0,0,0,0,0,0,0,0,0,0,0,0,7,0,0,0,
0,0,0,0,0,0,0,0,0,0,0,0,7,0,0,0,
0,0,0,0,0,0,0,0,0,0,0,0,7,0,0,0,
0,0,0,0,0,0,0,0,0,0,0,0,7,0,0,0,
0,0,0,0,0,0,0,0,0,0,0,0,7,0,0,0,
0,0,0,0,0,0,0,0,0,0,0,0,7,0,0,0,
0,0,0,0,0,0,0,0,0,0,0,0,7,0,0,0
</chunk>
   <chunk x="0" y="48" width="16" height="16">
7,0,0,0,0,0,0,0,0,0,0,0,0,0,0,0,
7,0,0,0,0,0,0,0,0,0,0,0,0,0,0,0,
7,7,7,7,7,7,7,7,7,7,7,7,7,7,7,7,
0,0,0,0,0,0,0,0,0,0,0,0,0,0,0,0,
0,0,0,0,0,0,0,0,0,0,0,0,0,0,0,0,
0,0,0,0,0,0,0,0,0,0,0,0,0,0,0,0,
0,0,0,0,0,0,0,0,0,0,0,0,0,0,0,0,
0,0,0,0,0,0,0,0,0,0,0,0,0,0,0,0,
0,0,0,0,0,0,0,0,0,0,0,0,0,0,0,0,
0,0,0,0,0,0,0,0,0,0,0,0,0,0,0,0,
0,0,0,0,0,0,0,0,0,0,0,0,0,0,0,0,
0,0,0,0,0,0,0,0,0,0,0,0,0,0,0,0,
0,0,0,0,0,0,0,0,0,0,0,0,0,0,0,0,
0,0,0,0,0,0,0,0,0,0,0,0,0,0,0,0,
0,0,0,0,0,0,0,0,0,0,0,0,0,0,0,0,
0,0,0,0,0,0,0,0,0,0,0,0,0,0,0,0
</chunk>
   <chunk x="16" y="48" width="16" height="16">
0,0,0,0,0,0,0,0,0,0,0,0,0,0,0,0,
0,0,0,0,0,0,0,0,0,0,0,0,0,0,0,0,
7,7,7,7,7,7,7,7,7,7,7,7,7,7,7,7,
0,0,0,0,0,0,0,0,0,0,0,0,0,0,0,0,
0,0,0,0,0,0,0,0,0,0,0,0,0,0,0,0,
0,0,0,0,0,0,0,0,0,0,0,0,0,0,0,0,
0,0,0,0,0,0,0,0,0,0,0,0,0,0,0,0,
0,0,0,0,0,0,0,0,0,0,0,0,0,0,0,0,
0,0,0,0,0,0,0,0,0,0,0,0,0,0,0,0,
0,0,0,0,0,0,0,0,0,0,0,0,0,0,0,0,
0,0,0,0,0,0,0,0,0,0,0,0,0,0,0,0,
0,0,0,0,0,0,0,0,0,0,0,0,0,0,0,0,
0,0,0,0,0,0,0,0,0,0,0,0,0,0,0,0,
0,0,0,0,0,0,0,0,0,0,0,0,0,0,0,0,
0,0,0,0,0,0,0,0,0,0,0,0,0,0,0,0,
0,0,0,0,0,0,0,0,0,0,0,0,0,0,0,0
</chunk>
   <chunk x="32" y="48" width="16" height="16">
0,0,0,0,0,0,0,0,0,0,0,0,0,0,0,0,
0,0,0,0,0,0,0,0,0,0,0,0,0,0,0,0,
7,7,7,7,7,7,7,7,7,7,7,7,7,7,7,7,
0,0,0,0,0,0,0,0,0,0,0,0,0,0,0,0,
0,0,0,0,0,0,0,0,0,0,0,0,0,0,0,0,
0,0,0,0,0,0,0,0,0,0,0,0,0,0,0,0,
0,0,0,0,0,0,0,0,0,0,0,0,0,0,0,0,
0,0,0,0,0,0,0,0,0,0,0,0,0,0,0,0,
0,0,0,0,0,0,0,0,0,0,0,0,0,0,0,0,
0,0,0,0,0,0,0,0,0,0,0,0,0,0,0,0,
0,0,0,0,0,0,0,0,0,0,0,0,0,0,0,0,
0,0,0,0,0,0,0,0,0,0,0,0,0,0,0,0,
0,0,0,0,0,0,0,0,0,0,0,0,0,0,0,0,
0,0,0,0,0,0,0,0,0,0,0,0,0,0,0,0,
0,0,0,0,0,0,0,0,0,0,0,0,0,0,0,0,
0,0,0,0,0,0,0,0,0,0,0,0,0,0,0,0
</chunk>
   <chunk x="48" y="48" width="16" height="16">
0,0,0,0,0,0,0,0,0,0,0,0,0,0,0,0,
0,0,0,0,0,0,0,0,0,0,0,0,0,0,0,0,
7,7,7,7,7,7,7,7,7,7,7,7,7,7,7,7,
0,0,0,0,0,0,0,0,0,0,0,0,0,0,0,0,
0,0,0,0,0,0,0,0,0,0,0,0,0,0,0,0,
0,0,0,0,0,0,0,0,0,0,0,0,0,0,0,0,
0,0,0,0,0,0,0,0,0,0,0,0,0,0,0,0,
0,0,0,0,0,0,0,0,0,0,0,0,0,0,0,0,
0,0,0,0,0,0,0,0,0,0,0,0,0,0,0,0,
0,0,0,0,0,0,0,0,0,0,0,0,0,0,0,0,
0,0,0,0,0,0,0,0,0,0,0,0,0,0,0,0,
0,0,0,0,0,0,0,0,0,0,0,0,0,0,0,0,
0,0,0,0,0,0,0,0,0,0,0,0,0,0,0,0,
0,0,0,0,0,0,0,0,0,0,0,0,0,0,0,0,
0,0,0,0,0,0,0,0,0,0,0,0,0,0,0,0,
0,0,0,0,0,0,0,0,0,0,0,0,0,0,0,0
</chunk>
   <chunk x="64" y="48" width="16" height="16">
0,0,0,0,0,0,0,0,0,0,0,0,0,0,0,0,
0,0,0,0,0,0,0,0,0,0,0,0,0,0,0,0,
7,7,7,7,7,7,7,7,7,7,7,7,7,7,7,7,
0,0,0,0,0,0,0,0,0,0,0,0,0,0,0,0,
0,0,0,0,0,0,0,0,0,0,0,0,0,0,0,0,
0,0,0,0,0,0,0,0,0,0,0,0,0,0,0,0,
0,0,0,0,0,0,0,0,0,0,0,0,0,0,0,0,
0,0,0,0,0,0,0,0,0,0,0,0,0,0,0,0,
0,0,0,0,0,0,0,0,0,0,0,0,0,0,0,0,
0,0,0,0,0,0,0,0,0,0,0,0,0,0,0,0,
0,0,0,0,0,0,0,0,0,0,0,0,0,0,0,0,
0,0,0,0,0,0,0,0,0,0,0,0,0,0,0,0,
0,0,0,0,0,0,0,0,0,0,0,0,0,0,0,0,
0,0,0,0,0,0,0,0,0,0,0,0,0,0,0,0,
0,0,0,0,0,0,0,0,0,0,0,0,0,0,0,0,
0,0,0,0,0,0,0,0,0,0,0,0,0,0,0,0
</chunk>
   <chunk x="80" y="48" width="16" height="16">
0,0,0,0,0,0,0,0,0,0,0,0,7,0,0,0,
0,0,0,0,0,0,0,0,0,0,0,0,7,0,0,0,
7,7,7,7,7,7,7,7,7,7,7,7,7,0,0,0,
0,0,0,0,0,0,0,0,0,0,0,0,0,0,0,0,
0,0,0,0,0,0,0,0,0,0,0,0,0,0,0,0,
0,0,0,0,0,0,0,0,0,0,0,0,0,0,0,0,
0,0,0,0,0,0,0,0,0,0,0,0,0,0,0,0,
0,0,0,0,0,0,0,0,0,0,0,0,0,0,0,0,
0,0,0,0,0,0,0,0,0,0,0,0,0,0,0,0,
0,0,0,0,0,0,0,0,0,0,0,0,0,0,0,0,
0,0,0,0,0,0,0,0,0,0,0,0,0,0,0,0,
0,0,0,0,0,0,0,0,0,0,0,0,0,0,0,0,
0,0,0,0,0,0,0,0,0,0,0,0,0,0,0,0,
0,0,0,0,0,0,0,0,0,0,0,0,0,0,0,0,
0,0,0,0,0,0,0,0,0,0,0,0,0,0,0,0,
0,0,0,0,0,0,0,0,0,0,0,0,0,0,0,0
</chunk>
  </data>
 </layer>
 <layer id="6" name="lớp cỏ" width="75" height="39">
  <data encoding="csv">
   <chunk x="16" y="0" width="16" height="16">
0,0,0,0,0,0,0,305,257,0,0,0,0,0,0,0,
0,0,0,0,0,0,0,0,0,307,329,305,254,279,256,255,
0,0,0,0,0,0,0,0,0,0,0,0,0,0,0,0,
0,0,0,0,0,0,0,0,0,0,0,0,0,0,0,0,
0,0,0,0,0,0,0,0,0,0,0,0,0,0,0,0,
0,0,0,0,0,0,0,0,0,0,0,0,0,0,0,0,
0,0,0,0,0,0,0,0,0,0,0,0,0,0,0,0,
0,0,0,0,0,0,0,0,0,0,0,0,0,0,0,0,
0,0,0,0,0,0,0,0,0,0,0,0,0,0,0,0,
0,0,0,0,0,0,0,0,0,0,0,0,0,0,0,0,
0,0,0,0,0,0,0,0,0,0,0,0,0,0,0,0,
0,0,0,0,0,0,0,0,0,0,0,0,0,0,0,0,
0,0,0,0,0,0,0,0,0,0,0,0,0,0,0,0,
0,0,0,0,0,0,0,0,0,0,0,0,0,0,0,0,
0,0,0,0,0,0,0,0,0,0,0,0,0,0,0,0,
0,0,0,0,0,0,0,0,0,0,0,0,0,0,0,0
</chunk>
   <chunk x="32" y="0" width="16" height="16">
283,327,302,305,0,0,0,0,0,0,0,0,0,0,0,0,
0,0,0,0,0,0,0,0,0,0,0,0,0,0,0,0,
0,0,0,0,0,0,0,0,0,0,0,0,0,0,0,0,
0,0,0,0,0,0,0,0,0,0,0,0,0,0,0,0,
0,0,0,0,0,0,0,0,0,0,0,0,0,0,0,0,
0,0,0,0,0,0,0,0,0,0,0,0,0,0,0,0,
0,0,0,0,0,0,0,0,0,0,0,0,0,0,0,0,
0,0,0,0,0,0,0,0,0,0,0,0,0,0,0,0,
0,0,0,0,0,0,0,0,0,0,0,0,0,0,0,0,
0,0,0,0,0,0,0,0,0,0,0,0,0,0,0,0,
0,0,0,0,0,0,0,0,0,0,0,0,0,0,0,0,
0,0,0,0,0,0,0,0,0,0,0,0,0,0,0,0,
0,0,0,0,0,0,0,0,0,0,0,0,0,0,0,0,
0,0,0,0,0,0,0,0,0,0,0,0,0,0,0,0,
0,0,0,0,0,0,0,0,0,0,0,0,0,0,0,0,
0,0,0,0,0,0,0,0,0,0,0,0,0,0,0,0
</chunk>
  </data>
 </layer>
 <layer id="7" name="lớp hoa" width="75" height="39">
  <data encoding="csv">
   <chunk x="16" y="16" width="16" height="16">
0,0,0,0,0,0,0,0,0,0,0,0,0,0,0,0,
0,0,0,0,0,0,0,0,0,0,0,0,0,0,0,0,
0,0,0,0,0,0,0,0,0,0,0,0,0,0,0,0,
0,0,0,0,0,0,0,0,0,0,0,0,0,0,0,0,
0,0,0,0,0,0,0,0,0,0,0,0,0,0,0,0,
0,0,0,0,0,0,0,0,0,0,0,0,0,0,0,0,
0,0,0,0,0,0,0,0,0,0,0,0,0,0,0,0,
0,0,0,0,0,0,0,0,0,0,0,0,0,0,0,0,
0,0,0,0,0,0,0,0,0,0,0,0,0,0,0,0,
0,0,0,0,0,0,0,0,0,0,0,0,0,0,0,0,
0,0,0,0,0,0,0,0,0,0,0,0,0,0,0,0,
0,0,0,0,0,0,0,0,0,0,0,0,0,0,0,0,
0,0,0,0,0,0,0,0,0,0,0,0,10784,10785,10786,10787,
0,0,0,0,0,0,0,0,0,0,0,0,10796,10797,10798,10799,
0,0,0,0,0,0,0,0,0,0,0,0,10808,10809,10810,10811,
0,0,0,0,0,0,0,0,0,0,0,0,0,0,0,0
</chunk>
   <chunk x="32" y="16" width="16" height="16">
0,0,0,0,0,0,0,0,0,0,0,0,0,0,0,0,
0,0,0,0,0,0,0,0,0,0,0,0,0,0,0,0,
0,0,0,0,0,0,0,0,0,0,0,0,0,0,0,0,
0,0,0,0,0,0,0,0,0,0,0,0,0,0,0,0,
0,0,0,0,0,0,0,0,0,0,0,0,0,0,0,0,
0,0,0,0,0,0,0,0,0,0,0,0,0,0,0,0,
0,0,0,0,0,0,0,0,0,0,0,0,0,0,0,0,
0,0,0,0,0,0,0,0,0,0,0,0,0,0,0,0,
0,0,0,0,0,0,0,0,0,0,0,0,0,0,0,0,
0,0,0,0,0,0,0,0,0,0,0,0,0,0,0,0,
0,0,0,0,0,0,0,0,0,0,0,0,0,0,0,0,
0,0,0,0,0,0,0,0,0,0,0,0,0,0,0,0,
0,0,0,0,0,0,0,0,0,0,0,0,0,0,0,0,
0,0,0,0,0,0,0,0,0,0,0,0,0,0,0,0,
0,0,0,0,0,0,0,0,0,0,0,0,0,0,0,0,
10784,10785,10786,10787,0,0,0,0,0,0,0,0,0,0,0,0
</chunk>
   <chunk x="16" y="32" width="16" height="16">
0,0,0,0,0,0,0,0,0,0,0,0,0,0,0,0,
0,0,0,0,0,0,0,0,10784,10785,10786,10787,0,0,0,0,
0,0,0,0,0,0,0,0,10796,10797,10798,10799,0,0,0,0,
0,0,0,0,0,0,0,0,10808,10809,10810,10811,0,0,0,0,
0,0,0,0,0,0,0,0,0,0,0,0,0,0,0,0,
0,0,0,0,0,0,0,0,0,0,0,0,0,0,0,0,
0,0,0,0,0,0,0,0,0,0,0,0,0,0,0,0,
0,0,0,0,0,0,0,0,0,0,0,0,0,0,0,0,
0,0,0,0,0,0,0,0,0,0,0,0,0,0,0,0,
0,0,0,0,0,0,0,0,0,0,0,0,0,0,0,0,
0,0,0,0,0,0,0,0,0,0,0,0,0,0,0,0,
0,0,0,0,0,0,0,0,0,0,0,0,0,0,0,0,
0,0,0,0,0,0,0,0,0,0,0,0,0,0,0,0,
0,0,0,0,0,0,0,0,0,0,0,0,0,0,0,0,
0,0,0,0,0,0,0,0,0,0,0,0,0,0,0,0,
0,0,0,0,0,0,0,0,0,0,0,0,0,0,0,0
</chunk>
   <chunk x="32" y="32" width="16" height="16">
10796,10797,10798,10799,0,0,0,0,0,0,0,0,0,0,0,0,
10808,10809,10810,10811,0,0,0,0,0,0,0,0,0,0,0,0,
0,0,0,0,0,0,0,0,0,10784,10785,10786,10787,0,0,0,
0,0,0,0,0,0,0,0,0,10796,10797,10798,10799,0,0,0,
0,0,0,0,0,0,0,0,0,10808,10809,10810,10811,0,0,0,
0,0,0,0,0,0,0,0,0,0,0,0,0,0,0,0,
0,0,0,0,0,0,0,0,0,0,0,0,0,0,0,0,
0,0,0,0,0,0,0,0,0,0,0,0,0,0,0,0,
0,0,0,0,0,0,0,0,0,0,0,0,0,0,0,0,
0,0,0,0,0,0,0,0,0,0,0,0,0,0,0,0,
0,0,0,0,0,0,0,0,0,0,0,0,0,0,0,0,
0,0,0,0,0,0,0,0,0,0,0,0,0,0,0,0,
0,0,0,0,0,0,0,0,0,0,0,0,0,0,0,690,
0,0,0,0,0,0,0,0,0,0,0,0,0,0,0,694,
0,0,0,0,0,0,0,0,0,0,0,0,0,0,0,698,
0,0,0,0,0,0,0,0,0,0,0,0,0,0,0,0
</chunk>
   <chunk x="48" y="32" width="16" height="16">
0,0,0,0,0,0,0,0,0,0,0,0,0,0,0,0,
0,0,0,0,0,0,0,0,0,0,0,0,0,0,0,0,
0,0,0,0,0,0,0,0,0,0,0,0,0,0,0,0,
0,0,0,0,0,0,0,0,0,0,0,0,0,0,0,0,
0,0,0,0,0,0,0,0,0,0,0,0,0,0,0,0,
0,0,0,0,0,0,0,0,0,0,0,0,0,0,0,0,
0,0,0,0,0,0,0,0,0,0,0,0,0,0,0,0,
0,0,0,0,0,0,0,0,0,0,0,0,0,0,0,0,
0,0,0,0,0,0,0,0,0,0,0,0,0,0,0,0,
0,0,0,0,0,0,0,0,0,0,0,0,0,0,0,0,
0,0,0,0,0,0,0,0,0,0,0,0,0,0,0,0,
0,0,0,0,0,0,0,0,0,0,0,0,0,0,0,0,
691,692,0,0,0,0,0,0,0,0,0,0,0,0,0,0,
695,696,0,0,0,0,0,0,0,0,0,0,0,0,0,0,
699,700,0,0,0,0,0,0,0,0,0,0,0,0,0,0,
0,0,0,0,0,0,0,0,0,0,0,0,0,0,0,0
</chunk>
  </data>
 </layer>
</map>
