<?xml version="1.0" encoding="UTF-8"?>
<map version="1.10" tiledversion="1.12.0" orientation="orthogonal" renderorder="right-down" width="75" height="39" tilewidth="16" tileheight="16" infinite="1" nextlayerid="6" nextobjectid="1">
 <tileset firstgid="1" source="../example/Resources/tutorial.tsx"/>
 <tileset firstgid="33" source="../example/Resources/First Asset pack.tsx"/>
 <tileset firstgid="609" source="../example/Resources/XP.tsx"/>
 <layer id="1" name="Tile Layer 1" width="75" height="39">
  <data encoding="csv"/>
 </layer>
 <layer id="2" name="background" width="75" height="39">
  <data encoding="csv">
   <chunk x="0" y="0" width="16" height="16">
2866,2867,2868,2869,2870,2871,2872,2873,2874,2875,2876,2877,2878,2879,2880,2881,
2941,2942,2943,2944,2945,2946,2947,2948,2949,2950,2951,2952,2953,2954,2955,2956,
3016,3017,3018,3019,3020,3021,3022,3023,3024,3025,3026,3027,3028,3029,3030,3031,
3091,3092,3093,3094,3095,3096,3097,3098,3099,3100,3101,3102,3103,3104,3105,3106,
3166,3167,3168,3169,3170,3171,3172,3173,3174,3175,3176,3177,3178,3179,3180,3181,
3241,3242,3243,3244,3245,3246,3247,3248,3249,3250,3251,3252,3253,3254,3255,3256,
3316,3317,3318,3319,3320,3321,3322,3323,3324,3325,3326,3327,3328,3329,3330,3331,
3391,3392,3393,3394,3395,3396,3397,3398,3399,3400,3401,3402,3403,3404,3405,3406,
3466,3467,3468,3469,3470,3471,3472,3473,3474,3475,3476,3477,3478,3479,3480,3481,
3541,3542,3543,3544,3545,3546,3547,3548,3549,3550,3551,3552,3553,3554,3555,3556,
3616,3617,3618,3619,3620,3621,3622,3623,3624,3625,3626,3627,3628,3629,3630,3631,
3691,3692,3693,3694,3695,3696,3697,3698,3699,3700,3701,3702,3703,3704,3705,3706,
3766,3767,3768,3769,3770,3771,3772,3773,3774,3775,3776,3777,3778,3779,3780,3781,
3841,3842,3843,3844,3845,3846,3847,3848,3849,3850,3851,3852,3853,3854,3855,3856,
3916,3917,3918,3919,3920,3921,3922,3923,3924,3925,3926,3927,3928,3929,3930,3931,
3991,3992,3993,3994,3995,3996,3997,3998,3999,4000,4001,4002,4003,4004,4005,4006
</chunk>
   <chunk x="16" y="0" width="16" height="16">
2882,2883,2884,2885,2886,2887,2888,2889,2890,2891,2892,2893,2894,2895,2896,2897,
2957,2958,2959,2960,2961,2962,2963,2964,2965,2966,2967,2968,2969,2970,2971,2972,
3032,3033,3034,3035,3036,3037,3038,3039,3040,3041,3042,3043,3044,3045,3046,3047,
3107,3108,3109,3110,3111,3112,3113,3114,3115,3116,3117,3118,3119,3120,3121,3122,
3182,3183,3184,3185,3186,3187,3188,3189,3190,3191,3192,3193,3194,3195,3196,3197,
3257,3258,3259,3260,3261,3262,3263,3264,3265,3266,3267,3268,3269,3270,3271,3272,
3332,3333,3334,3335,3336,3337,3338,3339,3340,3341,3342,3343,3344,3345,3346,3347,
3407,3408,3409,3410,3411,3412,3413,3414,3415,3416,3417,3418,3419,3420,3421,3422,
3482,3483,3484,3485,3486,3487,3488,3489,3490,3491,3492,3493,3494,3495,3496,3497,
3557,3558,3559,3560,3561,3562,3563,3564,3565,3566,3567,3568,3569,3570,3571,3572,
3632,3633,3634,3635,3636,3637,3638,3639,3640,3641,3642,3643,3644,3645,3646,3647,
3707,3708,3709,3710,3711,3712,3713,3714,3715,3716,3717,3718,3719,3720,3721,3722,
3782,3783,3784,3785,3786,3787,3788,3789,3790,3791,3792,3793,3794,3795,3796,3797,
3857,3858,3859,3860,3861,3862,3863,3864,3865,3866,3867,3868,3869,3870,3871,3872,
3932,3933,3934,3935,3936,3937,3938,3939,3940,3941,3942,3943,3944,3945,3946,3947,
4007,4008,4009,4010,4011,4012,4013,4014,4015,4016,4017,4018,4019,4020,4021,4022
</chunk>
   <chunk x="32" y="0" width="16" height="16">
2898,2899,2900,2901,2902,2903,2904,2905,2906,2907,2908,2909,2910,2911,2912,2913,
2973,2974,2975,2976,2977,2978,2979,2980,2981,2982,2983,2984,2985,2986,2987,2988,
3048,3049,3050,3051,3052,3053,3054,3055,3056,3057,3058,3059,3060,3061,3062,3063,
3123,3124,3125,3126,3127,3128,3129,3130,3131,3132,3133,3134,3135,3136,3137,3138,
3198,3199,3200,3201,3202,3203,3204,3205,3206,3207,3208,3209,3210,3211,3212,3213,
3273,3274,3275,3276,3277,3278,3279,3280,3281,3282,3283,3284,3285,3286,3287,3288,
3348,3349,3350,3351,3352,3353,3354,3355,3356,3357,3358,3359,3360,3361,3362,3363,
3423,3424,3425,3426,3427,3428,3429,3430,3431,3432,3433,3434,3435,3436,3437,3438,
3498,3499,3500,3501,3502,3503,3504,3505,3506,3507,3508,3509,3510,3511,3512,3513,
3573,3574,3575,3576,3577,3578,3579,3580,3581,3582,3583,3584,3585,3586,3587,3588,
3648,3649,3650,3651,3652,3653,3654,3655,3656,3657,3658,3659,3660,3661,3662,3663,
3723,3724,3725,3726,3727,3728,3729,3730,3731,3732,3733,3734,3735,3736,3737,3738,
3798,3799,3800,3801,3802,3803,3804,3805,3806,3807,3808,3809,3810,3811,3812,3813,
3873,3874,3875,3876,3877,3878,3879,3880,3881,3882,3883,3884,3885,3886,3887,3888,
3948,3949,3950,3951,3952,3953,3954,3955,3956,3957,3958,3959,3960,3961,3962,3963,
4023,4024,4025,4026,4027,4028,4029,4030,4031,4032,4033,4034,4035,4036,4037,4038
</chunk>
   <chunk x="48" y="0" width="16" height="16">
2914,2915,2916,2917,2918,2919,0,0,0,0,0,0,0,0,0,0,
2989,2990,2991,2992,2993,2994,0,0,0,0,0,0,0,0,0,0,
3064,3065,3066,3067,3068,3069,0,0,0,0,0,0,0,0,0,0,
3139,3140,3141,3142,3143,3144,0,0,0,0,0,0,0,0,0,0,
3214,3215,3216,3217,3218,3219,0,0,0,0,0,0,0,0,0,0,
3289,3290,3291,3292,3293,3294,0,0,0,0,0,0,0,0,0,0,
3364,3365,3366,3367,3368,3369,0,0,0,0,0,0,0,0,0,0,
3439,3440,3441,3442,3443,3444,0,0,0,0,0,0,0,0,0,0,
3514,3515,3516,3517,3518,3519,0,0,0,0,0,0,0,0,0,0,
3589,3590,3591,3592,3593,3594,0,0,0,0,0,0,0,0,0,0,
3664,3665,3666,3667,3668,3669,0,0,0,0,0,0,0,0,0,0,
3739,3740,3741,3742,3743,3744,0,0,0,0,0,0,0,0,0,0,
3814,3815,3816,3817,3818,3819,0,0,0,0,0,0,0,0,0,0,
3889,3890,3891,3892,3893,3894,0,0,0,0,0,0,0,0,0,0,
3964,3965,3966,3967,3968,3969,0,0,0,0,0,0,0,0,0,0,
4039,4040,4041,4042,4043,4044,0,0,0,0,0,0,0,0,0,0
</chunk>
   <chunk x="0" y="16" width="16" height="16">
4066,4067,4068,4069,4070,4071,4072,4073,4074,4075,4076,4077,4078,4079,4080,4081,
4141,4142,4143,4144,4145,4146,4147,4148,4149,4150,4151,4152,4153,4154,4155,4156,
4216,4217,4218,4219,4220,4221,4222,4223,4224,4225,4226,4227,4228,4229,4230,4231,
4291,4292,4293,4294,4295,4296,4297,4298,4299,4300,4301,4302,4303,4304,4305,4306,
4366,4367,4368,4369,4370,4371,4372,4373,4374,4375,4376,4377,4378,4379,4380,4381,
4441,4442,4443,4444,4445,4446,4447,4448,4449,4450,4451,4452,4453,4454,4455,4456,
4516,4517,4518,4519,4520,4521,4522,4523,4524,4525,4526,4527,4528,4529,4530,4531,
4591,4592,4593,4594,4595,4596,4597,4598,4599,4600,4601,4602,4603,4604,4605,4606,
4666,4667,4668,4669,4670,4671,4672,4673,4674,4675,4676,4677,4678,4679,4680,4681,
4741,4742,4743,4744,4745,4746,4747,4748,4749,4750,4751,4752,4753,4754,4755,4756,
4816,4817,4818,4819,4820,4821,4822,4823,4824,4825,4826,4827,4828,4829,4830,4831,
4891,4892,4893,4894,4895,4896,4897,4898,4899,4900,4901,4902,4903,4904,4905,4906,
4966,4967,4968,4969,4970,4971,4972,4973,4974,4975,4976,4977,4978,4979,4980,4981,
5041,5042,5043,5044,5045,5046,5047,5048,5049,5050,5051,5052,5053,5054,5055,5056,
5116,5117,5118,5119,5120,5121,5122,5123,5124,5125,5126,5127,5128,5129,5130,5131,
5191,5192,5193,5194,5195,5196,5197,5198,5199,5200,5201,5202,5203,5204,5205,5206
</chunk>
   <chunk x="16" y="16" width="16" height="16">
4082,4083,4084,4085,4086,4087,4088,4089,4090,4091,4092,4093,4094,4095,4096,4097,
4157,4158,4159,4160,4161,4162,4163,4164,4165,4166,4167,4168,4169,4170,4171,4172,
4232,4233,4234,4235,4236,4237,4238,4239,4240,4241,4242,4243,4244,4245,4246,4247,
4307,4308,4309,4310,4311,4312,4313,4314,4315,4316,4317,4318,4319,4320,4321,4322,
4382,4383,4384,4385,4386,4387,4388,4389,4390,4391,4392,4393,4394,4395,4396,4397,
4457,4458,4459,4460,4461,4462,4463,4464,4465,4466,4467,4468,4469,4470,4471,4472,
4532,4533,4534,4535,4536,4537,4538,4539,4540,4541,4542,4543,4544,4545,4546,4547,
4607,4608,4609,4610,4611,4612,4613,4614,4615,4616,4617,4618,4619,4620,4621,4622,
4682,4683,4684,4685,4686,4687,4688,4689,4690,4691,4692,4693,4694,4695,4696,4697,
4757,4758,4759,4760,4761,4762,4763,4764,4765,4766,4767,4768,4769,4770,4771,4772,
4832,4833,4834,4835,4836,4837,4838,4839,4840,4841,4842,4843,4844,4845,4846,4847,
4907,4908,4909,4910,4911,4912,4913,4914,4915,4916,4917,4918,4919,4920,4921,4922,
4982,4983,4984,4985,4986,4987,4988,4989,4990,4991,4992,4993,4994,4995,4996,4997,
5057,5058,5059,5060,5061,5062,5063,5064,5065,5066,5067,5068,5069,5070,5071,5072,
5132,5133,5134,5135,5136,5137,5138,5139,5140,5141,5142,5143,5144,5145,5146,5147,
5207,5208,5209,5210,5211,5212,5213,5214,5215,5216,5217,5218,5219,5220,5221,5222
</chunk>
   <chunk x="32" y="16" width="16" height="16">
4098,4099,4100,4101,4102,4103,4104,4105,4106,4107,4108,4109,4110,4111,4112,4113,
4173,4174,4175,4176,4177,4178,4179,4180,4181,4182,4183,4184,4185,4186,4187,4188,
4248,4249,4250,4251,4252,4253,4254,4255,4256,4257,4258,4259,4260,4261,4262,4263,
4323,4324,4325,4326,4327,4328,4329,4330,4331,4332,4333,4334,4335,4336,4337,4338,
4398,4399,4400,4401,4402,4403,4404,4405,4406,4407,4408,4409,4410,4411,4412,4413,
4473,4474,4475,4476,4477,4478,4479,4480,4481,4482,4483,4484,4485,4486,4487,4488,
4548,4549,4550,4551,4552,4553,4554,4555,4556,4557,4558,4559,4560,4561,4562,4563,
4623,4624,4625,4626,4627,4628,4629,4630,4631,4632,4633,4634,4635,4636,4637,4638,
4698,4699,4700,4701,4702,4703,4704,4705,4706,4707,4708,4709,4710,4711,4712,4713,
4773,4774,4775,4776,4777,4778,4779,4780,4781,4782,4783,4784,4785,4786,4787,4788,
4848,4849,4850,4851,4852,4853,4854,4855,4856,4857,4858,4859,4860,4861,4862,4863,
4923,4924,4925,4926,4927,4928,4929,4930,4931,4932,4933,4934,4935,4936,4937,4938,
4998,4999,5000,5001,5002,5003,5004,5005,5006,5007,5008,5009,5010,5011,5012,5013,
5073,5074,5075,5076,5077,5078,5079,5080,5081,5082,5083,5084,5085,5086,5087,5088,
5148,5149,5150,5151,5152,5153,5154,5155,5156,5157,5158,5159,5160,5161,5162,5163,
5223,5224,5225,5226,5227,5228,5229,5230,5231,5232,5233,5234,5235,5236,5237,5238
</chunk>
   <chunk x="48" y="16" width="16" height="16">
4114,4115,4116,4117,4118,4119,0,0,0,0,0,0,0,0,0,0,
4189,4190,4191,4192,4193,4194,0,0,0,0,0,0,0,0,0,0,
4264,4265,4266,4267,4268,4269,0,0,0,0,0,0,0,0,0,0,
4339,4340,4341,4342,4343,4344,0,0,0,0,0,0,0,0,0,0,
4414,4415,4416,4417,4418,4419,0,0,0,0,0,0,0,0,0,0,
4489,4490,4491,4492,4493,4494,0,0,0,0,0,0,0,0,0,0,
4564,4565,4566,4567,4568,4569,0,0,0,0,0,0,0,0,0,0,
4639,4640,4641,4642,4643,4644,0,0,0,0,0,0,0,0,0,0,
4714,4715,4716,4717,4718,4719,0,0,0,0,0,0,0,0,0,0,
4789,4790,4791,4792,4793,4794,0,0,0,0,0,0,0,0,0,0,
4864,4865,4866,4867,4868,4869,0,0,0,0,0,0,0,0,0,0,
4939,4940,4941,4942,4943,4944,0,0,0,0,0,0,0,0,0,0,
5014,5015,5016,5017,5018,5019,0,0,0,0,0,0,0,0,0,0,
5089,5090,5091,5092,5093,5094,0,0,0,0,0,0,0,0,0,0,
5164,5165,5166,5167,5168,5169,0,0,0,0,0,0,0,0,0,0,
5239,5240,5241,5242,5243,5244,0,0,0,0,0,0,0,0,0,0
</chunk>
   <chunk x="0" y="32" width="16" height="16">
5266,5267,5268,5269,5270,5271,5272,5273,5274,5275,5276,5277,5278,5279,5280,5281,
5341,5342,5343,5344,5345,5346,5347,5348,5349,5350,5351,5352,5353,5354,5355,5356,
5416,5417,5418,5419,5420,5421,5422,5423,5424,5425,5426,5427,5428,5429,5430,5431,
5491,5492,5493,5494,5495,5496,5497,5498,5499,5500,5501,5502,5503,5504,5505,5506,
5566,5567,5568,5569,5570,5571,5572,5573,5574,5575,5576,5577,5578,5579,5580,5581,
5641,5642,5643,5644,5645,5646,5647,5648,5649,5650,5651,5652,5653,5654,5655,5656,
5716,5717,5718,5719,5720,5721,5722,5723,5724,5725,5726,5727,5728,5729,5730,5731,
5791,5792,5793,5794,5795,5796,5797,5798,5799,5800,5801,5802,5803,5804,5805,5806,
5866,5867,5868,5869,5870,5871,5872,5873,5874,5875,5876,5877,5878,5879,5880,5881,
5941,5942,5943,5944,5945,5946,5947,5948,5949,5950,5951,5952,5953,5954,5955,5956,
6016,6017,6018,6019,6020,6021,6022,6023,6024,6025,6026,6027,6028,6029,6030,6031,
6091,6092,6093,6094,6095,6096,6097,6098,6099,6100,6101,6102,6103,6104,6105,6106,
6166,6167,6168,6169,6170,6171,6172,6173,6174,6175,6176,6177,6178,6179,6180,6181,
0,0,0,0,0,0,0,0,0,0,0,0,0,0,0,0,
0,0,0,0,0,0,0,0,0,0,0,0,0,0,0,0,
0,0,0,0,0,0,0,0,0,0,0,0,0,0,0,0
</chunk>
   <chunk x="16" y="32" width="16" height="16">
5282,5283,5284,5285,5286,5287,5288,5289,5290,5291,5292,5293,5294,5295,5296,5297,
5357,5358,5359,5360,5361,5362,5363,5364,5365,5366,5367,5368,5369,5370,5371,5372,
5432,5433,5434,5435,5436,5437,5438,5439,5440,5441,5442,5443,5444,5445,5446,5447,
5507,5508,5509,5510,5511,5512,5513,5514,5515,5516,5517,5518,5519,5520,5521,5522,
5582,5583,5584,5585,5586,5587,5588,5589,5590,5591,5592,5593,5594,5595,5596,5597,
5657,5658,5659,5660,5661,5662,5663,5664,5665,5666,5667,5668,5669,5670,5671,5672,
5732,5733,5734,5735,5736,5737,5738,5739,5740,5741,5742,5743,5744,5745,5746,5747,
5807,5808,5809,5810,5811,5812,5813,5814,5815,5816,5817,5818,5819,5820,5821,5822,
5882,5883,5884,5885,5886,5887,5888,5889,5890,5891,5892,5893,5894,5895,5896,5897,
5957,5958,5959,5960,5961,5962,5963,5964,5965,5966,5967,5968,5969,5970,5971,5972,
6032,6033,6034,6035,6036,6037,6038,6039,6040,6041,6042,6043,6044,6045,6046,6047,
6107,6108,6109,6110,6111,6112,6113,6114,6115,6116,6117,6118,6119,6120,6121,6122,
6182,6183,6184,6185,6186,6187,6188,6189,6190,6191,6192,6193,6194,6195,6196,6197,
0,0,0,0,0,0,0,0,0,0,0,0,0,0,0,0,
0,0,0,0,0,0,0,0,0,0,0,0,0,0,0,0,
0,0,0,0,0,0,0,0,0,0,0,0,0,0,0,0
</chunk>
   <chunk x="32" y="32" width="16" height="16">
5298,5299,5300,5301,5302,5303,5304,5305,5306,5307,5308,5309,5310,5311,5312,5313,
5373,5374,5375,5376,5377,5378,5379,5380,5381,5382,5383,5384,5385,5386,5387,5388,
5448,5449,5450,5451,5452,5453,5454,5455,5456,5457,5458,5459,5460,5461,5462,5463,
5523,5524,5525,5526,5527,5528,5529,5530,5531,5532,5533,5534,5535,5536,5537,5538,
5598,5599,5600,5601,5602,5603,5604,5605,5606,5607,5608,5609,5610,5611,5612,5613,
5673,5674,5675,5676,5677,5678,5679,5680,5681,5682,5683,5684,5685,5686,5687,5688,
5748,5749,5750,5751,5752,5753,5754,5755,5756,5757,5758,5759,5760,5761,5762,5763,
5823,5824,5825,5826,5827,5828,5829,5830,5831,5832,5833,5834,5835,5836,5837,5838,
5898,5899,5900,5901,5902,5903,5904,5905,5906,5907,5908,5909,5910,5911,5912,5913,
5973,5974,5975,5976,5977,5978,5979,5980,5981,5982,5983,5984,5985,5986,5987,5988,
6048,6049,6050,6051,6052,6053,6054,6055,6056,6057,6058,6059,6060,6061,6062,6063,
6123,6124,6125,6126,6127,6128,6129,6130,6131,6132,6133,6134,6135,6136,6137,6138,
6198,6199,6200,6201,6202,6203,6204,6205,6206,6207,6208,6209,6210,6211,6212,6213,
0,0,0,0,0,0,0,0,0,0,0,0,0,0,0,0,
0,0,0,0,0,0,0,0,0,0,0,0,0,0,0,0,
0,0,0,0,0,0,0,0,0,0,0,0,0,0,0,0
</chunk>
   <chunk x="48" y="32" width="16" height="16">
5314,5315,5316,5317,5318,5319,0,0,0,0,0,0,0,0,0,0,
5389,5390,5391,5392,5393,5394,0,0,0,0,0,0,0,0,0,0,
5464,5465,5466,5467,5468,5469,0,0,0,0,0,0,0,0,0,0,
5539,5540,5541,5542,5543,5544,0,0,0,0,0,0,0,0,0,0,
5614,5615,5616,5617,5618,5619,0,0,0,0,0,0,0,0,0,0,
5689,5690,5691,5692,5693,5694,0,0,0,0,0,0,0,0,0,0,
5764,5765,5766,5767,5768,5769,0,0,0,0,0,0,0,0,0,0,
5839,5840,5841,5842,5843,5844,0,0,0,0,0,0,0,0,0,0,
5914,5915,5916,5917,5918,5919,0,0,0,0,0,0,0,0,0,0,
5989,5990,5991,5992,5993,5994,0,0,0,0,0,0,0,0,0,0,
6064,6065,6066,6067,6068,6069,0,0,0,0,0,0,0,0,0,0,
6139,6140,6141,6142,6143,6144,0,0,0,0,0,0,0,0,0,0,
6214,6215,6216,6217,6218,6219,0,0,0,0,0,0,0,0,0,0,
0,0,0,0,0,0,0,0,0,0,0,0,0,0,0,0,
0,0,0,0,0,0,0,0,0,0,0,0,0,0,0,0,
0,0,0,0,0,0,0,0,0,0,0,0,0,0,0,0
</chunk>
  </data>
 </layer>
 <layer id="3" name="lớp dưới" width="75" height="39">
  <data encoding="csv">
   <chunk x="0" y="0" width="16" height="16">
0,0,492,492,0,0,0,0,0,0,0,0,0,0,0,0,
0,0,492,492,492,492,492,492,492,492,492,492,492,492,492,492,
0,0,492,492,492,492,492,492,492,492,492,492,492,492,492,492,
0,0,492,492,492,492,492,492,492,492,492,492,492,492,492,492,
0,0,492,492,492,492,492,492,492,492,492,492,492,492,492,492,
0,0,492,492,492,492,492,492,492,492,492,492,492,492,492,492,
0,0,492,492,492,492,492,492,492,492,492,492,492,492,492,492,
0,0,492,492,492,492,492,492,492,492,492,492,492,492,492,492,
0,0,492,492,492,492,492,492,492,492,492,492,492,492,492,492,
0,0,492,492,492,492,492,492,492,492,492,492,492,492,492,492,
0,0,0,0,0,0,0,0,0,0,0,0,0,0,0,0,
0,0,0,0,0,0,0,0,0,0,0,0,0,0,0,0,
0,0,0,0,0,0,0,0,0,0,0,0,0,0,0,0,
0,0,492,492,492,492,492,492,492,492,492,492,492,492,492,492,
0,0,0,0,0,0,0,0,0,0,0,0,492,492,492,492,
0,0,0,0,0,0,0,0,0,0,0,0,492,492,492,492
</chunk>
   <chunk x="16" y="0" width="16" height="16">
0,0,0,0,0,0,0,0,0,0,0,0,0,0,0,0,
492,492,0,0,0,0,0,0,0,0,0,0,0,0,0,0,
492,492,492,492,492,492,492,492,492,492,492,492,492,492,492,371,
492,492,492,492,492,492,492,492,492,492,492,492,492,492,492,371,
492,492,492,492,492,492,492,492,492,492,492,492,492,492,492,371,
492,492,492,492,492,492,492,492,492,492,492,492,492,492,492,371,
492,492,492,492,492,492,492,492,492,492,492,492,492,492,492,371,
492,492,492,492,492,492,492,492,492,492,492,492,492,492,492,492,
492,492,492,492,492,492,492,492,492,492,492,492,492,492,492,492,
492,492,492,492,492,492,492,492,492,492,492,492,492,492,492,492,
0,0,0,0,0,0,0,0,0,0,0,0,0,0,0,0,
0,0,0,0,0,0,0,0,0,0,0,0,0,0,0,0,
0,0,0,0,0,0,0,0,0,0,0,0,0,0,0,0,
492,492,492,492,492,492,492,492,492,492,492,492,492,492,492,492,
492,492,492,492,492,492,492,492,492,492,492,492,492,492,492,492,
492,492,492,492,492,492,492,492,492,492,492,492,492,492,492,492
</chunk>
   <chunk x="32" y="0" width="16" height="16">
0,0,0,0,0,0,0,0,0,0,0,0,0,0,0,0,
0,0,0,0,0,0,0,0,0,0,0,0,0,0,0,0,
371,359,0,0,0,0,0,0,0,0,0,0,0,0,0,0,
371,407,0,0,0,0,0,0,0,0,0,0,0,0,0,0,
371,387,0,0,0,0,0,0,0,0,0,0,0,0,0,0,
371,387,0,0,0,0,0,0,0,0,0,0,0,0,0,0,
371,387,0,0,0,0,0,0,0,0,0,0,0,0,0,0,
371,387,0,0,0,0,0,0,0,0,0,0,0,0,0,0,
371,387,0,0,0,0,0,0,0,0,0,0,0,0,0,0,
371,387,0,0,0,0,0,0,0,0,0,0,0,0,0,0,
0,0,0,0,0,0,0,0,0,0,0,0,0,0,0,0,
0,0,0,0,0,0,0,0,0,0,0,0,0,0,0,0,
0,0,0,0,0,0,0,0,0,0,0,0,0,0,0,0,
492,387,0,0,0,0,0,0,0,0,0,0,0,0,0,0,
492,387,0,0,0,0,0,0,0,0,0,0,0,0,0,0,
492,387,0,0,0,0,0,0,0,0,0,0,0,0,0,0
</chunk>
   <chunk x="0" y="16" width="16" height="16">
0,0,0,0,0,0,0,0,0,0,0,0,492,492,492,492,
0,0,0,0,0,0,0,0,0,0,0,0,492,492,492,492,
0,0,0,0,0,0,0,0,0,0,0,0,492,492,492,492,
0,0,0,0,0,0,0,0,0,0,0,0,492,492,492,492,
0,0,0,0,0,0,0,0,0,0,0,0,492,492,492,492,
0,0,0,0,0,0,0,0,0,0,0,0,492,492,492,492,
0,0,0,0,0,0,0,0,0,0,0,0,492,492,492,492,
0,0,0,0,0,0,0,0,0,0,0,0,492,492,492,492,
0,0,0,0,0,0,0,0,0,0,0,0,492,492,492,492,
0,0,0,0,0,0,0,0,0,0,0,0,492,492,492,492,
0,0,0,0,0,0,0,0,0,0,0,0,492,492,492,492,
0,0,0,0,0,0,0,0,0,0,0,0,492,492,492,492,
0,0,0,0,0,0,0,0,0,0,0,0,492,492,492,492,
0,0,0,0,0,0,0,0,0,0,0,0,492,492,492,492,
0,0,0,0,0,0,0,0,0,0,0,0,492,492,492,492,
0,0,0,0,0,0,0,0,0,0,0,0,492,492,492,492
</chunk>
   <chunk x="16" y="16" width="16" height="16">
492,492,492,492,492,492,492,492,492,492,492,492,492,492,492,492,
492,492,492,492,492,492,492,492,492,492,492,492,492,492,492,492,
492,492,492,492,492,492,492,492,492,492,492,492,492,492,492,492,
492,492,492,492,492,492,492,492,492,492,492,492,492,492,492,492,
492,492,492,492,492,492,492,492,492,492,492,492,492,492,492,492,
492,492,492,492,492,492,492,492,492,492,492,492,492,492,492,492,
492,492,492,492,492,492,492,492,492,492,492,492,492,492,492,492,
492,492,492,492,492,492,492,492,492,492,492,492,492,492,492,492,
492,492,492,492,492,492,492,492,492,492,492,492,492,492,492,492,
492,492,492,492,492,492,492,492,492,492,492,492,492,492,492,492,
492,492,492,492,492,492,492,492,492,492,492,492,492,492,492,492,
492,492,492,492,492,492,492,492,492,492,492,492,492,492,492,492,
492,492,492,492,492,492,492,492,492,492,492,492,492,492,492,492,
492,492,492,492,492,492,492,492,492,492,492,492,492,492,492,492,
492,492,492,492,492,492,492,492,492,492,492,492,492,492,492,492,
492,492,492,492,492,492,492,492,492,492,492,492,492,492,492,492
</chunk>
   <chunk x="32" y="16" width="16" height="16">
492,387,0,0,0,0,0,0,0,0,0,0,0,0,0,0,
492,387,0,0,0,0,0,0,0,0,0,0,0,0,0,0,
492,387,0,0,0,0,0,0,0,0,0,0,0,0,0,0,
492,387,0,0,0,0,0,0,0,0,0,0,0,0,0,0,
375,387,0,0,0,0,0,0,0,0,0,0,0,0,0,0,
375,387,0,0,0,0,0,0,0,0,0,0,0,0,0,0,
492,387,0,0,0,0,0,0,0,0,0,0,0,0,0,0,
492,387,0,0,0,0,0,0,0,0,0,0,0,0,0,0,
492,387,0,0,0,0,0,0,0,0,0,0,0,0,0,0,
492,387,0,0,0,0,0,0,0,0,0,0,0,0,0,0,
492,387,0,0,0,0,0,0,0,0,0,0,0,0,0,0,
492,387,0,0,0,0,0,0,0,0,0,0,0,0,0,0,
492,387,0,0,0,0,0,0,0,0,0,0,0,0,0,0,
492,387,0,0,0,0,0,0,0,0,0,0,0,0,0,0,
492,387,0,0,0,0,0,0,0,0,0,0,0,0,0,0,
492,387,0,0,0,0,0,0,0,0,0,0,0,0,0,0
</chunk>
   <chunk x="0" y="32" width="16" height="16">
0,0,0,0,0,0,0,0,0,0,0,0,492,492,492,492,
0,0,0,0,0,0,0,0,0,0,0,0,492,492,492,492,
0,0,0,0,0,0,0,0,0,0,0,0,492,492,492,492,
0,0,0,0,0,0,0,0,0,0,0,0,492,492,492,492,
0,0,0,0,0,0,0,0,0,0,0,0,492,492,492,492,
0,0,0,0,0,0,0,0,0,0,0,0,492,492,492,492,
0,0,0,0,0,0,0,0,0,0,0,0,492,492,492,492,
0,0,0,0,0,0,0,0,0,0,0,0,492,492,492,492,
0,0,0,0,0,0,0,0,0,0,0,0,492,492,492,492,
0,0,0,0,0,0,0,0,0,0,0,0,492,492,492,492,
0,0,0,0,0,0,0,0,0,0,0,0,492,492,492,492,
0,0,0,0,0,0,0,0,0,0,0,0,492,492,492,492,
0,0,0,0,0,0,0,0,0,0,0,0,492,492,492,492,
0,0,0,0,0,0,0,0,0,0,0,0,0,0,0,0,
0,0,0,0,0,0,0,0,0,0,0,0,0,0,0,0,
0,0,0,0,0,0,0,0,0,0,0,0,0,0,0,0
</chunk>
   <chunk x="16" y="32" width="16" height="16">
492,492,492,492,492,492,492,492,492,492,492,492,492,492,492,492,
492,492,492,492,492,492,492,492,492,492,492,492,492,492,492,492,
492,492,492,492,492,492,492,492,492,492,492,492,492,492,492,492,
492,492,492,492,492,492,492,492,492,492,492,492,492,492,492,492,
492,492,492,492,492,492,492,492,492,492,492,492,492,492,492,492,
492,492,492,492,492,492,492,492,492,492,492,492,492,492,492,492,
492,492,492,492,492,492,492,492,492,492,492,492,492,492,492,492,
492,492,492,492,492,492,492,492,492,492,492,492,492,492,492,492,
492,492,492,492,492,492,492,492,492,492,492,492,492,492,492,492,
492,492,492,492,492,492,492,492,492,492,492,492,492,492,492,492,
492,492,492,492,492,492,492,492,492,492,492,492,492,492,492,492,
492,492,492,492,492,492,492,492,492,492,492,492,492,492,492,492,
492,492,492,492,492,492,492,492,492,492,492,492,492,492,492,492,
0,0,0,0,0,0,0,0,0,0,0,0,0,0,0,0,
0,0,0,0,0,0,0,0,0,0,0,0,0,0,0,0,
0,0,0,0,0,0,0,0,0,0,0,0,0,0,0,0
</chunk>
   <chunk x="32" y="32" width="16" height="16">
492,387,0,0,0,0,0,0,0,0,0,0,0,0,0,0,
492,387,0,0,0,0,0,0,0,0,0,0,0,0,0,0,
492,387,0,0,0,0,0,0,0,0,0,0,0,0,0,0,
492,387,0,0,0,0,0,0,0,0,0,0,0,0,0,0,
492,387,0,0,0,0,0,0,0,0,0,0,0,0,0,0,
492,387,0,0,0,0,0,0,0,0,0,0,0,0,0,0,
492,387,0,0,0,0,0,0,0,0,0,0,0,0,0,0,
492,387,0,0,0,0,0,0,0,0,0,0,0,0,0,0,
492,387,0,0,0,0,0,0,0,0,0,0,0,0,0,0,
492,387,0,0,0,0,0,0,0,0,0,0,0,0,0,0,
492,387,0,0,0,0,0,0,0,0,0,0,0,0,0,0,
492,387,0,0,0,0,0,0,0,0,0,0,0,0,0,0,
492,387,0,0,0,0,0,0,0,0,0,0,0,0,0,0,
0,0,0,0,0,0,0,0,0,0,0,0,0,0,0,0,
0,0,0,0,0,0,0,0,0,0,0,0,0,0,0,0,
0,0,0,0,0,0,0,0,0,0,0,0,0,0,0,0
</chunk>
  </data>
 </layer>
 <layer id="4" name="chi tiết phụ" width="75" height="39" visible="0">
  <data encoding="csv">
   <chunk x="0" y="0" width="16" height="16">
7,7,7,7,7,7,7,7,7,7,7,7,7,7,7,7,
7,0,0,0,0,0,0,0,0,0,0,0,0,0,0,0,
7,0,0,0,0,0,0,0,0,0,0,0,0,0,0,0,
7,0,0,0,0,0,0,0,0,0,0,0,0,0,0,0,
7,0,0,0,0,0,0,0,0,0,0,0,0,0,0,0,
7,0,0,0,0,0,0,0,0,0,0,0,0,0,0,0,
7,0,0,0,0,0,0,0,0,0,0,0,0,0,0,0,
7,0,0,0,0,0,0,0,0,0,0,0,0,0,0,0,
7,0,0,0,0,0,0,0,0,0,0,0,0,0,0,0,
7,0,0,0,0,0,0,0,0,0,0,0,0,0,0,0,
7,0,0,0,0,0,0,0,0,0,0,0,0,0,0,0,
7,0,0,0,0,0,0,0,0,0,0,0,0,0,0,0,
7,0,0,0,0,0,0,0,0,0,0,0,0,0,0,0,
7,0,0,0,0,0,0,0,0,0,0,0,0,0,0,0,
7,0,0,0,0,0,0,0,0,0,0,0,0,0,0,0,
7,0,0,0,0,0,0,0,0,0,0,0,0,0,0,0
</chunk>
   <chunk x="16" y="0" width="16" height="16">
7,7,7,7,7,7,7,7,7,7,7,7,7,7,7,7,
0,0,0,0,0,0,0,0,0,0,0,0,0,0,0,0,
0,0,0,0,0,0,0,0,0,0,0,0,0,0,0,0,
0,0,0,0,0,0,0,0,0,0,0,0,0,0,0,0,
0,0,0,0,0,0,0,0,0,0,0,0,0,0,0,0,
0,0,0,0,0,0,0,0,0,0,0,0,0,0,0,0,
0,0,0,0,0,0,0,0,0,0,0,0,0,0,0,0,
0,0,0,0,0,0,0,0,0,0,0,0,0,0,0,0,
0,0,0,0,0,0,0,0,0,0,0,0,0,0,0,0,
0,0,0,0,0,0,0,0,0,0,0,0,0,0,0,0,
0,0,0,0,0,0,0,0,0,0,0,0,0,0,0,0,
0,0,0,0,0,0,0,0,0,0,0,0,0,0,0,0,
0,0,0,0,0,0,0,0,0,0,0,0,0,0,0,0,
0,0,0,0,0,0,0,0,0,0,0,0,0,0,0,0,
0,0,0,0,0,0,0,0,0,0,0,0,0,0,0,0,
0,0,0,0,0,0,0,0,0,0,0,0,0,0,0,0
</chunk>
   <chunk x="32" y="0" width="16" height="16">
7,7,7,7,7,7,7,7,7,7,7,7,7,7,7,7,
0,0,0,0,0,0,0,0,0,0,0,0,0,0,0,0,
0,0,0,0,538,0,0,0,0,0,0,0,0,0,0,0,
0,0,0,0,0,0,0,0,0,0,0,0,0,0,0,0,
0,0,0,0,0,0,0,0,0,0,0,0,0,0,0,0,
0,0,0,0,0,0,0,0,0,0,0,0,0,0,0,0,
0,0,0,0,0,0,0,0,0,0,0,0,0,0,0,0,
0,0,0,0,0,0,0,0,0,0,0,0,0,0,0,0,
0,0,0,0,0,0,0,0,0,0,0,0,0,0,0,0,
0,0,0,0,0,0,0,0,0,0,0,0,0,0,0,0,
0,0,0,0,0,0,0,0,0,0,0,0,0,0,0,0,
0,0,0,0,0,0,0,0,0,0,0,0,0,0,0,0,
0,0,0,0,0,0,0,0,0,0,0,0,0,0,0,0,
0,0,0,0,0,0,0,0,0,0,0,0,0,0,0,0,
0,0,0,0,0,0,0,0,0,0,0,0,0,0,0,0,
0,0,0,0,0,0,0,0,0,0,0,0,0,0,0,0
</chunk>
   <chunk x="48" y="0" width="16" height="16">
7,7,7,7,7,7,0,0,0,0,0,0,0,0,0,0,
0,0,0,0,0,7,0,0,0,0,0,0,0,0,0,0,
0,0,0,0,0,7,0,0,0,0,0,0,0,0,0,0,
0,0,0,0,0,7,0,0,0,0,0,0,0,0,0,0,
0,0,0,0,0,7,0,0,0,0,0,0,0,0,0,0,
0,0,0,0,0,7,0,0,0,0,0,0,0,0,0,0,
0,0,0,0,0,7,0,0,0,0,0,0,0,0,0,0,
0,0,0,0,0,7,0,0,0,0,0,0,0,0,0,0,
0,0,0,0,0,7,0,0,0,0,0,0,0,0,0,0,
0,0,0,0,0,7,0,0,0,0,0,0,0,0,0,0,
0,0,0,0,0,7,0,0,0,0,0,0,0,0,0,0,
0,0,0,0,0,7,0,0,0,0,0,0,0,0,0,0,
0,0,0,0,0,7,0,0,0,0,0,0,0,0,0,0,
0,0,0,0,0,7,0,0,0,0,0,0,0,0,0,0,
0,0,0,0,0,7,0,0,0,0,0,0,0,0,0,0,
0,0,0,0,0,7,0,0,0,0,0,0,0,0,0,0
</chunk>
   <chunk x="0" y="16" width="16" height="16">
7,0,0,0,0,0,0,0,0,0,0,0,0,0,0,0,
7,0,0,0,0,0,0,0,0,0,0,0,0,0,0,0,
7,0,0,0,0,0,0,0,0,0,0,0,0,0,0,0,
7,0,0,0,0,0,0,0,0,0,0,0,0,0,0,0,
7,0,0,0,0,0,0,0,0,0,0,0,0,0,0,0,
7,0,0,0,0,0,0,0,0,0,0,0,0,0,0,0,
7,0,0,0,0,0,0,0,0,0,0,0,0,0,0,0,
7,0,0,0,0,0,0,0,0,0,0,0,0,0,0,0,
7,0,0,0,0,0,0,0,0,0,0,0,0,0,0,0,
7,0,0,0,0,0,0,0,0,0,0,0,0,0,0,0,
7,0,0,0,0,0,0,0,0,0,0,0,0,0,0,0,
7,0,0,0,0,0,0,0,0,0,0,0,0,0,0,0,
7,0,0,0,0,0,0,0,0,0,0,0,0,0,0,0,
7,0,0,0,0,0,0,0,0,0,0,0,0,0,0,0,
7,0,0,0,0,0,0,0,0,0,0,0,0,0,0,0,
7,0,0,0,0,0,0,0,0,0,0,0,0,0,0,0
</chunk>
   <chunk x="48" y="16" width="16" height="16">
0,0,0,0,0,7,0,0,0,0,0,0,0,0,0,0,
0,0,0,0,0,7,0,0,0,0,0,0,0,0,0,0,
0,0,0,0,0,7,0,0,0,0,0,0,0,0,0,0,
0,0,0,0,0,7,0,0,0,0,0,0,0,0,0,0,
0,0,0,0,0,7,0,0,0,0,0,0,0,0,0,0,
0,0,0,0,0,7,0,0,0,0,0,0,0,0,0,0,
0,0,0,0,0,7,0,0,0,0,0,0,0,0,0,0,
0,0,0,0,0,7,0,0,0,0,0,0,0,0,0,0,
0,0,0,0,0,7,0,0,0,0,0,0,0,0,0,0,
0,0,0,0,0,7,0,0,0,0,0,0,0,0,0,0,
0,0,0,0,0,7,0,0,0,0,0,0,0,0,0,0,
0,0,0,0,0,7,0,0,0,0,0,0,0,0,0,0,
0,0,0,0,0,7,0,0,0,0,0,0,0,0,0,0,
0,0,0,0,0,7,0,0,0,0,0,0,0,0,0,0,
0,0,0,0,0,7,0,0,0,0,0,0,0,0,0,0,
0,0,0,0,0,7,0,0,0,0,0,0,0,0,0,0
</chunk>
   <chunk x="0" y="32" width="16" height="16">
7,0,0,0,0,0,0,0,0,0,0,0,0,0,0,0,
7,0,0,0,0,0,0,0,0,0,0,0,0,0,0,0,
7,0,0,0,0,0,0,0,0,0,0,0,0,0,0,0,
7,0,0,0,0,0,0,0,0,0,0,0,0,0,0,0,
7,0,0,0,0,0,0,0,0,0,0,0,0,0,0,0,
7,0,0,0,0,0,0,0,0,0,0,0,0,0,0,0,
7,0,0,0,0,0,0,0,0,0,0,0,0,0,0,0,
7,0,0,0,0,0,0,0,0,0,0,0,0,0,0,0,
7,0,0,0,0,0,0,0,0,0,0,0,0,0,0,0,
7,0,0,0,0,0,0,0,0,0,0,0,0,0,0,0,
7,0,0,0,0,0,0,0,0,0,0,0,0,0,0,0,
7,0,0,0,0,0,0,0,0,0,0,0,0,0,0,0,
7,0,0,0,0,0,0,0,0,0,0,0,0,0,0,0,
0,0,0,0,0,0,0,0,0,0,0,0,0,0,0,0,
0,0,0,0,0,0,0,0,0,0,0,0,0,0,0,0,
0,0,0,0,0,0,0,0,0,0,0,0,0,0,0,0
</chunk>
   <chunk x="48" y="32" width="16" height="16">
0,0,0,0,0,7,0,0,0,0,0,0,0,0,0,0,
0,0,0,0,0,7,0,0,0,0,0,0,0,0,0,0,
0,0,0,0,0,7,0,0,0,0,0,0,0,0,0,0,
0,0,0,0,0,7,0,0,0,0,0,0,0,0,0,0,
0,0,0,0,0,7,0,0,0,0,0,0,0,0,0,0,
0,0,0,0,0,7,0,0,0,0,0,0,0,0,0,0,
0,0,0,0,0,7,0,0,0,0,0,0,0,0,0,0,
0,0,0,0,0,7,0,0,0,0,0,0,0,0,0,0,
0,0,0,0,0,7,0,0,0,0,0,0,0,0,0,0,
0,0,0,0,0,7,0,0,0,0,0,0,0,0,0,0,
0,0,0,0,0,7,0,0,0,0,0,0,0,0,0,0,
0,0,0,0,0,7,0,0,0,0,0,0,0,0,0,0,
0,0,0,0,0,7,0,0,0,0,0,0,0,0,0,0,
0,0,0,0,0,0,0,0,0,0,0,0,0,0,0,0,
0,0,0,0,0,0,0,0,0,0,0,0,0,0,0,0,
0,0,0,0,0,0,0,0,0,0,0,0,0,0,0,0
</chunk>
  </data>
 </layer>
 <layer id="5" name="lớp cỏ" width="75" height="39">
  <data encoding="csv">
   <chunk x="0" y="0" width="16" height="16">
0,0,256,255,282,279,331,281,327,257,259,282,255,254,0,0,
0,0,0,0,0,0,0,0,0,0,0,0,0,0,0,0,
0,0,0,0,0,0,0,0,0,0,0,0,0,0,0,0,
0,0,0,0,0,0,0,0,0,0,0,0,0,0,0,0,
0,0,0,0,0,0,0,0,0,0,0,0,0,0,0,0,
0,0,0,0,0,0,0,0,0,0,0,0,0,0,0,0,
0,0,0,0,0,0,0,0,0,0,0,0,0,0,0,0,
0,0,280,0,0,0,0,0,0,0,0,0,0,0,0,0,
0,0,0,305,307,0,0,0,0,0,0,0,0,0,0,0,
0,0,0,0,0,305,254,0,0,0,0,0,0,0,0,0,
0,0,0,0,0,0,0,281,279,254,281,255,0,0,0,0,
0,0,0,0,0,0,0,0,0,0,0,0,281,326,326,328,
0,0,0,0,0,0,0,0,0,0,0,0,0,0,0,0,
0,0,0,0,0,0,0,0,0,0,0,0,0,0,0,0,
0,0,0,0,0,0,0,0,0,0,0,0,0,0,0,257,
0,0,0,0,0,0,0,0,0,0,0,0,0,255,329,0
</chunk>
   <chunk x="16" y="0" width="16" height="16">
0,0,306,304,304,0,0,0,0,0,0,256,0,278,0,0,
0,0,0,283,329,279,0,0,0,0,0,0,302,0,280,0,
0,0,0,282,306,283,0,0,0,0,0,0,283,0,326,0,
0,0,0,257,302,254,0,0,0,0,0,0,0,258,0,331,
0,0,0,0,257,282,0,0,0,0,0,0,0,305,0,255,
0,0,0,0,281,255,0,0,0,0,0,0,0,0,257,282,
0,0,0,0,0,327,256,0,0,0,0,0,0,0,279,259,
0,0,0,0,0,303,303,0,0,0,0,0,0,0,259,330,
0,0,0,0,0,256,281,0,0,0,0,0,0,0,257,328,
0,0,0,0,0,255,280,0,0,0,0,0,0,0,282,258,
0,0,0,0,0,306,303,0,0,0,0,0,327,254,258,0,
281,279,303,257,256,259,255,302,254,305,280,304,0,0,256,0,
0,0,0,0,0,0,281,0,0,0,0,0,0,0,283,0,
0,0,0,0,0,0,0,0,0,0,0,0,0,0,257,0,
303,280,255,254,327,302,0,0,0,0,0,0,0,0,303,0,
0,0,0,0,0,0,303,0,0,0,0,0,0,0,258,0
</chunk>
   <chunk x="0" y="16" width="16" height="16">
0,0,0,0,0,0,0,0,0,0,0,328,278,0,0,0,
0,0,0,0,0,0,0,0,0,326,303,0,0,0,0,0,
0,0,0,0,0,0,0,0,306,0,0,0,0,0,0,0,
0,0,0,0,0,0,0,303,0,0,0,0,0,0,0,0,
0,0,0,0,0,0,0,280,0,0,0,0,0,0,0,0,
0,0,0,0,0,0,259,0,0,0,0,0,0,0,0,0,
0,0,0,0,0,0,256,0,0,0,0,0,0,0,0,0,
0,0,0,0,0,258,0,0,0,0,0,0,0,0,0,0,
0,0,0,0,0,302,0,0,0,0,0,0,0,0,0,0,
0,0,0,0,0,302,0,0,0,0,0,0,0,0,0,0,
0,0,0,0,0,281,0,0,0,0,0,0,0,0,0,0,
0,0,0,0,0,305,0,0,0,0,0,0,0,0,0,0,
0,0,0,0,0,259,0,0,0,0,0,0,0,0,0,0,
0,0,0,0,0,331,0,0,0,0,0,0,0,0,0,0,
0,0,0,0,0,283,0,0,0,0,0,0,0,0,0,0,
0,0,0,0,0,328,0,0,0,0,0,0,0,0,0,0
</chunk>
   <chunk x="16" y="16" width="16" height="16">
0,0,0,0,0,0,278,0,0,0,0,0,0,0,327,0,
0,0,0,0,0,0,327,0,0,0,0,0,0,0,256,0,
0,0,0,0,0,0,279,0,0,0,0,0,0,0,280,0,
0,0,0,0,0,0,328,0,0,0,0,0,0,0,257,0,
0,0,0,0,0,0,303,0,0,0,0,0,0,0,326,0,
0,0,0,0,0,0,257,0,0,0,0,0,0,0,326,0,
0,0,0,0,0,0,327,0,0,0,0,0,0,0,282,0,
0,0,0,0,0,0,327,0,0,0,0,0,0,0,305,0,
0,0,0,0,0,0,306,0,0,0,0,0,0,0,307,0,
0,0,0,0,0,0,303,0,0,0,0,0,0,255,0,0,
0,0,0,0,0,330,0,0,0,0,0,0,0,255,0,0,
0,0,0,0,0,329,0,0,0,0,0,0,255,0,0,0,
0,0,0,0,0,329,0,0,0,0,0,330,0,0,0,0,
0,0,0,0,0,328,0,0,0,0,259,0,0,0,0,0,
0,0,0,0,0,328,0,331,327,306,0,0,0,0,0,0,
0,0,0,279,302,282,254,0,0,0,0,0,0,0,0,0
</chunk>
   <chunk x="0" y="32" width="16" height="16">
0,0,0,0,0,331,0,0,0,0,0,0,0,0,0,307,
0,0,0,0,0,280,0,0,0,0,0,0,330,329,329,0,
0,0,0,0,0,255,283,280,282,328,278,328,0,0,0,0,
0,0,0,0,0,0,0,0,0,0,0,0,0,0,0,0,
0,0,0,0,0,0,0,0,0,0,0,0,0,0,0,0,
0,0,0,0,0,0,0,0,0,0,0,0,0,0,0,0,
0,0,0,0,0,0,0,0,0,0,0,0,0,0,0,0,
0,0,0,0,0,0,0,0,0,0,0,0,0,0,0,0,
0,0,0,0,0,0,0,0,0,0,0,0,0,0,0,0,
0,0,0,0,0,0,0,0,0,0,0,0,0,0,0,0,
0,0,0,0,0,0,0,0,0,0,0,0,0,0,0,0,
0,0,0,0,0,0,0,0,0,0,0,0,0,0,257,330,
0,0,0,0,0,0,0,0,0,0,0,307,330,306,0,0,
0,0,0,0,0,0,0,0,0,0,0,0,0,0,0,0,
0,0,0,0,0,0,0,0,0,0,0,0,0,0,0,0,
0,0,0,0,0,0,0,0,0,0,0,0,0,0,0,0
</chunk>
   <chunk x="16" y="32" width="16" height="16">
258,283,258,0,0,278,0,0,0,0,0,0,0,0,0,0,
0,0,0,0,279,0,0,0,0,0,0,0,0,0,0,0,
0,0,0,0,331,0,0,0,0,0,0,0,0,0,0,0,
0,0,0,326,0,0,0,0,0,0,0,0,0,0,0,0,
0,0,0,302,0,0,0,0,0,0,0,0,0,0,0,0,
0,0,255,0,0,0,0,0,0,0,0,0,0,0,0,0,
0,0,257,0,0,0,0,0,0,0,0,0,0,0,0,0,
0,304,0,0,0,0,0,0,0,0,0,0,0,0,0,0,
0,278,0,0,0,0,0,0,0,0,0,0,0,0,0,0,
329,0,0,0,0,0,0,0,0,0,0,0,0,0,0,0,
281,0,0,0,0,0,0,0,0,0,0,0,0,0,0,0,
0,0,0,0,0,0,0,0,0,0,0,0,0,0,0,0,
0,0,0,0,0,0,0,0,0,0,0,0,0,0,0,0,
0,0,0,0,0,0,0,0,0,0,0,0,0,0,0,0,
0,0,0,0,0,0,0,0,0,0,0,0,0,0,0,0,
0,0,0,0,0,0,0,0,0,0,0,0,0,0,0,0
</chunk>
  </data>
 </layer>
</map>
